N10 (======================================================)
N20 (===   cPost Standard PP for FANUC 11M              ===)
N30 (======================================================)
N40 G90 G17 G40 
N50 (=============== TOOL CHANGE =================)
N60 ( DESC : T1 Carbide Cutter 1/16)
N70 (=============================================)
N80 T2
N90 G91 G28 Z0. M6
N100 G0 G90 S20000 M3
N110  F15
N120 G0 X20. Y4.6 Z3.
N130 G1 Z-2.6 F15
N140 Z3. F60
N150 G0 Y25.721
N160 G1 Z-2.6 F15
N170 Z3. F60
N180 G0 X51.393 Y30.607
N190 G1 Z-2.6 F15
N200 Z3. F60
N210 G0 X72.607
N220 G1 Z-2.6 F15
N230 Z3. F60
N240 G0 Y9.393
N250 G1 Z-2.6 F15
N260 Z3. F60
N270 G0 X51.393
N280 G1 Z-2.6 F15
N290 Z3. F60
N300 X2.8 Y14.821 F15
N310 Z-2.5
N320 Y17.779 F30
N330 Y14.821
N340 Z3. F60
N350 X35.8 Y0. F15
N360 Z-2.5
N370 Y0.8 F30
N380 X40.
N390 G3 X40.8 Y1.6 I0. J0.8
N400 G1 Y6.721
N410 G3 X40. Y7.521 I-0.8 J0.
N420 G1 X22.121
N430 X21.556 Y7.287
N440 X20. Y5.731
N450 X3.566 Y22.166
N460 X3. Y22.4
N470 X0.
N480 G3 X-0.8 Y21.6 I0. J-0.8
N490 G1 Y6.956
N500 G3 X0.566 Y6.391 I0.8 J0.
N510 G1 X2.316 Y8.141
N520 G2 X2.599 Y7.859 I0.142 J-0.141
N530 G1 X-0.566 Y4.694
N540 X-0.8 Y4.128
N550 Y1.6
N560 G3 X0. Y0.8 I0.8 J0.
N570 G1 X4.2
N580 Y0.
N590 G3 X5. Y-0.8 I0.8 J0.
N600 G1 X35.
N610 Z3. F60
N620 X37.2 Y12.543 F15
N630 Z-2.5
N640 Y15.5 F30
N650 Y12.543
N660 Z3. F60
N670 X0. Y22.8 F15
N680 Z-2.5
N690 X17.879 F30
N700 X18.444 Y23.034
N710 X20. Y24.59
N720 X36.434 Y8.156
N730 X37. Y7.921
N740 X40.
N750 G3 X40.8 Y8.721 I0. J0.8
N760 G1 Y23.365
N770 G3 X39.434 Y23.931 I-0.8 J0.
N780 G1 X37.684 Y22.18
N790 G2 X37.401 Y22.463 I-0.142 J0.141
N800 G1 X40.566 Y25.628
N810 X40.8 Y26.193
N820 Y28.721
N830 G3 X40. Y29.521 I-0.8 J0.
N840 G1 X35.8
N850 Y30.321
N860 G3 X35. Y31.121 I-0.8 J0.
N870 G1 X5.
N880 G3 X4.2 Y30.321 I0. J-0.8
N890 G1 Y29.521
N900 X0.
N910 G3 X-0.8 Y28.721 I0. J-0.8
N920 G1 Y23.6
N930 Z3. F60
N940 X33.4 Y40.121 F15
N950 Z-2.5
N960 X1.6 F30
N970 G3 X0.8 Y39.321 I0. J-0.8
N980 G1 Y38.121
N990 X0.
N1000 G3 X-0.8 Y37.321 I0. J-0.8
N1010 G1 Y34.321
N1020 G3 X0. Y33.521 I0.8 J0.
N1030 G1 X0.8
N1040 Y32.321
N1050 G3 X1.6 Y31.521 I0.8 J0.
N1060 G1 X33.4
N1070 G3 X34.2 Y32.321 I0. J0.8
N1080 G1 Y33.521
N1090 X35.
N1100 G3 X35.8 Y34.321 I0. J0.8
N1110 G1 Y37.321
N1120 G3 X35. Y38.121 I-0.8 J0.
N1130 G1 X34.2
N1140 Y39.321
N1150 Z3. F60
N1160 X57.8 Y20. F15
N1170 Z-2.5
N1180 G2 X57.8 Y20. I4.2 J0. F30
N1190 G1 Z3. F60
N1200 X76.973 Y3.3 F15
N1210 Z-2.5
N1220 X47.027 F30
N1230 X76.973
N1240 Z3. F60
N1250 Y36.7 F15
N1260 Z-2.5
N1270 X47.027 F30
N1280 X76.973
N1290 Z3. F60
N1300 X82. Y40.8 F15
N1310 Z-2.5
N1320 X42. F30
N1330 G3 X41.2 Y40. I0. J-0.8
N1340 G1 Y0.
N1350 G3 X42. Y-0.8 I0.8 J0.
N1360 G1 X82.
N1370 G3 X82.8 Y0. I0. J0.8
N1380 G1 Y40.
N1390 Z3. F60
N1400 G0 Z20.
N1410 M5 M9 M30
