; ==== FlatCAM NC generated file ====
G90 G40 G17 G21 G94
M6 T1
;=============
G21
G90
G94
F30.00
G00 Z2.0000
M03 S20000
G00 X3.4800Y3.1750
G01 Z-2.5000
G01 X3.4785Y3.1451
G01 X3.4741Y3.1155
G01 X3.4669Y3.0865
G01 X3.4568Y3.0583
G01 X3.4440Y3.0312
G01 X3.4286Y3.0056
G01 X3.4108Y2.9815
G01 X3.3907Y2.9593
G01 X3.3685Y2.9392
G01 X3.3444Y2.9214
G01 X3.3188Y2.9060
G01 X3.2917Y2.8932
G01 X3.2635Y2.8831
G01 X3.2345Y2.8759
G01 X3.2049Y2.8715
G01 X3.1750Y2.8700
G01 X3.1451Y2.8715
G01 X3.1155Y2.8759
G01 X3.0865Y2.8831
G01 X3.0583Y2.8932
G01 X3.0312Y2.9060
G01 X3.0056Y2.9214
G01 X2.9815Y2.9392
G01 X2.9593Y2.9593
G01 X2.9392Y2.9815
G01 X2.9214Y3.0056
G01 X2.9060Y3.0312
G01 X2.8932Y3.0583
G01 X2.8831Y3.0865
G01 X2.8759Y3.1155
G01 X2.8715Y3.1451
G01 X2.8700Y3.1750
G01 X2.8715Y3.2049
G01 X2.8759Y3.2345
G01 X2.8831Y3.2635
G01 X2.8932Y3.2917
G01 X2.9060Y3.3188
G01 X2.9214Y3.3444
G01 X2.9392Y3.3685
G01 X2.9593Y3.3907
G01 X2.9815Y3.4108
G01 X3.0056Y3.4286
G01 X3.0312Y3.4440
G01 X3.0583Y3.4568
G01 X3.0865Y3.4669
G01 X3.1155Y3.4741
G01 X3.1451Y3.4785
G01 X3.1750Y3.4800
G01 X3.2049Y3.4785
G01 X3.2345Y3.4741
G01 X3.2635Y3.4669
G01 X3.2917Y3.4568
G01 X3.3188Y3.4440
G01 X3.3444Y3.4286
G01 X3.3685Y3.4108
G01 X3.3907Y3.3907
G01 X3.4108Y3.3685
G01 X3.4286Y3.3444
G01 X3.4440Y3.3188
G01 X3.4568Y3.2917
G01 X3.4669Y3.2635
G01 X3.4741Y3.2345
G01 X3.4785Y3.2049
G01 X3.4800Y3.1750
G00 Z2.0000
G00 X3.4800Y37.4650
G01 Z-2.5000
G01 X3.4785Y37.4351
G01 X3.4741Y37.4055
G01 X3.4669Y37.3765
G01 X3.4568Y37.3483
G01 X3.4440Y37.3212
G01 X3.4286Y37.2956
G01 X3.4108Y37.2715
G01 X3.3907Y37.2493
G01 X3.3685Y37.2292
G01 X3.3444Y37.2114
G01 X3.3188Y37.1960
G01 X3.2917Y37.1832
G01 X3.2635Y37.1731
G01 X3.2345Y37.1659
G01 X3.2049Y37.1615
G01 X3.1750Y37.1600
G01 X3.1451Y37.1615
G01 X3.1155Y37.1659
G01 X3.0865Y37.1731
G01 X3.0583Y37.1832
G01 X3.0312Y37.1960
G01 X3.0056Y37.2114
G01 X2.9815Y37.2292
G01 X2.9593Y37.2493
G01 X2.9392Y37.2715
G01 X2.9214Y37.2956
G01 X2.9060Y37.3212
G01 X2.8932Y37.3483
G01 X2.8831Y37.3765
G01 X2.8759Y37.4055
G01 X2.8715Y37.4351
G01 X2.8700Y37.4650
G01 X2.8715Y37.4949
G01 X2.8759Y37.5245
G01 X2.8831Y37.5535
G01 X2.8932Y37.5817
G01 X2.9060Y37.6088
G01 X2.9214Y37.6344
G01 X2.9392Y37.6585
G01 X2.9593Y37.6807
G01 X2.9815Y37.7008
G01 X3.0056Y37.7186
G01 X3.0312Y37.7340
G01 X3.0583Y37.7468
G01 X3.0865Y37.7569
G01 X3.1155Y37.7641
G01 X3.1451Y37.7685
G01 X3.1750Y37.7700
G01 X3.2049Y37.7685
G01 X3.2345Y37.7641
G01 X3.2635Y37.7569
G01 X3.2917Y37.7468
G01 X3.3188Y37.7340
G01 X3.3444Y37.7186
G01 X3.3685Y37.7008
G01 X3.3907Y37.6807
G01 X3.4108Y37.6585
G01 X3.4286Y37.6344
G01 X3.4440Y37.6088
G01 X3.4568Y37.5817
G01 X3.4669Y37.5535
G01 X3.4741Y37.5245
G01 X3.4785Y37.4949
G01 X3.4800Y37.4650
G00 Z2.0000
G00 X37.7700Y37.4650
G01 Z-2.5000
G01 X37.7685Y37.4351
G01 X37.7641Y37.4055
G01 X37.7569Y37.3765
G01 X37.7468Y37.3483
G01 X37.7340Y37.3212
G01 X37.7186Y37.2956
G01 X37.7008Y37.2715
G01 X37.6807Y37.2493
G01 X37.6585Y37.2292
G01 X37.6344Y37.2114
G01 X37.6088Y37.1960
G01 X37.5817Y37.1832
G01 X37.5535Y37.1731
G01 X37.5245Y37.1659
G01 X37.4949Y37.1615
G01 X37.4650Y37.1600
G01 X37.4351Y37.1615
G01 X37.4055Y37.1659
G01 X37.3765Y37.1731
G01 X37.3483Y37.1832
G01 X37.3212Y37.1960
G01 X37.2956Y37.2114
G01 X37.2715Y37.2292
G01 X37.2493Y37.2493
G01 X37.2292Y37.2715
G01 X37.2114Y37.2956
G01 X37.1960Y37.3212
G01 X37.1832Y37.3483
G01 X37.1731Y37.3765
G01 X37.1659Y37.4055
G01 X37.1615Y37.4351
G01 X37.1600Y37.4650
G01 X37.1615Y37.4949
G01 X37.1659Y37.5245
G01 X37.1731Y37.5535
G01 X37.1832Y37.5817
G01 X37.1960Y37.6088
G01 X37.2114Y37.6344
G01 X37.2292Y37.6585
G01 X37.2493Y37.6807
G01 X37.2715Y37.7008
G01 X37.2956Y37.7186
G01 X37.3212Y37.7340
G01 X37.3483Y37.7468
G01 X37.3765Y37.7569
G01 X37.4055Y37.7641
G01 X37.4351Y37.7685
G01 X37.4650Y37.7700
G01 X37.4949Y37.7685
G01 X37.5245Y37.7641
G01 X37.5535Y37.7569
G01 X37.5817Y37.7468
G01 X37.6088Y37.7340
G01 X37.6344Y37.7186
G01 X37.6585Y37.7008
G01 X37.6807Y37.6807
G01 X37.7008Y37.6585
G01 X37.7186Y37.6344
G01 X37.7340Y37.6088
G01 X37.7468Y37.5817
G01 X37.7569Y37.5535
G01 X37.7641Y37.5245
G01 X37.7685Y37.4949
G01 X37.7700Y37.4650
G00 Z2.0000
G00 X41.5098Y38.1195
G01 Z-2.5000
G01 X41.5087Y38.1464
G01 X41.5058Y38.1853
G01 X41.5010Y38.2240
G01 X41.4933Y38.2697
G01 X41.4847Y38.3078
G01 X41.4725Y38.3525
G01 X41.4578Y38.3965
G01 X41.4438Y38.4329
G01 X41.4280Y38.4686
G01 X41.4073Y38.5101
G01 X41.3880Y38.5441
G01 X41.3634Y38.5833
G01 X41.3409Y38.6152
G01 X41.3125Y38.6519
G01 X41.2821Y38.6869
G01 X41.2552Y38.7152
G01 X38.7152Y41.2552
G01 X38.6869Y41.2821
G01 X38.6519Y41.3125
G01 X38.6152Y41.3409
G01 X38.5833Y41.3634
G01 X38.5504Y41.3843
G01 X38.5101Y41.4073
G01 X38.4686Y41.4280
G01 X38.4329Y41.4438
G01 X38.3965Y41.4578
G01 X38.3525Y41.4725
G01 X38.3149Y41.4829
G01 X38.2697Y41.4933
G01 X38.2313Y41.5000
G01 X38.1853Y41.5058
G01 X38.1464Y41.5087
G01 X38.1000Y41.5100
G01 X2.5400Y41.5100
G01 X2.4936Y41.5087
G01 X2.4547Y41.5058
G01 X2.4087Y41.5000
G01 X2.3703Y41.4933
G01 X2.3322Y41.4847
G01 X2.2875Y41.4725
G01 X2.2504Y41.4603
G01 X2.2071Y41.4438
G01 X2.1647Y41.4248
G01 X2.1299Y41.4073
G01 X2.0959Y41.3880
G01 X2.0567Y41.3634
G01 X2.0248Y41.3409
G01 X1.9881Y41.3125
G01 X1.9585Y41.2870
G01 X1.9248Y41.2552
G01 X-0.6152Y38.7152
G01 X-0.6470Y38.6815
G01 X-0.6725Y38.6519
G01 X-0.7009Y38.6152
G01 X-0.7234Y38.5833
G01 X-0.7443Y38.5504
G01 X-0.7673Y38.5101
G01 X-0.7848Y38.4753
G01 X-0.8038Y38.4329
G01 X-0.8203Y38.3896
G01 X-0.8325Y38.3525
G01 X-0.8447Y38.3078
G01 X-0.8533Y38.2697
G01 X-0.8600Y38.2313
G01 X-0.8658Y38.1853
G01 X-0.8687Y38.1464
G01 X-0.8700Y38.1000
G01 X-0.8700Y2.5400
G01 X-0.8687Y2.4936
G01 X-0.8658Y2.4547
G01 X-0.8600Y2.4087
G01 X-0.8533Y2.3703
G01 X-0.8447Y2.3322
G01 X-0.8325Y2.2875
G01 X-0.8178Y2.2435
G01 X-0.8038Y2.2071
G01 X-0.7848Y2.1647
G01 X-0.7673Y2.1299
G01 X-0.7480Y2.0959
G01 X-0.7234Y2.0567
G01 X-0.6965Y2.0188
G01 X-0.6725Y1.9881
G01 X-0.6421Y1.9531
G01 X-0.6152Y1.9248
G01 X1.9248Y-0.6152
G01 X1.9585Y-0.6470
G01 X1.9881Y-0.6725
G01 X2.0188Y-0.6965
G01 X2.0567Y-0.7234
G01 X2.0896Y-0.7443
G01 X2.1299Y-0.7673
G01 X2.1647Y-0.7848
G01 X2.2071Y-0.8038
G01 X2.2435Y-0.8178
G01 X2.2875Y-0.8325
G01 X2.3322Y-0.8447
G01 X2.3703Y-0.8533
G01 X2.4160Y-0.8610
G01 X2.4547Y-0.8658
G01 X2.4936Y-0.8687
G01 X2.5400Y-0.8700
G01 X38.1000Y-0.8700
G01 X38.1390Y-0.8690
G01 X38.1853Y-0.8658
G01 X38.2240Y-0.8610
G01 X38.2697Y-0.8533
G01 X38.3078Y-0.8447
G01 X38.3525Y-0.8325
G01 X38.3965Y-0.8178
G01 X38.4329Y-0.8038
G01 X38.4706Y-0.7870
G01 X38.5101Y-0.7673
G01 X38.5441Y-0.7480
G01 X38.5833Y-0.7234
G01 X38.6212Y-0.6965
G01 X38.6519Y-0.6725
G01 X38.6869Y-0.6421
G01 X38.7152Y-0.6152
G01 X41.2552Y1.9248
G01 X41.2870Y1.9585
G01 X41.3125Y1.9881
G01 X41.3365Y2.0188
G01 X41.3634Y2.0567
G01 X41.3843Y2.0896
G01 X41.4073Y2.1299
G01 X41.4280Y2.1714
G01 X41.4438Y2.2071
G01 X41.4578Y2.2435
G01 X41.4725Y2.2875
G01 X41.4847Y2.3322
G01 X41.4933Y2.3703
G01 X41.5001Y2.4096
G01 X41.5058Y2.4547
G01 X41.5087Y2.4936
G01 X41.5100Y2.5400
G01 X41.5098Y38.1195
G00 Z2.0000
G00 X37.7700Y3.1750
G01 Z-2.5000
G01 X37.7685Y3.1451
G01 X37.7641Y3.1155
G01 X37.7569Y3.0865
G01 X37.7468Y3.0583
G01 X37.7340Y3.0312
G01 X37.7186Y3.0056
G01 X37.7008Y2.9815
G01 X37.6807Y2.9593
G01 X37.6585Y2.9392
G01 X37.6344Y2.9214
G01 X37.6088Y2.9060
G01 X37.5817Y2.8932
G01 X37.5535Y2.8831
G01 X37.5245Y2.8759
G01 X37.4949Y2.8715
G01 X37.4650Y2.8700
G01 X37.4351Y2.8715
G01 X37.4055Y2.8759
G01 X37.3765Y2.8831
G01 X37.3483Y2.8932
G01 X37.3212Y2.9060
G01 X37.2956Y2.9214
G01 X37.2715Y2.9392
G01 X37.2493Y2.9593
G01 X37.2292Y2.9815
G01 X37.2114Y3.0056
G01 X37.1960Y3.0312
G01 X37.1832Y3.0583
G01 X37.1731Y3.0865
G01 X37.1659Y3.1155
G01 X37.1615Y3.1451
G01 X37.1600Y3.1750
G01 X37.1615Y3.2049
G01 X37.1659Y3.2345
G01 X37.1731Y3.2635
G01 X37.1832Y3.2917
G01 X37.1960Y3.3188
G01 X37.2114Y3.3444
G01 X37.2292Y3.3685
G01 X37.2493Y3.3907
G01 X37.2715Y3.4108
G01 X37.2956Y3.4286
G01 X37.3212Y3.4440
G01 X37.3483Y3.4568
G01 X37.3765Y3.4669
G01 X37.4055Y3.4741
G01 X37.4351Y3.4785
G01 X37.4650Y3.4800
G01 X37.4949Y3.4785
G01 X37.5245Y3.4741
G01 X37.5535Y3.4669
G01 X37.5817Y3.4568
G01 X37.6088Y3.4440
G01 X37.6344Y3.4286
G01 X37.6585Y3.4108
G01 X37.6807Y3.3907
G01 X37.7008Y3.3685
G01 X37.7186Y3.3444
G01 X37.7340Y3.3188
G01 X37.7468Y3.2917
G01 X37.7569Y3.2635
G01 X37.7641Y3.2345
G01 X37.7685Y3.2049
G01 X37.7700Y3.1750
G00 Z2.0000
G00 Z2.0000
G00 X0Y0
M05
;=============
G0 Z20
M30