; ==== FlatCAM NC generated file ====
G90 G40 G17 G21 G94
M6 T1
;=============
G21
G90
G94
F30.00
G00 Z2.0000
M03 S10000
G00 X33.0200Y25.4000
G01 Z-3.0000
G01 Z0
G00 Z2.0000
G00 X33.0200Y22.8600
G01 Z-3.0000
G01 Z0
G00 Z2.0000
G00 X33.0200Y20.3200
G01 Z-3.0000
G01 Z0
G00 Z2.0000
G00 X33.0200Y17.7800
G01 Z-3.0000
G01 Z0
G00 Z2.0000
G00 X33.0200Y15.2400
G01 Z-3.0000
G01 Z0
G00 Z2.0000
G00 X33.0200Y12.7000
G01 Z-3.0000
G01 Z0
G00 Z2.0000
G00 X33.0200Y10.1600
G01 Z-3.0000
G01 Z0
G00 Z2.0000
G00 X33.0200Y7.6200
G01 Z-3.0000
G01 Z0
G00 Z2.0000
G00 X33.0200Y5.0800
G01 Z-3.0000
G01 Z0
G00 Z2.0000
G00 X24.1300Y34.2900
G01 Z-3.0000
G01 Z0
G00 Z2.0000
G00 X24.1300Y31.7500
G01 Z-3.0000
G01 Z0
G00 Z2.0000
G00 X21.5900Y34.2900
G01 Z-3.0000
G01 Z0
G00 Z2.0000
G00 X21.5900Y31.7500
G01 Z-3.0000
G01 Z0
G00 Z2.0000
G00 X19.0500Y34.2900
G01 Z-3.0000
G01 Z0
G00 Z2.0000
G00 X19.0500Y31.7500
G01 Z-3.0000
G01 Z0
G00 Z2.0000
G00 X16.5100Y34.2900
G01 Z-3.0000
G01 Z0
G00 Z2.0000
G00 X16.5100Y31.7500
G01 Z-3.0000
G01 Z0
G00 Z2.0000
G00 X7.6200Y25.4000
G01 Z-3.0000
G01 Z0
G00 Z2.0000
G00 X7.6200Y22.8600
G01 Z-3.0000
G01 Z0
G00 Z2.0000
G00 X7.6200Y20.3200
G01 Z-3.0000
G01 Z0
G00 Z2.0000
G00 X7.6200Y17.7800
G01 Z-3.0000
G01 Z0
G00 Z2.0000
G00 X7.6200Y15.2400
G01 Z-3.0000
G01 Z0
G00 Z2.0000
G00 X7.6200Y12.7000
G01 Z-3.0000
G01 Z0
G00 Z2.0000
G00 X7.6200Y10.1600
G01 Z-3.0000
G01 Z0
G00 Z2.0000
G00 X7.6200Y7.6200
G01 Z-3.0000
G01 Z0
G00 Z2.0000
G00 X7.6200Y5.0800
G01 Z-3.0000
G01 Z0
G00 Z2.0000
G00 X0.0000Y0.0000
M05
;=============
G0 Z20
M30