; ==== FlatCAM NC generated file ====
G90 G40 G17 G21 G94
M6 T1
;=============
G21
G90
G94
F150.00
G00 Z2.0000
M03 S20000
G00 X6.6506Y4.4625
G01 Z-0.2000
G01 X6.3426Y4.4626
G01 X6.2895Y4.4655
G01 X6.2295Y4.4744
G01 X6.1849Y4.4852
G01 X6.1568Y4.4937
G01 X6.1137Y4.5095
G01 X6.0721Y4.5288
G01 X6.0461Y4.5427
G01 X6.0069Y4.5666
G01 X5.9699Y4.5936
G01 X5.9471Y4.6123
G01 X5.9134Y4.6434
G01 X3.3682Y7.1886
G01 X3.3327Y7.2283
G01 X3.2966Y7.2769
G01 X3.2654Y7.3289
G01 X3.2455Y7.3702
G01 X3.2342Y7.3974
G01 X3.2237Y7.4268
G01 X3.2152Y7.4549
G01 X3.2044Y7.4995
G01 X3.1955Y7.5595
G01 X3.1925Y7.6200
G01 X3.1925Y34.2900
G01 X3.1955Y34.3505
G01 X3.2018Y34.3960
G01 X3.2076Y34.4248
G01 X3.2152Y34.4551
G01 X3.2237Y34.4832
G01 X3.2395Y34.5263
G01 X3.2588Y34.5679
G01 X3.2727Y34.5939
G01 X3.2887Y34.6206
G01 X3.3050Y34.6451
G01 X3.3327Y34.6817
G01 X3.3682Y34.7214
G01 X5.9134Y37.2666
G01 X5.9471Y37.2977
G01 X5.9699Y37.3164
G01 X6.0069Y37.3434
G01 X6.0589Y37.3746
G01 X6.1002Y37.3945
G01 X6.1274Y37.4058
G01 X6.1708Y37.4209
G01 X6.2295Y37.4356
G01 X6.2895Y37.4445
G01 X6.3500Y37.4475
G01 X17.7800Y37.4475
G01 X17.8405Y37.4445
G01 X17.8860Y37.4382
G01 X17.9148Y37.4324
G01 X17.9451Y37.4248
G01 X17.9732Y37.4163
G01 X18.0163Y37.4005
G01 X18.0579Y37.3812
G01 X18.0839Y37.3673
G01 X18.1106Y37.3513
G01 X18.1351Y37.3350
G01 X18.1717Y37.3073
G01 X18.2114Y37.2718
G01 X19.4866Y35.9966
G01 X19.5273Y35.9517
G01 X19.5550Y35.9151
G01 X19.5713Y35.8906
G01 X19.5946Y35.8511
G01 X19.6145Y35.8098
G01 X19.6258Y35.7826
G01 X19.6409Y35.7393
G01 X19.6556Y35.6805
G01 X19.6645Y35.6205
G01 X19.6674Y35.5674
G01 X19.6675Y35.2594
G01 X19.6889Y35.2462
G01 X19.7009Y35.2377
G01 X19.7679Y35.1880
G01 X19.7907Y35.1693
G01 X19.8632Y35.1032
G01 X19.9293Y35.0307
G01 X19.9480Y35.0079
G01 X20.0062Y34.9289
G01 X20.0642Y34.8321
G01 X20.1125Y34.7301
G01 X20.1459Y34.6378
G01 X20.1544Y34.6096
G01 X20.1779Y34.5144
G01 X20.1945Y34.4027
G01 X20.2000Y34.2900
G01 X20.1945Y34.1773
G01 X20.1779Y34.0656
G01 X20.1505Y33.9562
G01 X20.1125Y33.8499
G01 X20.0642Y33.7479
G01 X20.0062Y33.6511
G01 X19.9390Y33.5604
G01 X19.8632Y33.4768
G01 X19.7796Y33.4010
G01 X19.6889Y33.3338
G01 X19.5921Y33.2758
G01 X19.4901Y33.2275
G01 X19.3978Y33.1941
G01 X19.3696Y33.1856
G01 X19.2887Y33.1653
G01 X19.2598Y33.1596
G01 X19.1627Y33.1455
G01 X19.0500Y33.1400
G01 X18.9373Y33.1455
G01 X18.8402Y33.1596
G01 X18.8113Y33.1653
G01 X18.7304Y33.1856
G01 X18.7022Y33.1941
G01 X18.6099Y33.2275
G01 X18.5079Y33.2758
G01 X18.4111Y33.3338
G01 X18.3321Y33.3920
G01 X18.3093Y33.4107
G01 X18.2475Y33.4667
G01 X18.2267Y33.4875
G01 X18.1610Y33.5604
G01 X18.1023Y33.6391
G01 X18.0859Y33.6635
G01 X18.0358Y33.7479
G01 X17.9875Y33.8499
G01 X17.9495Y33.9562
G01 X17.9221Y34.0656
G01 X17.9055Y34.1773
G01 X17.9004Y34.2753
G01 X17.9001Y34.2974
G01 X17.9055Y34.4027
G01 X17.9221Y34.5144
G01 X17.9495Y34.6238
G01 X17.9875Y34.7301
G01 X18.0358Y34.8321
G01 X18.0938Y34.9289
G01 X18.1610Y35.0196
G01 X18.2368Y35.1032
G01 X18.3204Y35.1790
G01 X18.3991Y35.2377
G01 X18.4111Y35.2462
G01 X18.4325Y35.2594
G01 X18.4325Y35.3042
G01 X17.5242Y36.2125
G01 X6.6058Y36.2125
G01 X4.4275Y34.0342
G01 X4.4275Y7.8758
G01 X6.6058Y5.6975
G01 X6.6506Y5.6975
G01 X6.6638Y5.7189
G01 X6.6723Y5.7309
G01 X6.7220Y5.7979
G01 X6.7407Y5.8207
G01 X6.8068Y5.8932
G01 X6.8793Y5.9593
G01 X6.9021Y5.9780
G01 X6.9811Y6.0362
G01 X7.0651Y6.0870
G01 X7.0910Y6.1008
G01 X7.1799Y6.1425
G01 X7.2722Y6.1759
G01 X7.3004Y6.1844
G01 X7.3956Y6.2079
G01 X7.5073Y6.2245
G01 X7.6200Y6.2300
G01 X7.7180Y6.2255
G01 X7.7473Y6.2227
G01 X7.8298Y6.2104
G01 X7.8587Y6.2047
G01 X7.9538Y6.1805
G01 X8.0601Y6.1425
G01 X8.1621Y6.0942
G01 X8.2465Y6.0441
G01 X8.2709Y6.0277
G01 X8.3379Y5.9780
G01 X8.3607Y5.9593
G01 X8.4332Y5.8932
G01 X8.4993Y5.8207
G01 X8.5180Y5.7979
G01 X8.5677Y5.7309
G01 X8.5841Y5.7065
G01 X8.6342Y5.6221
G01 X8.6825Y5.5201
G01 X8.7159Y5.4278
G01 X8.7244Y5.3996
G01 X8.7479Y5.3044
G01 X8.7645Y5.1927
G01 X8.7700Y5.0800
G01 X8.7655Y4.9820
G01 X8.7627Y4.9527
G01 X8.7504Y4.8702
G01 X8.7447Y4.8413
G01 X8.7205Y4.7462
G01 X8.6825Y4.6399
G01 X8.6342Y4.5379
G01 X8.5762Y4.4411
G01 X8.5090Y4.3504
G01 X8.4433Y4.2775
G01 X8.4225Y4.2567
G01 X8.3607Y4.2007
G01 X8.3379Y4.1820
G01 X8.2589Y4.1238
G01 X8.1621Y4.0658
G01 X8.0601Y4.0175
G01 X7.9678Y3.9841
G01 X7.9396Y3.9756
G01 X7.8587Y3.9553
G01 X7.8298Y3.9496
G01 X7.7327Y3.9355
G01 X7.6347Y3.9304
G01 X7.6053Y3.9304
G01 X7.5073Y3.9355
G01 X7.3956Y3.9521
G01 X7.2862Y3.9795
G01 X7.1937Y4.0122
G01 X7.1665Y4.0235
G01 X7.0910Y4.0592
G01 X7.0651Y4.0730
G01 X6.9811Y4.1238
G01 X6.8904Y4.1910
G01 X6.8068Y4.2668
G01 X6.7407Y4.3393
G01 X6.7220Y4.3621
G01 X6.6723Y4.4291
G01 X6.6638Y4.4411
G01 X6.6506Y4.4625
G00 Z2.0000
G00 X6.7072Y4.5625
G01 Z-0.2000
G01 X6.3451Y4.5626
G01 X6.2993Y4.5650
G01 X6.2490Y4.5724
G01 X6.2092Y4.5822
G01 X6.1905Y4.5879
G01 X6.1520Y4.6019
G01 X6.1148Y4.6192
G01 X6.0975Y4.6284
G01 X6.0625Y4.6497
G01 X6.0294Y4.6739
G01 X6.0143Y4.6864
G01 X5.9841Y4.7141
G01 X3.4406Y7.2576
G01 X3.4100Y7.2917
G01 X3.3797Y7.3325
G01 X3.3536Y7.3761
G01 X3.3359Y7.4130
G01 X3.3284Y7.4311
G01 X3.3179Y7.4605
G01 X3.3122Y7.4792
G01 X3.3024Y7.5190
G01 X3.2950Y7.5693
G01 X3.2925Y7.6200
G01 X3.2925Y34.2900
G01 X3.2950Y34.3407
G01 X3.3008Y34.3813
G01 X3.3046Y34.4005
G01 X3.3122Y34.4308
G01 X3.3179Y34.4495
G01 X3.3319Y34.4880
G01 X3.3492Y34.5252
G01 X3.3584Y34.5425
G01 X3.3745Y34.5692
G01 X3.3854Y34.5855
G01 X3.4100Y34.6183
G01 X3.4406Y34.6524
G01 X5.9841Y37.1959
G01 X6.0143Y37.2236
G01 X6.0294Y37.2361
G01 X6.0625Y37.2603
G01 X6.1061Y37.2864
G01 X6.1430Y37.3041
G01 X6.1611Y37.3116
G01 X6.1998Y37.3252
G01 X6.2490Y37.3376
G01 X6.2993Y37.3450
G01 X6.3500Y37.3475
G01 X17.7800Y37.3475
G01 X17.8307Y37.3450
G01 X17.8713Y37.3392
G01 X17.8905Y37.3354
G01 X17.9208Y37.3278
G01 X17.9395Y37.3221
G01 X17.9780Y37.3081
G01 X18.0152Y37.2908
G01 X18.0325Y37.2816
G01 X18.0592Y37.2655
G01 X18.0755Y37.2546
G01 X18.1083Y37.2300
G01 X18.1424Y37.1994
G01 X19.4159Y35.9259
G01 X19.4500Y35.8883
G01 X19.4746Y35.8555
G01 X19.4855Y35.8392
G01 X19.5064Y35.8039
G01 X19.5241Y35.7670
G01 X19.5316Y35.7489
G01 X19.5452Y35.7102
G01 X19.5554Y35.6705
G01 X19.5592Y35.6513
G01 X19.5650Y35.6107
G01 X19.5674Y35.5649
G01 X19.5675Y35.2028
G01 X19.6333Y35.1630
G01 X19.7161Y35.1017
G01 X19.7925Y35.0325
G01 X19.8552Y34.9635
G01 X19.8677Y34.9484
G01 X19.9230Y34.8733
G01 X19.9712Y34.7935
G01 X19.9804Y34.7762
G01 X20.0161Y34.7008
G01 X20.0236Y34.6827
G01 X20.0548Y34.5948
G01 X20.0798Y34.4948
G01 X20.0949Y34.3929
G01 X20.1000Y34.2900
G01 X20.0949Y34.1871
G01 X20.0798Y34.0852
G01 X20.0548Y33.9852
G01 X20.0201Y33.8882
G01 X19.9760Y33.7950
G01 X19.9230Y33.7067
G01 X19.8617Y33.6239
G01 X19.7925Y33.5475
G01 X19.7161Y33.4783
G01 X19.6333Y33.4170
G01 X19.5450Y33.3640
G01 X19.4608Y33.3239
G01 X19.4427Y33.3164
G01 X19.3548Y33.2852
G01 X19.2548Y33.2602
G01 X19.1529Y33.2451
G01 X19.0598Y33.2402
G01 X19.0402Y33.2402
G01 X18.9569Y33.2443
G01 X18.9373Y33.2463
G01 X18.8452Y33.2602
G01 X18.7452Y33.2852
G01 X18.6482Y33.3199
G01 X18.5550Y33.3640
G01 X18.4667Y33.4170
G01 X18.3916Y33.4723
G01 X18.3765Y33.4848
G01 X18.3146Y33.5408
G01 X18.3008Y33.5546
G01 X18.2383Y33.6239
G01 X18.1826Y33.6986
G01 X18.1717Y33.7149
G01 X18.1240Y33.7950
G01 X18.0799Y33.8882
G01 X18.0452Y33.9852
G01 X18.0202Y34.0852
G01 X18.0051Y34.1871
G01 X18.0002Y34.2802
G01 X18.0001Y34.2949
G01 X18.0051Y34.3929
G01 X18.0202Y34.4948
G01 X18.0452Y34.5948
G01 X18.0799Y34.6918
G01 X18.1240Y34.7850
G01 X18.1717Y34.8651
G01 X18.1826Y34.8814
G01 X18.2383Y34.9561
G01 X18.3008Y35.0254
G01 X18.3146Y35.0392
G01 X18.3765Y35.0952
G01 X18.3916Y35.1077
G01 X18.4667Y35.1630
G01 X18.5325Y35.2028
G01 X18.5325Y35.3456
G01 X17.5656Y36.3125
G01 X6.5644Y36.3125
G01 X4.3275Y34.0756
G01 X4.3275Y7.8344
G01 X6.5644Y5.5975
G01 X6.7072Y5.5975
G01 X6.7470Y5.6633
G01 X6.8023Y5.7384
G01 X6.8148Y5.7535
G01 X6.8775Y5.8225
G01 X6.9539Y5.8917
G01 X7.0286Y5.9474
G01 X7.0449Y5.9583
G01 X7.1250Y6.0060
G01 X7.2092Y6.0461
G01 X7.2273Y6.0536
G01 X7.3152Y6.0848
G01 X7.4056Y6.1077
G01 X7.4248Y6.1115
G01 X7.5171Y6.1249
G01 X7.6200Y6.1300
G01 X7.7131Y6.1257
G01 X7.7327Y6.1237
G01 X7.8248Y6.1098
G01 X7.9248Y6.0848
G01 X8.0127Y6.0536
G01 X8.0308Y6.0461
G01 X8.1150Y6.0060
G01 X8.1951Y5.9583
G01 X8.2114Y5.9474
G01 X8.2861Y5.8917
G01 X8.3554Y5.8292
G01 X8.3692Y5.8154
G01 X8.4317Y5.7461
G01 X8.4874Y5.6714
G01 X8.4983Y5.6551
G01 X8.5460Y5.5750
G01 X8.5901Y5.4818
G01 X8.6248Y5.3848
G01 X8.6498Y5.2848
G01 X8.6649Y5.1829
G01 X8.6700Y5.0800
G01 X8.6649Y4.9771
G01 X8.6498Y4.8752
G01 X8.6248Y4.7752
G01 X8.5901Y4.6782
G01 X8.5460Y4.5850
G01 X8.4930Y4.4967
G01 X8.4317Y4.4139
G01 X8.3625Y4.3375
G01 X8.2861Y4.2683
G01 X8.2033Y4.2070
G01 X8.1150Y4.1540
G01 X8.0218Y4.1099
G01 X7.9248Y4.0752
G01 X7.8248Y4.0502
G01 X7.7229Y4.0351
G01 X7.6200Y4.0300
G01 X7.5171Y4.0351
G01 X7.4152Y4.0502
G01 X7.3152Y4.0752
G01 X7.2182Y4.1099
G01 X7.1250Y4.1540
G01 X7.0367Y4.2070
G01 X6.9539Y4.2683
G01 X6.8775Y4.3375
G01 X6.8083Y4.4139
G01 X6.7470Y4.4967
G01 X6.7072Y4.5625
G00 Z2.0000
G00 X6.7677Y4.6625
G01 Z-0.2000
G01 X6.7822Y4.6322
G01 X6.8301Y4.5522
G01 X6.8856Y4.4773
G01 X6.9482Y4.4082
G01 X7.0173Y4.3456
G01 X7.0922Y4.2901
G01 X7.1722Y4.2422
G01 X7.2565Y4.2023
G01 X7.3442Y4.1709
G01 X7.4347Y4.1483
G01 X7.5269Y4.1346
G01 X7.6200Y4.1300
G01 X7.7131Y4.1346
G01 X7.8053Y4.1483
G01 X7.8958Y4.1709
G01 X7.9835Y4.2023
G01 X8.0678Y4.2422
G01 X8.1478Y4.2901
G01 X8.2227Y4.3456
G01 X8.2918Y4.4082
G01 X8.3544Y4.4773
G01 X8.4099Y4.5522
G01 X8.4578Y4.6322
G01 X8.4977Y4.7165
G01 X8.5291Y4.8042
G01 X8.5517Y4.8947
G01 X8.5654Y4.9869
G01 X8.5700Y5.0800
G01 X8.5654Y5.1731
G01 X8.5517Y5.2653
G01 X8.5291Y5.3558
G01 X8.4977Y5.4435
G01 X8.4578Y5.5278
G01 X8.4071Y5.6118
G01 X8.3544Y5.6827
G01 X8.2951Y5.7482
G01 X8.2227Y5.8144
G01 X8.1436Y5.8725
G01 X8.0678Y5.9178
G01 X7.9880Y5.9557
G01 X7.8958Y5.9891
G01 X7.8053Y6.0117
G01 X7.7180Y6.0248
G01 X7.6200Y6.0300
G01 X7.5220Y6.0248
G01 X7.4347Y6.0117
G01 X7.3442Y5.9891
G01 X7.2520Y5.9557
G01 X7.1722Y5.9178
G01 X7.0964Y5.8725
G01 X7.0136Y5.8112
G01 X6.9482Y5.7518
G01 X6.8888Y5.6864
G01 X6.8301Y5.6078
G01 X6.7822Y5.5278
G01 X6.7677Y5.4975
G01 X6.5229Y5.4975
G01 X4.2275Y7.7929
G01 X4.2275Y34.1171
G01 X6.5229Y36.4125
G01 X17.6071Y36.4125
G01 X18.6325Y35.3871
G01 X18.6325Y35.1423
G01 X18.6022Y35.1278
G01 X18.5222Y35.0799
G01 X18.4473Y35.0244
G01 X18.3782Y34.9618
G01 X18.3126Y34.8888
G01 X18.2601Y34.8178
G01 X18.2100Y34.7334
G01 X18.1705Y34.6490
G01 X18.1409Y34.5658
G01 X18.1193Y34.4801
G01 X18.1046Y34.3831
G01 X18.1000Y34.2925
G01 X18.1046Y34.1969
G01 X18.1183Y34.1047
G01 X18.1409Y34.0142
G01 X18.1723Y33.9265
G01 X18.2122Y33.8422
G01 X18.2575Y33.7664
G01 X18.3156Y33.6873
G01 X18.3749Y33.6218
G01 X18.4512Y33.5526
G01 X18.5222Y33.5001
G01 X18.6022Y33.4522
G01 X18.6865Y33.4123
G01 X18.7742Y33.3809
G01 X18.8647Y33.3583
G01 X18.9569Y33.3446
G01 X19.0500Y33.3400
G01 X19.1382Y33.3442
G01 X19.2401Y33.3593
G01 X19.3258Y33.3809
G01 X19.4135Y33.4123
G01 X19.4978Y33.4522
G01 X19.5778Y33.5001
G01 X19.6527Y33.5556
G01 X19.7218Y33.6182
G01 X19.7844Y33.6873
G01 X19.8399Y33.7622
G01 X19.8878Y33.8422
G01 X19.9277Y33.9265
G01 X19.9591Y34.0142
G01 X19.9817Y34.1047
G01 X19.9954Y34.1969
G01 X20.0000Y34.2900
G01 X19.9954Y34.3831
G01 X19.9817Y34.4753
G01 X19.9591Y34.5658
G01 X19.9277Y34.6535
G01 X19.8878Y34.7378
G01 X19.8399Y34.8178
G01 X19.7844Y34.8927
G01 X19.7251Y34.9582
G01 X19.6527Y35.0244
G01 X19.5818Y35.0771
G01 X19.5021Y35.1254
G01 X19.4675Y35.1423
G01 X19.4675Y35.5600
G01 X19.4649Y35.6058
G01 X19.4595Y35.6415
G01 X19.4508Y35.6765
G01 X19.4357Y35.7198
G01 X19.4182Y35.7568
G01 X19.3998Y35.7878
G01 X19.3727Y35.8249
G01 X19.3452Y35.8552
G01 X18.0735Y37.1269
G01 X18.0449Y37.1527
G01 X18.0078Y37.1798
G01 X17.9724Y37.2004
G01 X17.9398Y37.2157
G01 X17.9059Y37.2280
G01 X17.8566Y37.2403
G01 X17.8209Y37.2455
G01 X17.7800Y37.2475
G01 X6.3500Y37.2475
G01 X6.3091Y37.2455
G01 X6.2686Y37.2395
G01 X6.2288Y37.2295
G01 X6.1948Y37.2175
G01 X6.1532Y37.1982
G01 X6.1180Y37.1771
G01 X6.0890Y37.1558
G01 X6.0548Y37.1252
G01 X3.5131Y34.5835
G01 X3.4873Y34.5549
G01 X3.4602Y34.5178
G01 X3.4396Y34.4824
G01 X3.4243Y34.4498
G01 X3.4120Y34.4159
G01 X3.3997Y34.3666
G01 X3.3945Y34.3309
G01 X3.3925Y34.2900
G01 X3.3925Y7.6200
G01 X3.3945Y7.5791
G01 X3.4005Y7.5386
G01 X3.4092Y7.5035
G01 X3.4263Y7.4557
G01 X3.4418Y7.4232
G01 X3.4629Y7.3880
G01 X3.4873Y7.3551
G01 X3.5131Y7.3265
G01 X6.0548Y4.7848
G01 X6.0814Y4.7605
G01 X6.1222Y4.7302
G01 X6.1532Y4.7118
G01 X6.1902Y4.6943
G01 X6.2335Y4.6792
G01 X6.2685Y4.6705
G01 X6.3042Y4.6651
G01 X6.3500Y4.6625
G01 X6.7677Y4.6625
G00 Z2.0000
G00 X8.5894Y7.0025
G01 Z-0.2000
G01 X8.5762Y6.9811
G01 X8.5677Y6.9691
G01 X8.5090Y6.8904
G01 X8.4332Y6.8068
G01 X8.3496Y6.7310
G01 X8.2589Y6.6638
G01 X8.1621Y6.6058
G01 X8.0601Y6.5575
G01 X7.9538Y6.5195
G01 X7.8444Y6.4921
G01 X7.7327Y6.4755
G01 X7.6200Y6.4700
G01 X7.5073Y6.4755
G01 X7.3956Y6.4921
G01 X7.2862Y6.5195
G01 X7.1799Y6.5575
G01 X7.0779Y6.6058
G01 X6.9811Y6.6638
G01 X6.8904Y6.7310
G01 X6.8068Y6.8068
G01 X6.7310Y6.8904
G01 X6.6638Y6.9811
G01 X6.6058Y7.0779
G01 X6.5575Y7.1799
G01 X6.5195Y7.2862
G01 X6.4921Y7.3956
G01 X6.4755Y7.5073
G01 X6.4704Y7.6053
G01 X6.4701Y7.6274
G01 X6.4755Y7.7327
G01 X6.4921Y7.8444
G01 X6.5195Y7.9538
G01 X6.5575Y8.0601
G01 X6.6058Y8.1621
G01 X6.6638Y8.2589
G01 X6.7310Y8.3496
G01 X6.7967Y8.4225
G01 X6.8175Y8.4433
G01 X6.8904Y8.5090
G01 X6.9691Y8.5677
G01 X6.9935Y8.5841
G01 X7.0779Y8.6342
G01 X7.1799Y8.6825
G01 X7.2722Y8.7159
G01 X7.3004Y8.7244
G01 X7.3956Y8.7479
G01 X7.4927Y8.7627
G01 X7.5220Y8.7655
G01 X7.6053Y8.7696
G01 X7.6347Y8.7696
G01 X7.7327Y8.7645
G01 X7.8298Y8.7504
G01 X7.8587Y8.7447
G01 X7.9538Y8.7205
G01 X8.0463Y8.6878
G01 X8.0735Y8.6765
G01 X8.1621Y8.6342
G01 X8.2465Y8.5841
G01 X8.2709Y8.5677
G01 X8.3496Y8.5090
G01 X8.4225Y8.4433
G01 X8.4433Y8.4225
G01 X8.5090Y8.3496
G01 X8.5677Y8.2709
G01 X8.5762Y8.2589
G01 X8.5894Y8.2375
G01 X18.1399Y8.2375
G01 X18.1906Y8.3062
G01 X18.2093Y8.3290
G01 X18.2722Y8.3978
G01 X18.3410Y8.4607
G01 X18.3638Y8.4794
G01 X18.4389Y8.5346
G01 X18.5315Y8.5901
G01 X18.6156Y8.6303
G01 X18.6428Y8.6416
G01 X18.7307Y8.6726
G01 X18.8210Y8.6956
G01 X18.8499Y8.7014
G01 X18.9422Y8.7147
G01 X19.0353Y8.7196
G01 X19.0647Y8.7196
G01 X19.1578Y8.7147
G01 X19.2646Y8.6989
G01 X19.3693Y8.6726
G01 X19.4710Y8.6363
G01 X19.5685Y8.5901
G01 X19.6611Y8.5346
G01 X19.7478Y8.4703
G01 X19.8172Y8.4080
G01 X19.8380Y8.3872
G01 X19.9003Y8.3178
G01 X19.9646Y8.2311
G01 X20.0201Y8.1385
G01 X20.0603Y8.0544
G01 X20.0716Y8.0272
G01 X20.1026Y7.9393
G01 X20.1256Y7.8490
G01 X20.1314Y7.8201
G01 X20.1429Y7.7424
G01 X20.1458Y7.7131
G01 X20.1500Y7.6200
G01 X20.1447Y7.5122
G01 X20.1289Y7.4054
G01 X20.1026Y7.3007
G01 X20.0663Y7.1990
G01 X20.0201Y7.1015
G01 X19.9646Y7.0089
G01 X19.9003Y6.9222
G01 X19.8278Y6.8422
G01 X19.7478Y6.7697
G01 X19.6611Y6.7054
G01 X19.5685Y6.6499
G01 X19.4710Y6.6037
G01 X19.3693Y6.5674
G01 X19.2646Y6.5411
G01 X19.1724Y6.5271
G01 X19.1431Y6.5242
G01 X19.0500Y6.5200
G01 X18.9569Y6.5242
G01 X18.9276Y6.5271
G01 X18.8354Y6.5411
G01 X18.7449Y6.5634
G01 X18.7167Y6.5720
G01 X18.6290Y6.6037
G01 X18.5446Y6.6433
G01 X18.5187Y6.6571
G01 X18.4389Y6.7054
G01 X18.3638Y6.7606
G01 X18.3410Y6.7793
G01 X18.2722Y6.8422
G01 X18.2093Y6.9110
G01 X18.1906Y6.9338
G01 X18.1399Y7.0025
G01 X8.5894Y7.0025
G00 Z2.0000
G00 X8.5328Y7.1025
G01 Z-0.2000
G01 X8.4930Y7.0367
G01 X8.4317Y6.9539
G01 X8.3625Y6.8775
G01 X8.2861Y6.8083
G01 X8.2033Y6.7470
G01 X8.1150Y6.6940
G01 X8.0218Y6.6499
G01 X7.9248Y6.6152
G01 X7.8248Y6.5902
G01 X7.7229Y6.5751
G01 X7.6200Y6.5700
G01 X7.5171Y6.5751
G01 X7.4152Y6.5902
G01 X7.3152Y6.6152
G01 X7.2182Y6.6499
G01 X7.1250Y6.6940
G01 X7.0367Y6.7470
G01 X6.9539Y6.8083
G01 X6.8775Y6.8775
G01 X6.8083Y6.9539
G01 X6.7470Y7.0367
G01 X6.6940Y7.1250
G01 X6.6499Y7.2182
G01 X6.6152Y7.3152
G01 X6.5902Y7.4152
G01 X6.5751Y7.5171
G01 X6.5702Y7.6102
G01 X6.5701Y7.6249
G01 X6.5751Y7.7229
G01 X6.5902Y7.8248
G01 X6.6152Y7.9248
G01 X6.6499Y8.0218
G01 X6.6940Y8.1150
G01 X6.7417Y8.1951
G01 X6.7526Y8.2114
G01 X6.8083Y8.2861
G01 X6.8708Y8.3554
G01 X6.8846Y8.3692
G01 X6.9539Y8.4317
G01 X7.0286Y8.4874
G01 X7.0449Y8.4983
G01 X7.1250Y8.5460
G01 X7.2092Y8.5861
G01 X7.2273Y8.5936
G01 X7.3152Y8.6248
G01 X7.4056Y8.6477
G01 X7.4248Y8.6515
G01 X7.5171Y8.6649
G01 X7.6102Y8.6698
G01 X7.6298Y8.6698
G01 X7.7131Y8.6657
G01 X7.7327Y8.6637
G01 X7.8248Y8.6498
G01 X7.9153Y8.6274
G01 X7.9341Y8.6217
G01 X8.0218Y8.5901
G01 X8.1062Y8.5504
G01 X8.1235Y8.5412
G01 X8.2033Y8.4930
G01 X8.2784Y8.4377
G01 X8.2935Y8.4252
G01 X8.3625Y8.3625
G01 X8.4252Y8.2935
G01 X8.4377Y8.2784
G01 X8.4930Y8.2033
G01 X8.5328Y8.1375
G01 X18.1954Y8.1375
G01 X18.2185Y8.1756
G01 X18.2770Y8.2544
G01 X18.3361Y8.3200
G01 X18.3500Y8.3339
G01 X18.4156Y8.3930
G01 X18.4864Y8.4458
G01 X18.5027Y8.4567
G01 X18.5786Y8.5019
G01 X18.6583Y8.5399
G01 X18.6765Y8.5474
G01 X18.7597Y8.5769
G01 X18.8453Y8.5986
G01 X18.8646Y8.6025
G01 X18.9520Y8.6152
G01 X19.0402Y8.6198
G01 X19.0598Y8.6198
G01 X19.1480Y8.6152
G01 X19.2451Y8.6008
G01 X19.3403Y8.5769
G01 X19.4327Y8.5439
G01 X19.5214Y8.5019
G01 X19.6056Y8.4515
G01 X19.6844Y8.3930
G01 X19.7500Y8.3339
G01 X19.7639Y8.3200
G01 X19.8230Y8.2544
G01 X19.8815Y8.1756
G01 X19.9319Y8.0914
G01 X19.9699Y8.0117
G01 X19.9774Y7.9935
G01 X20.0069Y7.9103
G01 X20.0286Y7.8247
G01 X20.0325Y7.8054
G01 X20.0440Y7.7278
G01 X20.0459Y7.7082
G01 X20.0500Y7.6200
G01 X20.0452Y7.5220
G01 X20.0308Y7.4249
G01 X20.0069Y7.3297
G01 X19.9739Y7.2373
G01 X19.9319Y7.1486
G01 X19.8815Y7.0644
G01 X19.8230Y6.9856
G01 X19.7571Y6.9129
G01 X19.6844Y6.8470
G01 X19.6056Y6.7885
G01 X19.5214Y6.7381
G01 X19.4327Y6.6961
G01 X19.3403Y6.6631
G01 X19.2451Y6.6392
G01 X19.1578Y6.6260
G01 X19.1382Y6.6241
G01 X19.0500Y6.6200
G01 X18.9618Y6.6241
G01 X18.9422Y6.6260
G01 X18.8549Y6.6392
G01 X18.7597Y6.6631
G01 X18.6765Y6.6926
G01 X18.6583Y6.7001
G01 X18.5786Y6.7381
G01 X18.5027Y6.7833
G01 X18.4864Y6.7942
G01 X18.4156Y6.8470
G01 X18.3500Y6.9061
G01 X18.3361Y6.9200
G01 X18.2770Y6.9856
G01 X18.2185Y7.0644
G01 X18.1954Y7.1025
G01 X8.5328Y7.1025
G00 Z2.0000
G00 X8.4723Y7.2025
G01 Z-0.2000
G01 X18.2529Y7.2025
G01 X18.2587Y7.1915
G01 X18.3017Y7.1200
G01 X18.3575Y7.0453
G01 X18.4136Y6.9836
G01 X18.4753Y6.9275
G01 X18.5541Y6.8691
G01 X18.6257Y6.8263
G01 X18.7011Y6.7905
G01 X18.7887Y6.7588
G01 X18.8744Y6.7373
G01 X18.9569Y6.7249
G01 X19.0549Y6.7201
G01 X19.1382Y6.7243
G01 X19.2256Y6.7373
G01 X19.3113Y6.7588
G01 X19.3944Y6.7885
G01 X19.4743Y6.8263
G01 X19.5500Y6.8717
G01 X19.6210Y6.9243
G01 X19.6864Y6.9836
G01 X19.7457Y7.0490
G01 X19.7983Y7.1200
G01 X19.8437Y7.1957
G01 X19.8815Y7.2756
G01 X19.9112Y7.3587
G01 X19.9327Y7.4444
G01 X19.9457Y7.5318
G01 X19.9499Y7.6249
G01 X19.9457Y7.7082
G01 X19.9327Y7.7956
G01 X19.9112Y7.8813
G01 X19.8815Y7.9644
G01 X19.8437Y8.0443
G01 X19.7983Y8.1200
G01 X19.7457Y8.1910
G01 X19.6864Y8.2564
G01 X19.6210Y8.3157
G01 X19.5500Y8.3683
G01 X19.4743Y8.4137
G01 X19.3944Y8.4515
G01 X19.3113Y8.4812
G01 X19.2256Y8.5027
G01 X19.1382Y8.5157
G01 X19.0549Y8.5199
G01 X18.9569Y8.5151
G01 X18.8744Y8.5027
G01 X18.7887Y8.4812
G01 X18.7011Y8.4495
G01 X18.6257Y8.4137
G01 X18.5541Y8.3709
G01 X18.4753Y8.3125
G01 X18.4136Y8.2564
G01 X18.3575Y8.1947
G01 X18.3017Y8.1200
G01 X18.2587Y8.0485
G01 X18.2529Y8.0375
G01 X8.4723Y8.0375
G01 X8.4578Y8.0678
G01 X8.4099Y8.1478
G01 X8.3512Y8.2264
G01 X8.2918Y8.2918
G01 X8.2264Y8.3512
G01 X8.1436Y8.4125
G01 X8.0678Y8.4578
G01 X7.9880Y8.4957
G01 X7.8958Y8.5291
G01 X7.8053Y8.5517
G01 X7.7180Y8.5648
G01 X7.6151Y8.5699
G01 X7.5269Y8.5654
G01 X7.4395Y8.5526
G01 X7.3442Y8.5291
G01 X7.2520Y8.4957
G01 X7.1722Y8.4578
G01 X7.0964Y8.4125
G01 X7.0173Y8.3544
G01 X6.9449Y8.2882
G01 X6.8856Y8.2227
G01 X6.8329Y8.1518
G01 X6.7822Y8.0678
G01 X6.7423Y7.9835
G01 X6.7109Y7.8958
G01 X6.6883Y7.8053
G01 X6.6746Y7.7131
G01 X6.6700Y7.6225
G01 X6.6746Y7.5269
G01 X6.6883Y7.4347
G01 X6.7109Y7.3442
G01 X6.7423Y7.2565
G01 X6.7822Y7.1722
G01 X6.8301Y7.0922
G01 X6.8856Y7.0173
G01 X6.9482Y6.9482
G01 X7.0173Y6.8856
G01 X7.0922Y6.8301
G01 X7.1722Y6.7822
G01 X7.2565Y6.7423
G01 X7.3442Y6.7109
G01 X7.4347Y6.6883
G01 X7.5269Y6.6746
G01 X7.6200Y6.6700
G01 X7.7131Y6.6746
G01 X7.8053Y6.6883
G01 X7.8958Y6.7109
G01 X7.9835Y6.7423
G01 X8.0678Y6.7822
G01 X8.1478Y6.8301
G01 X8.2227Y6.8856
G01 X8.2918Y6.9482
G01 X8.3544Y7.0173
G01 X8.4099Y7.0922
G01 X8.4578Y7.1722
G01 X8.4723Y7.2025
G00 Z2.0000
G00 X8.5894Y9.5425
G01 Z-0.2000
G01 X8.5762Y9.5211
G01 X8.5677Y9.5091
G01 X8.5090Y9.4304
G01 X8.4332Y9.3468
G01 X8.3496Y9.2710
G01 X8.2589Y9.2038
G01 X8.1621Y9.1458
G01 X8.0601Y9.0975
G01 X7.9538Y9.0595
G01 X7.8444Y9.0321
G01 X7.7327Y9.0155
G01 X7.6200Y9.0100
G01 X7.5073Y9.0155
G01 X7.3956Y9.0321
G01 X7.2862Y9.0595
G01 X7.1799Y9.0975
G01 X7.0779Y9.1458
G01 X6.9811Y9.2038
G01 X6.8904Y9.2710
G01 X6.8068Y9.3468
G01 X6.7310Y9.4304
G01 X6.6638Y9.5211
G01 X6.6058Y9.6179
G01 X6.5575Y9.7199
G01 X6.5195Y9.8262
G01 X6.4921Y9.9356
G01 X6.4755Y10.0473
G01 X6.4704Y10.1453
G01 X6.4701Y10.1674
G01 X6.4755Y10.2727
G01 X6.4921Y10.3844
G01 X6.5195Y10.4938
G01 X6.5575Y10.6001
G01 X6.6058Y10.7021
G01 X6.6638Y10.7989
G01 X6.7310Y10.8896
G01 X6.7967Y10.9625
G01 X6.8175Y10.9833
G01 X6.8904Y11.0490
G01 X6.9691Y11.1077
G01 X6.9935Y11.1241
G01 X7.0779Y11.1742
G01 X7.1799Y11.2225
G01 X7.2722Y11.2559
G01 X7.3004Y11.2644
G01 X7.3956Y11.2879
G01 X7.4927Y11.3027
G01 X7.5220Y11.3055
G01 X7.6200Y11.3100
G01 X7.7180Y11.3055
G01 X7.7473Y11.3027
G01 X7.8444Y11.2879
G01 X7.9396Y11.2644
G01 X7.9678Y11.2559
G01 X8.0601Y11.2225
G01 X8.1621Y11.1742
G01 X8.2465Y11.1241
G01 X8.2709Y11.1077
G01 X8.3496Y11.0490
G01 X8.4225Y10.9833
G01 X8.4433Y10.9625
G01 X8.5090Y10.8896
G01 X8.5677Y10.8109
G01 X8.5762Y10.7989
G01 X8.5894Y10.7775
G01 X13.0599Y10.7775
G01 X13.1106Y10.8462
G01 X13.1293Y10.8690
G01 X13.1922Y10.9378
G01 X13.2610Y11.0007
G01 X13.2838Y11.0194
G01 X13.3589Y11.0746
G01 X13.4515Y11.1301
G01 X13.5490Y11.1763
G01 X13.6367Y11.2080
G01 X13.6649Y11.2166
G01 X13.7554Y11.2389
G01 X13.8476Y11.2529
G01 X13.8769Y11.2558
G01 X13.9700Y11.2600
G01 X14.0631Y11.2558
G01 X14.0924Y11.2529
G01 X14.1846Y11.2389
G01 X14.2751Y11.2166
G01 X14.3033Y11.2080
G01 X14.3910Y11.1763
G01 X14.4885Y11.1301
G01 X14.5811Y11.0746
G01 X14.6562Y11.0194
G01 X14.6790Y11.0007
G01 X14.7478Y10.9378
G01 X14.8107Y10.8690
G01 X14.8294Y10.8462
G01 X14.8801Y10.7775
G01 X28.2999Y10.7775
G01 X28.3597Y10.8578
G01 X28.4322Y10.9378
G01 X28.5122Y11.0103
G01 X28.5925Y11.0701
G01 X28.5925Y19.0500
G01 X28.5955Y19.1105
G01 X28.6044Y19.1705
G01 X28.6191Y19.2293
G01 X28.6395Y19.2863
G01 X28.6654Y19.3411
G01 X28.6966Y19.3931
G01 X28.7327Y19.4417
G01 X28.7734Y19.4866
G01 X30.0486Y20.7618
G01 X30.0883Y20.7973
G01 X30.1249Y20.8250
G01 X30.1494Y20.8413
G01 X30.1761Y20.8573
G01 X30.2021Y20.8712
G01 X30.2437Y20.8905
G01 X30.2868Y20.9063
G01 X30.3149Y20.9148
G01 X30.3452Y20.9224
G01 X30.3740Y20.9282
G01 X30.4195Y20.9345
G01 X30.4726Y20.9374
G01 X32.0506Y20.9375
G01 X32.0638Y20.9589
G01 X32.0723Y20.9709
G01 X32.1310Y21.0496
G01 X32.1967Y21.1225
G01 X32.2175Y21.1433
G01 X32.2904Y21.2090
G01 X32.3691Y21.2677
G01 X32.3935Y21.2841
G01 X32.4779Y21.3342
G01 X32.5665Y21.3765
G01 X32.5937Y21.3878
G01 X32.6862Y21.4205
G01 X32.7813Y21.4447
G01 X32.8102Y21.4504
G01 X32.9073Y21.4645
G01 X33.0200Y21.4700
G01 X33.1327Y21.4645
G01 X33.2298Y21.4504
G01 X33.2587Y21.4447
G01 X33.3538Y21.4205
G01 X33.4463Y21.3878
G01 X33.4735Y21.3765
G01 X33.5621Y21.3342
G01 X33.6589Y21.2762
G01 X33.7496Y21.2090
G01 X33.8225Y21.1433
G01 X33.8433Y21.1225
G01 X33.9090Y21.0496
G01 X33.9762Y20.9589
G01 X34.0270Y20.8749
G01 X34.0408Y20.8490
G01 X34.0765Y20.7735
G01 X34.0878Y20.7463
G01 X34.1205Y20.6538
G01 X34.1447Y20.5587
G01 X34.1504Y20.5298
G01 X34.1627Y20.4473
G01 X34.1655Y20.4180
G01 X34.1700Y20.3200
G01 X34.1645Y20.2073
G01 X34.1479Y20.0956
G01 X34.1244Y20.0004
G01 X34.1159Y19.9722
G01 X34.0878Y19.8937
G01 X34.0765Y19.8665
G01 X34.0342Y19.7779
G01 X33.9762Y19.6811
G01 X33.9180Y19.6021
G01 X33.8993Y19.5793
G01 X33.8332Y19.5068
G01 X33.7496Y19.4310
G01 X33.6589Y19.3638
G01 X33.5621Y19.3058
G01 X33.4601Y19.2575
G01 X33.3538Y19.2195
G01 X33.2444Y19.1921
G01 X33.1327Y19.1755
G01 X33.0200Y19.1700
G01 X32.9073Y19.1755
G01 X32.7956Y19.1921
G01 X32.7004Y19.2156
G01 X32.6722Y19.2241
G01 X32.5799Y19.2575
G01 X32.4910Y19.2992
G01 X32.4651Y19.3130
G01 X32.3935Y19.3559
G01 X32.3691Y19.3723
G01 X32.2904Y19.4310
G01 X32.2068Y19.5068
G01 X32.1310Y19.5904
G01 X32.0723Y19.6691
G01 X32.0638Y19.6811
G01 X32.0506Y19.7025
G01 X30.7358Y19.7025
G01 X29.8275Y18.7942
G01 X29.8275Y11.0701
G01 X29.9078Y11.0103
G01 X29.9878Y10.9378
G01 X30.0603Y10.8578
G01 X30.1201Y10.7775
G01 X32.0506Y10.7775
G01 X32.0638Y10.7989
G01 X32.0723Y10.8109
G01 X32.1310Y10.8896
G01 X32.1967Y10.9625
G01 X32.2175Y10.9833
G01 X32.2904Y11.0490
G01 X32.3691Y11.1077
G01 X32.3935Y11.1241
G01 X32.4779Y11.1742
G01 X32.5665Y11.2165
G01 X32.5937Y11.2278
G01 X32.6862Y11.2605
G01 X32.7813Y11.2847
G01 X32.8102Y11.2904
G01 X32.9073Y11.3045
G01 X33.0053Y11.3096
G01 X33.0347Y11.3096
G01 X33.1327Y11.3045
G01 X33.2298Y11.2904
G01 X33.2587Y11.2847
G01 X33.3396Y11.2644
G01 X33.3678Y11.2559
G01 X33.4601Y11.2225
G01 X33.5621Y11.1742
G01 X33.6465Y11.1241
G01 X33.6709Y11.1077
G01 X33.7496Y11.0490
G01 X33.8225Y10.9833
G01 X33.8433Y10.9625
G01 X33.9090Y10.8896
G01 X33.9677Y10.8109
G01 X33.9762Y10.7989
G01 X33.9894Y10.7775
G01 X36.5549Y10.7775
G01 X36.6147Y10.8578
G01 X36.6770Y10.9272
G01 X36.6978Y10.9480
G01 X36.7672Y11.0103
G01 X36.8418Y11.0661
G01 X36.8663Y11.0825
G01 X36.9465Y11.1301
G01 X37.0306Y11.1703
G01 X37.0578Y11.1816
G01 X37.1457Y11.2126
G01 X37.2360Y11.2356
G01 X37.2649Y11.2414
G01 X37.3572Y11.2547
G01 X37.4503Y11.2596
G01 X37.4797Y11.2596
G01 X37.5728Y11.2547
G01 X37.6796Y11.2389
G01 X37.7843Y11.2126
G01 X37.8860Y11.1763
G01 X37.9835Y11.1301
G01 X38.0761Y11.0746
G01 X38.1628Y11.0103
G01 X38.2428Y10.9378
G01 X38.3057Y10.8690
G01 X38.3244Y10.8462
G01 X38.3711Y10.7832
G01 X38.3875Y10.7587
G01 X38.4351Y10.6785
G01 X38.4753Y10.5944
G01 X38.4866Y10.5672
G01 X38.5176Y10.4793
G01 X38.5439Y10.3746
G01 X38.5597Y10.2678
G01 X38.5650Y10.1600
G01 X38.5597Y10.0522
G01 X38.5439Y9.9454
G01 X38.5176Y9.8407
G01 X38.4866Y9.7528
G01 X38.4753Y9.7256
G01 X38.4351Y9.6415
G01 X38.3875Y9.5613
G01 X38.3711Y9.5368
G01 X38.3244Y9.4738
G01 X38.3057Y9.4510
G01 X38.2428Y9.3822
G01 X38.1628Y9.3097
G01 X38.0761Y9.2454
G01 X37.9835Y9.1899
G01 X37.8860Y9.1437
G01 X37.7843Y9.1074
G01 X37.6796Y9.0811
G01 X37.5728Y9.0653
G01 X37.4797Y9.0604
G01 X37.4503Y9.0604
G01 X37.3572Y9.0653
G01 X37.2649Y9.0786
G01 X37.2360Y9.0844
G01 X37.1457Y9.1074
G01 X37.0578Y9.1384
G01 X37.0306Y9.1497
G01 X36.9465Y9.1899
G01 X36.8663Y9.2375
G01 X36.8418Y9.2539
G01 X36.7672Y9.3097
G01 X36.6978Y9.3720
G01 X36.6770Y9.3928
G01 X36.6147Y9.4622
G01 X36.5549Y9.5425
G01 X33.9894Y9.5425
G01 X33.9762Y9.5211
G01 X33.9677Y9.5091
G01 X33.9090Y9.4304
G01 X33.8433Y9.3575
G01 X33.8225Y9.3367
G01 X33.7496Y9.2710
G01 X33.6709Y9.2123
G01 X33.6465Y9.1959
G01 X33.5621Y9.1458
G01 X33.4601Y9.0975
G01 X33.3678Y9.0641
G01 X33.3396Y9.0556
G01 X33.2444Y9.0321
G01 X33.1473Y9.0173
G01 X33.1180Y9.0145
G01 X33.0347Y9.0104
G01 X33.0053Y9.0104
G01 X32.9073Y9.0155
G01 X32.8102Y9.0296
G01 X32.7813Y9.0353
G01 X32.6862Y9.0595
G01 X32.5937Y9.0922
G01 X32.5665Y9.1035
G01 X32.4779Y9.1458
G01 X32.3935Y9.1959
G01 X32.3691Y9.2123
G01 X32.2904Y9.2710
G01 X32.2175Y9.3367
G01 X32.1967Y9.3575
G01 X32.1310Y9.4304
G01 X32.0723Y9.5091
G01 X32.0638Y9.5211
G01 X32.0506Y9.5425
G01 X30.1201Y9.5425
G01 X30.0603Y9.4622
G01 X29.9878Y9.3822
G01 X29.9078Y9.3097
G01 X29.8275Y9.2499
G01 X29.8275Y6.6058
G01 X30.7358Y5.6975
G01 X32.0506Y5.6975
G01 X32.0638Y5.7189
G01 X32.0723Y5.7309
G01 X32.1310Y5.8096
G01 X32.1967Y5.8825
G01 X32.2175Y5.9033
G01 X32.2904Y5.9690
G01 X32.3691Y6.0277
G01 X32.3935Y6.0441
G01 X32.4779Y6.0942
G01 X32.5665Y6.1365
G01 X32.5937Y6.1478
G01 X32.6862Y6.1805
G01 X32.7813Y6.2047
G01 X32.8102Y6.2104
G01 X32.9073Y6.2245
G01 X33.0200Y6.2300
G01 X33.1180Y6.2255
G01 X33.1473Y6.2227
G01 X33.2444Y6.2079
G01 X33.3396Y6.1844
G01 X33.3678Y6.1759
G01 X33.4601Y6.1425
G01 X33.5621Y6.0942
G01 X33.6465Y6.0441
G01 X33.6709Y6.0277
G01 X33.7496Y5.9690
G01 X33.8225Y5.9033
G01 X33.8433Y5.8825
G01 X33.9090Y5.8096
G01 X33.9677Y5.7309
G01 X33.9841Y5.7065
G01 X34.0342Y5.6221
G01 X34.0765Y5.5335
G01 X34.0878Y5.5063
G01 X34.1205Y5.4138
G01 X34.1447Y5.3187
G01 X34.1504Y5.2898
G01 X34.1645Y5.1927
G01 X34.1696Y5.0947
G01 X34.1696Y5.0653
G01 X34.1645Y4.9673
G01 X34.1504Y4.8702
G01 X34.1447Y4.8413
G01 X34.1205Y4.7462
G01 X34.0878Y4.6537
G01 X34.0765Y4.6265
G01 X34.0342Y4.5379
G01 X33.9762Y4.4411
G01 X33.9180Y4.3621
G01 X33.8993Y4.3393
G01 X33.8332Y4.2668
G01 X33.7607Y4.2007
G01 X33.7379Y4.1820
G01 X33.6589Y4.1238
G01 X33.5749Y4.0730
G01 X33.5490Y4.0592
G01 X33.4601Y4.0175
G01 X33.3678Y3.9841
G01 X33.3396Y3.9756
G01 X33.2444Y3.9521
G01 X33.1473Y3.9373
G01 X33.1180Y3.9345
G01 X33.0200Y3.9300
G01 X32.9073Y3.9355
G01 X32.8102Y3.9496
G01 X32.7813Y3.9553
G01 X32.6862Y3.9795
G01 X32.5937Y4.0122
G01 X32.5665Y4.0235
G01 X32.4779Y4.0658
G01 X32.3935Y4.1159
G01 X32.3691Y4.1323
G01 X32.2904Y4.1910
G01 X32.2175Y4.2567
G01 X32.1967Y4.2775
G01 X32.1310Y4.3504
G01 X32.0723Y4.4291
G01 X32.0638Y4.4411
G01 X32.0506Y4.4625
G01 X30.4726Y4.4626
G01 X30.4195Y4.4655
G01 X30.3740Y4.4718
G01 X30.3452Y4.4776
G01 X30.3007Y4.4891
G01 X30.2574Y4.5042
G01 X30.2302Y4.5155
G01 X30.2021Y4.5288
G01 X30.1761Y4.5427
G01 X30.1494Y4.5587
G01 X30.1249Y4.5750
G01 X30.0883Y4.6027
G01 X30.0486Y4.6382
G01 X28.7734Y5.9134
G01 X28.7327Y5.9583
G01 X28.6966Y6.0069
G01 X28.6727Y6.0461
G01 X28.6588Y6.0721
G01 X28.6455Y6.1002
G01 X28.6342Y6.1274
G01 X28.6191Y6.1707
G01 X28.6044Y6.2295
G01 X28.5955Y6.2895
G01 X28.5929Y6.3353
G01 X28.5925Y9.2499
G01 X28.5122Y9.3097
G01 X28.4322Y9.3822
G01 X28.3597Y9.4622
G01 X28.2999Y9.5425
G01 X14.8801Y9.5425
G01 X14.8294Y9.4738
G01 X14.8107Y9.4510
G01 X14.7478Y9.3822
G01 X14.6790Y9.3193
G01 X14.6562Y9.3006
G01 X14.5811Y9.2454
G01 X14.4885Y9.1899
G01 X14.3910Y9.1437
G01 X14.3033Y9.1120
G01 X14.2751Y9.1034
G01 X14.1846Y9.0811
G01 X14.0924Y9.0671
G01 X14.0631Y9.0642
G01 X13.9700Y9.0600
G01 X13.8769Y9.0642
G01 X13.8476Y9.0671
G01 X13.7554Y9.0811
G01 X13.6649Y9.1034
G01 X13.6367Y9.1120
G01 X13.5490Y9.1437
G01 X13.4515Y9.1899
G01 X13.3589Y9.2454
G01 X13.2838Y9.3006
G01 X13.2610Y9.3193
G01 X13.1922Y9.3822
G01 X13.1293Y9.4510
G01 X13.1106Y9.4738
G01 X13.0599Y9.5425
G01 X8.5894Y9.5425
G00 Z2.0000
G00 X8.5328Y9.6425
G01 Z-0.2000
G01 X8.4930Y9.5767
G01 X8.4317Y9.4939
G01 X8.3625Y9.4175
G01 X8.2861Y9.3483
G01 X8.2033Y9.2870
G01 X8.1150Y9.2340
G01 X8.0218Y9.1899
G01 X7.9248Y9.1552
G01 X7.8248Y9.1302
G01 X7.7229Y9.1151
G01 X7.6200Y9.1100
G01 X7.5171Y9.1151
G01 X7.4152Y9.1302
G01 X7.3152Y9.1552
G01 X7.2182Y9.1899
G01 X7.1250Y9.2340
G01 X7.0367Y9.2870
G01 X6.9539Y9.3483
G01 X6.8775Y9.4175
G01 X6.8083Y9.4939
G01 X6.7470Y9.5767
G01 X6.6940Y9.6650
G01 X6.6499Y9.7582
G01 X6.6152Y9.8552
G01 X6.5902Y9.9552
G01 X6.5751Y10.0571
G01 X6.5702Y10.1502
G01 X6.5701Y10.1649
G01 X6.5751Y10.2629
G01 X6.5902Y10.3648
G01 X6.6152Y10.4648
G01 X6.6499Y10.5618
G01 X6.6940Y10.6550
G01 X6.7417Y10.7351
G01 X6.7526Y10.7514
G01 X6.8083Y10.8261
G01 X6.8708Y10.8954
G01 X6.8846Y10.9092
G01 X6.9539Y10.9717
G01 X7.0286Y11.0274
G01 X7.0449Y11.0383
G01 X7.1250Y11.0860
G01 X7.2092Y11.1261
G01 X7.2273Y11.1336
G01 X7.3152Y11.1648
G01 X7.4056Y11.1877
G01 X7.4248Y11.1915
G01 X7.5171Y11.2049
G01 X7.6200Y11.2100
G01 X7.7131Y11.2057
G01 X7.7327Y11.2037
G01 X7.8248Y11.1898
G01 X7.9153Y11.1674
G01 X7.9341Y11.1617
G01 X8.0218Y11.1301
G01 X8.1062Y11.0904
G01 X8.1235Y11.0812
G01 X8.2033Y11.0330
G01 X8.2784Y10.9777
G01 X8.2935Y10.9652
G01 X8.3625Y10.9025
G01 X8.4252Y10.8335
G01 X8.4377Y10.8184
G01 X8.4930Y10.7433
G01 X8.5328Y10.6775
G01 X13.1154Y10.6775
G01 X13.1385Y10.7156
G01 X13.1970Y10.7944
G01 X13.2561Y10.8600
G01 X13.2700Y10.8739
G01 X13.3356Y10.9330
G01 X13.4064Y10.9858
G01 X13.4227Y10.9967
G01 X13.4986Y11.0419
G01 X13.5873Y11.0839
G01 X13.6704Y11.1139
G01 X13.6892Y11.1196
G01 X13.7749Y11.1408
G01 X13.8622Y11.1540
G01 X13.8818Y11.1559
G01 X13.9700Y11.1600
G01 X14.0582Y11.1559
G01 X14.0778Y11.1540
G01 X14.1651Y11.1408
G01 X14.2508Y11.1196
G01 X14.2696Y11.1139
G01 X14.3527Y11.0839
G01 X14.4414Y11.0419
G01 X14.5173Y10.9967
G01 X14.5336Y10.9858
G01 X14.6044Y10.9330
G01 X14.6700Y10.8739
G01 X14.6839Y10.8600
G01 X14.7430Y10.7944
G01 X14.8015Y10.7156
G01 X14.8246Y10.6775
G01 X28.3554Y10.6775
G01 X28.3785Y10.7156
G01 X28.4310Y10.7867
G01 X28.4434Y10.8018
G01 X28.5029Y10.8671
G01 X28.5682Y10.9266
G01 X28.5833Y10.9390
G01 X28.6544Y10.9915
G01 X28.6925Y11.0146
G01 X28.6925Y19.0500
G01 X28.6950Y19.1007
G01 X28.7024Y19.1510
G01 X28.7148Y19.2002
G01 X28.7319Y19.2480
G01 X28.7536Y19.2939
G01 X28.7797Y19.3375
G01 X28.8100Y19.3783
G01 X28.8441Y19.4159
G01 X30.1176Y20.6894
G01 X30.1517Y20.7200
G01 X30.1845Y20.7446
G01 X30.2008Y20.7555
G01 X30.2275Y20.7716
G01 X30.2448Y20.7808
G01 X30.2820Y20.7981
G01 X30.3205Y20.8121
G01 X30.3392Y20.8178
G01 X30.3695Y20.8254
G01 X30.3887Y20.8292
G01 X30.4293Y20.8350
G01 X30.4751Y20.8374
G01 X32.1072Y20.8375
G01 X32.1470Y20.9033
G01 X32.2023Y20.9784
G01 X32.2148Y20.9935
G01 X32.2775Y21.0625
G01 X32.3465Y21.1252
G01 X32.3616Y21.1377
G01 X32.4367Y21.1930
G01 X32.5165Y21.2412
G01 X32.5338Y21.2504
G01 X32.6182Y21.2901
G01 X32.7059Y21.3217
G01 X32.7247Y21.3274
G01 X32.8152Y21.3498
G01 X32.9073Y21.3637
G01 X32.9269Y21.3657
G01 X33.0200Y21.3700
G01 X33.1229Y21.3649
G01 X33.2152Y21.3515
G01 X33.2344Y21.3477
G01 X33.3248Y21.3248
G01 X33.4218Y21.2901
G01 X33.5062Y21.2504
G01 X33.5235Y21.2412
G01 X33.5951Y21.1983
G01 X33.6114Y21.1874
G01 X33.6861Y21.1317
G01 X33.7625Y21.0625
G01 X33.8317Y20.9861
G01 X33.8874Y20.9114
G01 X33.8983Y20.8951
G01 X33.9412Y20.8235
G01 X33.9504Y20.8062
G01 X33.9901Y20.7218
G01 X34.0217Y20.6341
G01 X34.0274Y20.6153
G01 X34.0477Y20.5344
G01 X34.0515Y20.5152
G01 X34.0649Y20.4229
G01 X34.0700Y20.3200
G01 X34.0649Y20.2171
G01 X34.0515Y20.1248
G01 X34.0477Y20.1056
G01 X34.0248Y20.0152
G01 X33.9936Y19.9273
G01 X33.9861Y19.9092
G01 X33.9460Y19.8250
G01 X33.8930Y19.7367
G01 X33.8317Y19.6539
G01 X33.7692Y19.5846
G01 X33.7554Y19.5708
G01 X33.6935Y19.5148
G01 X33.6784Y19.5023
G01 X33.6033Y19.4470
G01 X33.5150Y19.3940
G01 X33.4218Y19.3499
G01 X33.3248Y19.3152
G01 X33.2248Y19.2902
G01 X33.1229Y19.2751
G01 X33.0200Y19.2700
G01 X32.9171Y19.2751
G01 X32.8248Y19.2885
G01 X32.8056Y19.2923
G01 X32.7152Y19.3152
G01 X32.6273Y19.3464
G01 X32.6092Y19.3539
G01 X32.5250Y19.3940
G01 X32.4367Y19.4470
G01 X32.3539Y19.5083
G01 X32.2846Y19.5708
G01 X32.2708Y19.5846
G01 X32.2148Y19.6465
G01 X32.2023Y19.6616
G01 X32.1470Y19.7367
G01 X32.1072Y19.8025
G01 X30.6944Y19.8025
G01 X29.7275Y18.8356
G01 X29.7275Y11.0146
G01 X29.7656Y10.9915
G01 X29.8367Y10.9390
G01 X29.8518Y10.9266
G01 X29.9171Y10.8671
G01 X29.9766Y10.8018
G01 X29.9890Y10.7867
G01 X30.0415Y10.7156
G01 X30.0646Y10.6775
G01 X32.1072Y10.6775
G01 X32.1470Y10.7433
G01 X32.2023Y10.8184
G01 X32.2148Y10.8335
G01 X32.2775Y10.9025
G01 X32.3465Y10.9652
G01 X32.3616Y10.9777
G01 X32.4367Y11.0330
G01 X32.5165Y11.0812
G01 X32.5338Y11.0904
G01 X32.6182Y11.1301
G01 X32.7059Y11.1617
G01 X32.7247Y11.1674
G01 X32.8152Y11.1898
G01 X32.9073Y11.2037
G01 X32.9269Y11.2057
G01 X33.0102Y11.2098
G01 X33.0298Y11.2098
G01 X33.1229Y11.2049
G01 X33.2152Y11.1915
G01 X33.2344Y11.1877
G01 X33.3153Y11.1674
G01 X33.3341Y11.1617
G01 X33.4218Y11.1301
G01 X33.5062Y11.0904
G01 X33.5235Y11.0812
G01 X33.6033Y11.0330
G01 X33.6784Y10.9777
G01 X33.6935Y10.9652
G01 X33.7625Y10.9025
G01 X33.8252Y10.8335
G01 X33.8377Y10.8184
G01 X33.8930Y10.7433
G01 X33.9328Y10.6775
G01 X36.6104Y10.6775
G01 X36.6335Y10.7156
G01 X36.6920Y10.7944
G01 X36.7511Y10.8600
G01 X36.7650Y10.8739
G01 X36.8306Y10.9330
G01 X36.9014Y10.9858
G01 X36.9177Y10.9967
G01 X36.9851Y11.0371
G01 X37.0024Y11.0463
G01 X37.0823Y11.0839
G01 X37.1654Y11.1139
G01 X37.1842Y11.1196
G01 X37.2699Y11.1408
G01 X37.3572Y11.1540
G01 X37.3768Y11.1559
G01 X37.4650Y11.1600
G01 X37.5630Y11.1552
G01 X37.6601Y11.1408
G01 X37.7553Y11.1169
G01 X37.8477Y11.0839
G01 X37.9364Y11.0419
G01 X38.0206Y10.9915
G01 X38.0994Y10.9330
G01 X38.1721Y10.8671
G01 X38.2316Y10.8018
G01 X38.2440Y10.7867
G01 X38.2908Y10.7236
G01 X38.3017Y10.7073
G01 X38.3469Y10.6314
G01 X38.3849Y10.5517
G01 X38.3924Y10.5335
G01 X38.4219Y10.4503
G01 X38.4458Y10.3551
G01 X38.4602Y10.2580
G01 X38.4650Y10.1600
G01 X38.4602Y10.0620
G01 X38.4458Y9.9649
G01 X38.4219Y9.8697
G01 X38.3924Y9.7865
G01 X38.3849Y9.7683
G01 X38.3469Y9.6886
G01 X38.3017Y9.6127
G01 X38.2908Y9.5964
G01 X38.2440Y9.5333
G01 X38.2316Y9.5182
G01 X38.1721Y9.4529
G01 X38.0994Y9.3870
G01 X38.0206Y9.3285
G01 X37.9364Y9.2781
G01 X37.8477Y9.2361
G01 X37.7553Y9.2031
G01 X37.6601Y9.1792
G01 X37.5630Y9.1648
G01 X37.4650Y9.1600
G01 X37.3768Y9.1641
G01 X37.3572Y9.1660
G01 X37.2699Y9.1792
G01 X37.1842Y9.2004
G01 X37.1654Y9.2061
G01 X37.0823Y9.2361
G01 X37.0024Y9.2737
G01 X36.9851Y9.2829
G01 X36.9177Y9.3233
G01 X36.9014Y9.3342
G01 X36.8306Y9.3870
G01 X36.7650Y9.4461
G01 X36.7511Y9.4600
G01 X36.6920Y9.5256
G01 X36.6335Y9.6044
G01 X36.6104Y9.6425
G01 X33.9328Y9.6425
G01 X33.8930Y9.5767
G01 X33.8377Y9.5016
G01 X33.8252Y9.4865
G01 X33.7625Y9.4175
G01 X33.6935Y9.3548
G01 X33.6784Y9.3423
G01 X33.6033Y9.2870
G01 X33.5235Y9.2388
G01 X33.5062Y9.2296
G01 X33.4218Y9.1899
G01 X33.3341Y9.1583
G01 X33.3153Y9.1526
G01 X33.2248Y9.1302
G01 X33.1327Y9.1163
G01 X33.1131Y9.1143
G01 X33.0298Y9.1102
G01 X33.0102Y9.1102
G01 X32.9171Y9.1151
G01 X32.8248Y9.1285
G01 X32.8056Y9.1323
G01 X32.7152Y9.1552
G01 X32.6273Y9.1864
G01 X32.6092Y9.1939
G01 X32.5338Y9.2296
G01 X32.5165Y9.2388
G01 X32.4367Y9.2870
G01 X32.3616Y9.3423
G01 X32.3465Y9.3548
G01 X32.2775Y9.4175
G01 X32.2148Y9.4865
G01 X32.2023Y9.5016
G01 X32.1470Y9.5767
G01 X32.1072Y9.6425
G01 X30.0646Y9.6425
G01 X30.0415Y9.6044
G01 X29.9890Y9.5333
G01 X29.9766Y9.5182
G01 X29.9171Y9.4529
G01 X29.8518Y9.3934
G01 X29.8367Y9.3810
G01 X29.7656Y9.3285
G01 X29.7275Y9.3054
G01 X29.7275Y6.5644
G01 X30.6944Y5.5975
G01 X32.1072Y5.5975
G01 X32.1470Y5.6633
G01 X32.2023Y5.7384
G01 X32.2148Y5.7535
G01 X32.2775Y5.8225
G01 X32.3465Y5.8852
G01 X32.3616Y5.8977
G01 X32.4367Y5.9530
G01 X32.5165Y6.0012
G01 X32.5338Y6.0104
G01 X32.6182Y6.0501
G01 X32.7059Y6.0817
G01 X32.7247Y6.0874
G01 X32.8152Y6.1098
G01 X32.9073Y6.1237
G01 X32.9269Y6.1257
G01 X33.0200Y6.1300
G01 X33.1131Y6.1257
G01 X33.1327Y6.1237
G01 X33.2248Y6.1098
G01 X33.3153Y6.0874
G01 X33.3341Y6.0817
G01 X33.4218Y6.0501
G01 X33.5150Y6.0060
G01 X33.5951Y5.9583
G01 X33.6114Y5.9474
G01 X33.6861Y5.8917
G01 X33.7554Y5.8292
G01 X33.7692Y5.8154
G01 X33.8317Y5.7461
G01 X33.8874Y5.6714
G01 X33.8983Y5.6551
G01 X33.9460Y5.5750
G01 X33.9861Y5.4908
G01 X33.9936Y5.4727
G01 X34.0248Y5.3848
G01 X34.0477Y5.2944
G01 X34.0515Y5.2752
G01 X34.0649Y5.1829
G01 X34.0698Y5.0898
G01 X34.0698Y5.0702
G01 X34.0649Y4.9771
G01 X34.0515Y4.8848
G01 X34.0477Y4.8656
G01 X34.0248Y4.7752
G01 X33.9936Y4.6873
G01 X33.9861Y4.6692
G01 X33.9460Y4.5850
G01 X33.8930Y4.4967
G01 X33.8377Y4.4216
G01 X33.8252Y4.4065
G01 X33.7625Y4.3375
G01 X33.6935Y4.2748
G01 X33.6784Y4.2623
G01 X33.6033Y4.2070
G01 X33.5235Y4.1588
G01 X33.5062Y4.1496
G01 X33.4218Y4.1099
G01 X33.3341Y4.0783
G01 X33.3153Y4.0726
G01 X33.2248Y4.0502
G01 X33.1327Y4.0363
G01 X33.1131Y4.0343
G01 X33.0200Y4.0300
G01 X32.9269Y4.0343
G01 X32.9073Y4.0363
G01 X32.8152Y4.0502
G01 X32.7247Y4.0726
G01 X32.7059Y4.0783
G01 X32.6182Y4.1099
G01 X32.5338Y4.1496
G01 X32.5165Y4.1588
G01 X32.4367Y4.2070
G01 X32.3616Y4.2623
G01 X32.3465Y4.2748
G01 X32.2775Y4.3375
G01 X32.2148Y4.4065
G01 X32.2023Y4.4216
G01 X32.1470Y4.4967
G01 X32.1072Y4.5625
G01 X30.4751Y4.5626
G01 X30.4293Y4.5650
G01 X30.3887Y4.5708
G01 X30.3695Y4.5746
G01 X30.3298Y4.5848
G01 X30.2911Y4.5984
G01 X30.2730Y4.6059
G01 X30.2448Y4.6192
G01 X30.2275Y4.6284
G01 X30.2008Y4.6445
G01 X30.1845Y4.6554
G01 X30.1517Y4.6800
G01 X30.1141Y4.7141
G01 X28.8441Y5.9841
G01 X28.8100Y6.0217
G01 X28.7797Y6.0625
G01 X28.7584Y6.0975
G01 X28.7492Y6.1148
G01 X28.7359Y6.1430
G01 X28.7284Y6.1611
G01 X28.7148Y6.1998
G01 X28.7024Y6.2490
G01 X28.6950Y6.2993
G01 X28.6926Y6.3451
G01 X28.6925Y9.3054
G01 X28.6544Y9.3285
G01 X28.5833Y9.3810
G01 X28.5682Y9.3934
G01 X28.5029Y9.4529
G01 X28.4434Y9.5182
G01 X28.4310Y9.5333
G01 X28.3785Y9.6044
G01 X28.3554Y9.6425
G01 X14.8246Y9.6425
G01 X14.8015Y9.6044
G01 X14.7430Y9.5256
G01 X14.6839Y9.4600
G01 X14.6700Y9.4461
G01 X14.6044Y9.3870
G01 X14.5336Y9.3342
G01 X14.5173Y9.3233
G01 X14.4414Y9.2781
G01 X14.3527Y9.2361
G01 X14.2696Y9.2061
G01 X14.2508Y9.2004
G01 X14.1651Y9.1792
G01 X14.0778Y9.1660
G01 X14.0582Y9.1641
G01 X13.9700Y9.1600
G01 X13.8818Y9.1641
G01 X13.8622Y9.1660
G01 X13.7749Y9.1792
G01 X13.6892Y9.2004
G01 X13.6704Y9.2061
G01 X13.5873Y9.2361
G01 X13.4986Y9.2781
G01 X13.4227Y9.3233
G01 X13.4064Y9.3342
G01 X13.3356Y9.3870
G01 X13.2700Y9.4461
G01 X13.2561Y9.4600
G01 X13.1970Y9.5256
G01 X13.1385Y9.6044
G01 X13.1154Y9.6425
G01 X8.5328Y9.6425
G00 Z2.0000
G00 X8.4723Y9.7425
G01 Z-0.2000
G01 X13.1729Y9.7425
G01 X13.1787Y9.7315
G01 X13.2217Y9.6600
G01 X13.2775Y9.5853
G01 X13.3336Y9.5236
G01 X13.3953Y9.4675
G01 X13.4741Y9.4091
G01 X13.5457Y9.3663
G01 X13.6211Y9.3305
G01 X13.7087Y9.2988
G01 X13.7944Y9.2773
G01 X13.8769Y9.2649
G01 X13.9700Y9.2600
G01 X14.0631Y9.2649
G01 X14.1456Y9.2773
G01 X14.2313Y9.2988
G01 X14.3189Y9.3305
G01 X14.3943Y9.3663
G01 X14.4659Y9.4091
G01 X14.5447Y9.4675
G01 X14.6064Y9.5236
G01 X14.6625Y9.5853
G01 X14.7183Y9.6600
G01 X14.7613Y9.7315
G01 X14.7671Y9.7425
G01 X28.4129Y9.7425
G01 X28.4187Y9.7315
G01 X28.4645Y9.6560
G01 X28.5143Y9.5890
G01 X28.5736Y9.5236
G01 X28.6390Y9.4643
G01 X28.7060Y9.4145
G01 X28.7815Y9.3687
G01 X28.7925Y9.3629
G01 X28.7925Y6.3475
G01 X28.7945Y6.3091
G01 X28.8005Y6.2685
G01 X28.8105Y6.2288
G01 X28.8225Y6.1948
G01 X28.8442Y6.1489
G01 X28.8629Y6.1180
G01 X28.8873Y6.0851
G01 X28.9148Y6.0548
G01 X30.1848Y4.7848
G01 X30.2151Y4.7573
G01 X30.2440Y4.7357
G01 X30.2876Y4.7096
G01 X30.3248Y4.6925
G01 X30.3588Y4.6805
G01 X30.3938Y4.6716
G01 X30.4391Y4.6645
G01 X30.4775Y4.6625
G01 X32.1677Y4.6625
G01 X32.1822Y4.6322
G01 X32.2301Y4.5522
G01 X32.2888Y4.4736
G01 X32.3482Y4.4082
G01 X32.4136Y4.3488
G01 X32.4964Y4.2875
G01 X32.5722Y4.2422
G01 X32.6520Y4.2043
G01 X32.7442Y4.1709
G01 X32.8395Y4.1474
G01 X32.9269Y4.1346
G01 X33.0200Y4.1300
G01 X33.1131Y4.1346
G01 X33.2005Y4.1474
G01 X33.3004Y4.1724
G01 X33.3835Y4.2023
G01 X33.4678Y4.2422
G01 X33.5478Y4.2901
G01 X33.6188Y4.3426
G01 X33.6951Y4.4118
G01 X33.7544Y4.4773
G01 X33.8099Y4.5522
G01 X33.8578Y4.6322
G01 X33.8957Y4.7120
G01 X33.9291Y4.8042
G01 X33.9517Y4.8947
G01 X33.9648Y4.9820
G01 X33.9700Y5.0800
G01 X33.9654Y5.1731
G01 X33.9526Y5.2605
G01 X33.9276Y5.3604
G01 X33.8977Y5.4435
G01 X33.8600Y5.5234
G01 X33.8071Y5.6118
G01 X33.7544Y5.6827
G01 X33.6918Y5.7518
G01 X33.6227Y5.8144
G01 X33.5518Y5.8671
G01 X33.4678Y5.9178
G01 X33.3835Y5.9577
G01 X33.2958Y5.9891
G01 X33.2101Y6.0107
G01 X33.1082Y6.0258
G01 X33.0200Y6.0300
G01 X32.9220Y6.0248
G01 X32.8347Y6.0117
G01 X32.7490Y5.9904
G01 X32.6610Y5.9595
G01 X32.5722Y5.9178
G01 X32.4922Y5.8699
G01 X32.4136Y5.8112
G01 X32.3482Y5.7518
G01 X32.2888Y5.6864
G01 X32.2301Y5.6078
G01 X32.1822Y5.5278
G01 X32.1677Y5.4975
G01 X30.6529Y5.4975
G01 X29.6275Y6.5229
G01 X29.6275Y9.3629
G01 X29.6385Y9.3687
G01 X29.7140Y9.4145
G01 X29.7810Y9.4643
G01 X29.8464Y9.5236
G01 X29.9057Y9.5890
G01 X29.9555Y9.6560
G01 X30.0013Y9.7315
G01 X30.0071Y9.7425
G01 X32.1677Y9.7425
G01 X32.1822Y9.7122
G01 X32.2301Y9.6322
G01 X32.2888Y9.5536
G01 X32.3482Y9.4882
G01 X32.4136Y9.4288
G01 X32.4964Y9.3675
G01 X32.5722Y9.3222
G01 X32.6520Y9.2843
G01 X32.7442Y9.2509
G01 X32.8395Y9.2274
G01 X32.9269Y9.2146
G01 X33.0200Y9.2100
G01 X33.1131Y9.2146
G01 X33.2005Y9.2274
G01 X33.2958Y9.2509
G01 X33.3880Y9.2843
G01 X33.4678Y9.3222
G01 X33.5436Y9.3675
G01 X33.6264Y9.4288
G01 X33.6918Y9.4882
G01 X33.7512Y9.5536
G01 X33.8099Y9.6322
G01 X33.8578Y9.7122
G01 X33.8723Y9.7425
G01 X36.6679Y9.7425
G01 X36.6737Y9.7315
G01 X36.7195Y9.6560
G01 X36.7693Y9.5890
G01 X36.8286Y9.5236
G01 X36.8940Y9.4643
G01 X36.9610Y9.4145
G01 X37.0407Y9.3663
G01 X37.1252Y9.3267
G01 X37.2037Y9.2988
G01 X37.2894Y9.2773
G01 X37.3817Y9.2640
G01 X37.4650Y9.2600
G01 X37.5532Y9.2643
G01 X37.6406Y9.2773
G01 X37.7263Y9.2988
G01 X37.8094Y9.3285
G01 X37.8893Y9.3663
G01 X37.9650Y9.4117
G01 X38.0360Y9.4643
G01 X38.1014Y9.5236
G01 X38.1575Y9.5853
G01 X38.2159Y9.6641
G01 X38.2587Y9.7357
G01 X38.2983Y9.8202
G01 X38.3262Y9.8987
G01 X38.3477Y9.9844
G01 X38.3607Y10.0718
G01 X38.3650Y10.1600
G01 X38.3607Y10.2482
G01 X38.3477Y10.3356
G01 X38.3262Y10.4213
G01 X38.2983Y10.4998
G01 X38.2587Y10.5843
G01 X38.2159Y10.6559
G01 X38.1575Y10.7347
G01 X38.1014Y10.7964
G01 X38.0360Y10.8557
G01 X37.9650Y10.9083
G01 X37.8893Y10.9537
G01 X37.8094Y10.9915
G01 X37.7263Y11.0212
G01 X37.6406Y11.0427
G01 X37.5532Y11.0557
G01 X37.4650Y11.0600
G01 X37.3817Y11.0560
G01 X37.2894Y11.0427
G01 X37.1991Y11.0197
G01 X37.1206Y10.9915
G01 X37.0407Y10.9537
G01 X36.9610Y10.9055
G01 X36.8940Y10.8557
G01 X36.8286Y10.7964
G01 X36.7693Y10.7310
G01 X36.7195Y10.6640
G01 X36.6737Y10.5885
G01 X36.6679Y10.5775
G01 X33.8723Y10.5775
G01 X33.8578Y10.6078
G01 X33.8099Y10.6878
G01 X33.7512Y10.7664
G01 X33.6918Y10.8318
G01 X33.6264Y10.8912
G01 X33.5436Y10.9525
G01 X33.4678Y10.9978
G01 X33.3880Y11.0357
G01 X33.2958Y11.0691
G01 X33.2053Y11.0917
G01 X33.1180Y11.1048
G01 X33.0200Y11.1100
G01 X32.9220Y11.1048
G01 X32.8347Y11.0917
G01 X32.7442Y11.0691
G01 X32.6520Y11.0357
G01 X32.5722Y10.9978
G01 X32.4964Y10.9525
G01 X32.4136Y10.8912
G01 X32.3482Y10.8318
G01 X32.2888Y10.7664
G01 X32.2301Y10.6878
G01 X32.1822Y10.6078
G01 X32.1677Y10.5775
G01 X30.0071Y10.5775
G01 X30.0013Y10.5885
G01 X29.9555Y10.6640
G01 X29.9057Y10.7310
G01 X29.8464Y10.7964
G01 X29.7810Y10.8557
G01 X29.7140Y10.9055
G01 X29.6385Y10.9513
G01 X29.6275Y10.9571
G01 X29.6275Y18.8771
G01 X30.6529Y19.9025
G01 X32.1677Y19.9025
G01 X32.1822Y19.8722
G01 X32.2301Y19.7922
G01 X32.2888Y19.7136
G01 X32.3482Y19.6482
G01 X32.4136Y19.5888
G01 X32.4922Y19.5301
G01 X32.5722Y19.4822
G01 X32.6610Y19.4405
G01 X32.7490Y19.4096
G01 X32.8347Y19.3883
G01 X32.9220Y19.3752
G01 X33.0249Y19.3701
G01 X33.1131Y19.3746
G01 X33.2101Y19.3893
G01 X33.2958Y19.4109
G01 X33.3835Y19.4423
G01 X33.4678Y19.4822
G01 X33.5518Y19.5329
G01 X33.6227Y19.5856
G01 X33.6918Y19.6482
G01 X33.7544Y19.7173
G01 X33.8071Y19.7882
G01 X33.8600Y19.8766
G01 X33.8977Y19.9565
G01 X33.9276Y20.0396
G01 X33.9526Y20.1395
G01 X33.9654Y20.2269
G01 X33.9700Y20.3200
G01 X33.9648Y20.4180
G01 X33.9517Y20.5053
G01 X33.9291Y20.5958
G01 X33.8957Y20.6880
G01 X33.8578Y20.7678
G01 X33.8099Y20.8478
G01 X33.7544Y20.9227
G01 X33.6951Y20.9882
G01 X33.6188Y21.0574
G01 X33.5478Y21.1099
G01 X33.4678Y21.1578
G01 X33.3835Y21.1977
G01 X33.3004Y21.2276
G01 X33.2005Y21.2526
G01 X33.1131Y21.2654
G01 X33.0200Y21.2700
G01 X32.9269Y21.2654
G01 X32.8395Y21.2526
G01 X32.7442Y21.2291
G01 X32.6520Y21.1957
G01 X32.5722Y21.1578
G01 X32.4964Y21.1125
G01 X32.4136Y21.0512
G01 X32.3482Y20.9918
G01 X32.2888Y20.9264
G01 X32.2301Y20.8478
G01 X32.1822Y20.7678
G01 X32.1677Y20.7375
G01 X30.4775Y20.7375
G01 X30.4391Y20.7355
G01 X30.3938Y20.7284
G01 X30.3541Y20.7180
G01 X30.3202Y20.7057
G01 X30.2876Y20.6904
G01 X30.2440Y20.6643
G01 X30.2151Y20.6427
G01 X30.1848Y20.6152
G01 X28.9148Y19.3452
G01 X28.8873Y19.3149
G01 X28.8629Y19.2820
G01 X28.8418Y19.2468
G01 X28.8243Y19.2098
G01 X28.8105Y19.1712
G01 X28.8005Y19.1314
G01 X28.7945Y19.0909
G01 X28.7925Y19.0500
G01 X28.7925Y10.9571
G01 X28.7815Y10.9513
G01 X28.7060Y10.9055
G01 X28.6390Y10.8557
G01 X28.5736Y10.7964
G01 X28.5143Y10.7310
G01 X28.4645Y10.6640
G01 X28.4187Y10.5885
G01 X28.4129Y10.5775
G01 X14.7671Y10.5775
G01 X14.7613Y10.5885
G01 X14.7183Y10.6600
G01 X14.6625Y10.7347
G01 X14.6064Y10.7964
G01 X14.5447Y10.8525
G01 X14.4659Y10.9109
G01 X14.3943Y10.9537
G01 X14.3189Y10.9895
G01 X14.2313Y11.0212
G01 X14.1456Y11.0427
G01 X14.0631Y11.0551
G01 X13.9700Y11.0600
G01 X13.8769Y11.0551
G01 X13.7944Y11.0427
G01 X13.7087Y11.0212
G01 X13.6211Y10.9895
G01 X13.5457Y10.9537
G01 X13.4741Y10.9109
G01 X13.3953Y10.8525
G01 X13.3336Y10.7964
G01 X13.2775Y10.7347
G01 X13.2217Y10.6600
G01 X13.1787Y10.5885
G01 X13.1729Y10.5775
G01 X8.4723Y10.5775
G01 X8.4578Y10.6078
G01 X8.4099Y10.6878
G01 X8.3512Y10.7664
G01 X8.2918Y10.8318
G01 X8.2264Y10.8912
G01 X8.1436Y10.9525
G01 X8.0678Y10.9978
G01 X7.9880Y11.0357
G01 X7.8958Y11.0691
G01 X7.8005Y11.0926
G01 X7.7131Y11.1054
G01 X7.6200Y11.1100
G01 X7.5269Y11.1054
G01 X7.4395Y11.0926
G01 X7.3442Y11.0691
G01 X7.2520Y11.0357
G01 X7.1722Y10.9978
G01 X7.0964Y10.9525
G01 X7.0173Y10.8944
G01 X6.9449Y10.8282
G01 X6.8856Y10.7627
G01 X6.8329Y10.6918
G01 X6.7822Y10.6078
G01 X6.7423Y10.5235
G01 X6.7109Y10.4358
G01 X6.6883Y10.3453
G01 X6.6746Y10.2531
G01 X6.6700Y10.1625
G01 X6.6746Y10.0669
G01 X6.6883Y9.9747
G01 X6.7109Y9.8842
G01 X6.7423Y9.7965
G01 X6.7822Y9.7122
G01 X6.8301Y9.6322
G01 X6.8856Y9.5573
G01 X6.9482Y9.4882
G01 X7.0173Y9.4256
G01 X7.0922Y9.3701
G01 X7.1722Y9.3222
G01 X7.2565Y9.2823
G01 X7.3442Y9.2509
G01 X7.4347Y9.2283
G01 X7.5269Y9.2146
G01 X7.6200Y9.2100
G01 X7.7131Y9.2146
G01 X7.8053Y9.2283
G01 X7.8958Y9.2509
G01 X7.9835Y9.2823
G01 X8.0678Y9.3222
G01 X8.1478Y9.3701
G01 X8.2227Y9.4256
G01 X8.2918Y9.4882
G01 X8.3544Y9.5573
G01 X8.4099Y9.6322
G01 X8.4578Y9.7122
G01 X8.4723Y9.7425
G00 Z2.0000
G00 X7.6053Y11.5504
G01 Z-0.2000
G01 X7.5073Y11.5555
G01 X7.3956Y11.5721
G01 X7.2862Y11.5995
G01 X7.1799Y11.6375
G01 X7.0779Y11.6858
G01 X6.9811Y11.7438
G01 X6.8904Y11.8110
G01 X6.8068Y11.8868
G01 X6.7310Y11.9704
G01 X6.6638Y12.0611
G01 X6.6058Y12.1579
G01 X6.5575Y12.2599
G01 X6.5195Y12.3662
G01 X6.4921Y12.4756
G01 X6.4755Y12.5873
G01 X6.4704Y12.6853
G01 X6.4701Y12.7074
G01 X6.4755Y12.8127
G01 X6.4921Y12.9244
G01 X6.5195Y13.0338
G01 X6.5575Y13.1401
G01 X6.6058Y13.2421
G01 X6.6638Y13.3389
G01 X6.7310Y13.4296
G01 X6.8068Y13.5132
G01 X6.8904Y13.5890
G01 X6.9811Y13.6562
G01 X7.0779Y13.7142
G01 X7.1799Y13.7625
G01 X7.2862Y13.8005
G01 X7.3956Y13.8279
G01 X7.5073Y13.8445
G01 X7.6200Y13.8500
G01 X7.7327Y13.8445
G01 X7.8444Y13.8279
G01 X7.9538Y13.8005
G01 X8.0601Y13.7625
G01 X8.1621Y13.7142
G01 X8.2589Y13.6562
G01 X8.3496Y13.5890
G01 X8.4332Y13.5132
G01 X8.5090Y13.4296
G01 X8.5762Y13.3389
G01 X8.6342Y13.2421
G01 X8.6825Y13.1401
G01 X8.7205Y13.0338
G01 X8.7479Y12.9244
G01 X8.7645Y12.8127
G01 X8.7700Y12.7000
G01 X8.7645Y12.5873
G01 X8.7479Y12.4756
G01 X8.7205Y12.3662
G01 X8.6825Y12.2599
G01 X8.6342Y12.1579
G01 X8.5762Y12.0611
G01 X8.5090Y11.9704
G01 X8.4332Y11.8868
G01 X8.3496Y11.8110
G01 X8.2589Y11.7438
G01 X8.1621Y11.6858
G01 X8.0601Y11.6375
G01 X7.9538Y11.5995
G01 X7.8444Y11.5721
G01 X7.7327Y11.5555
G01 X7.6347Y11.5504
G01 X7.6053Y11.5504
G00 Z2.0000
G00 X7.6102Y11.6502
G01 Z-0.2000
G01 X7.5171Y11.6551
G01 X7.4152Y11.6702
G01 X7.3152Y11.6952
G01 X7.2182Y11.7299
G01 X7.1250Y11.7740
G01 X7.0367Y11.8270
G01 X6.9539Y11.8883
G01 X6.8775Y11.9575
G01 X6.8083Y12.0339
G01 X6.7470Y12.1167
G01 X6.6940Y12.2050
G01 X6.6499Y12.2982
G01 X6.6152Y12.3952
G01 X6.5902Y12.4952
G01 X6.5751Y12.5971
G01 X6.5702Y12.6902
G01 X6.5701Y12.7049
G01 X6.5751Y12.8029
G01 X6.5902Y12.9048
G01 X6.6152Y13.0048
G01 X6.6499Y13.1018
G01 X6.6940Y13.1950
G01 X6.7470Y13.2833
G01 X6.8083Y13.3661
G01 X6.8775Y13.4425
G01 X6.9539Y13.5117
G01 X7.0367Y13.5730
G01 X7.1250Y13.6260
G01 X7.2182Y13.6701
G01 X7.3152Y13.7048
G01 X7.4152Y13.7298
G01 X7.5171Y13.7449
G01 X7.6200Y13.7500
G01 X7.7229Y13.7449
G01 X7.8248Y13.7298
G01 X7.9248Y13.7048
G01 X8.0218Y13.6701
G01 X8.1150Y13.6260
G01 X8.2033Y13.5730
G01 X8.2861Y13.5117
G01 X8.3625Y13.4425
G01 X8.4317Y13.3661
G01 X8.4930Y13.2833
G01 X8.5460Y13.1950
G01 X8.5901Y13.1018
G01 X8.6248Y13.0048
G01 X8.6498Y12.9048
G01 X8.6649Y12.8029
G01 X8.6700Y12.7000
G01 X8.6649Y12.5971
G01 X8.6498Y12.4952
G01 X8.6248Y12.3952
G01 X8.5901Y12.2982
G01 X8.5460Y12.2050
G01 X8.4930Y12.1167
G01 X8.4317Y12.0339
G01 X8.3625Y11.9575
G01 X8.2861Y11.8883
G01 X8.2033Y11.8270
G01 X8.1150Y11.7740
G01 X8.0218Y11.7299
G01 X7.9248Y11.6952
G01 X7.8248Y11.6702
G01 X7.7229Y11.6551
G01 X7.6298Y11.6502
G01 X7.6102Y11.6502
G00 Z2.0000
G00 X7.6151Y11.7501
G01 Z-0.2000
G01 X7.7131Y11.7546
G01 X7.8053Y11.7683
G01 X7.8958Y11.7909
G01 X7.9835Y11.8223
G01 X8.0678Y11.8622
G01 X8.1478Y11.9101
G01 X8.2227Y11.9656
G01 X8.2918Y12.0282
G01 X8.3544Y12.0973
G01 X8.4099Y12.1722
G01 X8.4578Y12.2522
G01 X8.4977Y12.3365
G01 X8.5291Y12.4242
G01 X8.5517Y12.5147
G01 X8.5654Y12.6069
G01 X8.5700Y12.7000
G01 X8.5654Y12.7931
G01 X8.5517Y12.8853
G01 X8.5291Y12.9758
G01 X8.4977Y13.0635
G01 X8.4578Y13.1478
G01 X8.4099Y13.2278
G01 X8.3544Y13.3027
G01 X8.2918Y13.3718
G01 X8.2227Y13.4344
G01 X8.1478Y13.4899
G01 X8.0678Y13.5378
G01 X7.9835Y13.5777
G01 X7.8958Y13.6091
G01 X7.8053Y13.6317
G01 X7.7131Y13.6454
G01 X7.6200Y13.6500
G01 X7.5269Y13.6454
G01 X7.4347Y13.6317
G01 X7.3442Y13.6091
G01 X7.2565Y13.5777
G01 X7.1722Y13.5378
G01 X7.0922Y13.4899
G01 X7.0173Y13.4344
G01 X6.9482Y13.3718
G01 X6.8856Y13.3027
G01 X6.8301Y13.2278
G01 X6.7822Y13.1478
G01 X6.7423Y13.0635
G01 X6.7109Y12.9758
G01 X6.6883Y12.8853
G01 X6.6746Y12.7931
G01 X6.6700Y12.7025
G01 X6.6746Y12.6069
G01 X6.6883Y12.5147
G01 X6.7109Y12.4242
G01 X6.7423Y12.3365
G01 X6.7822Y12.2522
G01 X6.8301Y12.1722
G01 X6.8856Y12.0973
G01 X6.9482Y12.0282
G01 X7.0173Y11.9656
G01 X7.0922Y11.9101
G01 X7.1722Y11.8622
G01 X7.2565Y11.8223
G01 X7.3442Y11.7909
G01 X7.4347Y11.7683
G01 X7.5269Y11.7546
G01 X7.6151Y11.7501
G00 Z2.0000
G00 X8.5894Y14.6225
G01 Z-0.2000
G01 X8.5762Y14.6011
G01 X8.5677Y14.5891
G01 X8.5090Y14.5104
G01 X8.4332Y14.4268
G01 X8.3496Y14.3510
G01 X8.2589Y14.2838
G01 X8.1621Y14.2258
G01 X8.0601Y14.1775
G01 X7.9538Y14.1395
G01 X7.8444Y14.1121
G01 X7.7327Y14.0955
G01 X7.6200Y14.0900
G01 X7.5073Y14.0955
G01 X7.3956Y14.1121
G01 X7.2862Y14.1395
G01 X7.1799Y14.1775
G01 X7.0779Y14.2258
G01 X6.9811Y14.2838
G01 X6.8904Y14.3510
G01 X6.8068Y14.4268
G01 X6.7310Y14.5104
G01 X6.6638Y14.6011
G01 X6.6058Y14.6979
G01 X6.5575Y14.7999
G01 X6.5195Y14.9062
G01 X6.4921Y15.0156
G01 X6.4755Y15.1273
G01 X6.4704Y15.2253
G01 X6.4701Y15.2474
G01 X6.4755Y15.3527
G01 X6.4921Y15.4644
G01 X6.5195Y15.5738
G01 X6.5575Y15.6801
G01 X6.6058Y15.7821
G01 X6.6638Y15.8789
G01 X6.7310Y15.9696
G01 X6.7967Y16.0425
G01 X6.8175Y16.0633
G01 X6.8904Y16.1290
G01 X6.9691Y16.1877
G01 X6.9935Y16.2041
G01 X7.0779Y16.2542
G01 X7.1799Y16.3025
G01 X7.2722Y16.3359
G01 X7.3004Y16.3444
G01 X7.3956Y16.3679
G01 X7.4927Y16.3827
G01 X7.5220Y16.3855
G01 X7.6200Y16.3900
G01 X7.7180Y16.3855
G01 X7.7473Y16.3827
G01 X7.8444Y16.3679
G01 X7.9396Y16.3444
G01 X7.9678Y16.3359
G01 X8.0601Y16.3025
G01 X8.1621Y16.2542
G01 X8.2465Y16.2041
G01 X8.2709Y16.1877
G01 X8.3496Y16.1290
G01 X8.4225Y16.0633
G01 X8.4433Y16.0425
G01 X8.5090Y15.9696
G01 X8.5677Y15.8909
G01 X8.5762Y15.8789
G01 X8.5894Y15.8575
G01 X14.9842Y15.8575
G01 X15.8925Y16.7658
G01 X15.8925Y21.9499
G01 X15.8238Y22.0006
G01 X15.8010Y22.0193
G01 X15.7322Y22.0822
G01 X15.6693Y22.1510
G01 X15.6506Y22.1738
G01 X15.5954Y22.2489
G01 X15.5399Y22.3415
G01 X15.4997Y22.4256
G01 X15.4884Y22.4528
G01 X15.4574Y22.5407
G01 X15.4344Y22.6310
G01 X15.4286Y22.6599
G01 X15.4153Y22.7522
G01 X15.4104Y22.8453
G01 X15.4104Y22.8747
G01 X15.4153Y22.9678
G01 X15.4286Y23.0601
G01 X15.4344Y23.0890
G01 X15.4574Y23.1793
G01 X15.4937Y23.2810
G01 X15.5333Y23.3654
G01 X15.5471Y23.3913
G01 X15.5875Y23.4587
G01 X15.6039Y23.4832
G01 X15.6597Y23.5578
G01 X15.7220Y23.6272
G01 X15.7428Y23.6480
G01 X15.8010Y23.7007
G01 X15.8238Y23.7194
G01 X15.8989Y23.7746
G01 X15.9915Y23.8301
G01 X16.0890Y23.8763
G01 X16.1767Y23.9080
G01 X16.2049Y23.9166
G01 X16.2810Y23.9356
G01 X16.3099Y23.9414
G01 X16.4022Y23.9547
G01 X16.5100Y23.9600
G01 X16.6178Y23.9547
G01 X16.7101Y23.9414
G01 X16.7390Y23.9356
G01 X16.8151Y23.9166
G01 X16.8433Y23.9080
G01 X16.9310Y23.8763
G01 X17.0285Y23.8301
G01 X17.1211Y23.7746
G01 X17.1962Y23.7194
G01 X17.2190Y23.7007
G01 X17.2772Y23.6480
G01 X17.2980Y23.6272
G01 X17.3603Y23.5578
G01 X17.4201Y23.4775
G01 X32.0506Y23.4775
G01 X32.0638Y23.4989
G01 X32.0723Y23.5109
G01 X32.1310Y23.5896
G01 X32.1967Y23.6625
G01 X32.2175Y23.6833
G01 X32.2904Y23.7490
G01 X32.3691Y23.8077
G01 X32.3935Y23.8241
G01 X32.4779Y23.8742
G01 X32.5665Y23.9165
G01 X32.5937Y23.9278
G01 X32.6862Y23.9605
G01 X32.7813Y23.9847
G01 X32.8102Y23.9904
G01 X32.9073Y24.0045
G01 X33.0053Y24.0096
G01 X33.0347Y24.0096
G01 X33.1327Y24.0045
G01 X33.2444Y23.9879
G01 X33.3538Y23.9605
G01 X33.4463Y23.9278
G01 X33.4735Y23.9165
G01 X33.5490Y23.8808
G01 X33.5749Y23.8670
G01 X33.6589Y23.8162
G01 X33.7379Y23.7580
G01 X33.7607Y23.7393
G01 X33.8225Y23.6833
G01 X33.8433Y23.6625
G01 X33.9090Y23.5896
G01 X33.9762Y23.4989
G01 X34.0270Y23.4149
G01 X34.0408Y23.3890
G01 X34.0825Y23.3001
G01 X34.1159Y23.2078
G01 X34.1244Y23.1796
G01 X34.1479Y23.0844
G01 X34.1645Y22.9727
G01 X34.1700Y22.8600
G01 X34.1655Y22.7620
G01 X34.1627Y22.7327
G01 X34.1504Y22.6502
G01 X34.1447Y22.6213
G01 X34.1205Y22.5262
G01 X34.0878Y22.4337
G01 X34.0765Y22.4065
G01 X34.0342Y22.3179
G01 X33.9762Y22.2211
G01 X33.9090Y22.1304
G01 X33.8433Y22.0575
G01 X33.8225Y22.0367
G01 X33.7607Y21.9807
G01 X33.7379Y21.9620
G01 X33.6589Y21.9038
G01 X33.5749Y21.8530
G01 X33.5490Y21.8392
G01 X33.4601Y21.7975
G01 X33.3538Y21.7595
G01 X33.2444Y21.7321
G01 X33.1473Y21.7173
G01 X33.1180Y21.7145
G01 X33.0200Y21.7100
G01 X32.9220Y21.7145
G01 X32.8927Y21.7173
G01 X32.7956Y21.7321
G01 X32.7004Y21.7556
G01 X32.6722Y21.7641
G01 X32.5799Y21.7975
G01 X32.4910Y21.8392
G01 X32.4651Y21.8530
G01 X32.3935Y21.8959
G01 X32.3691Y21.9123
G01 X32.2904Y21.9710
G01 X32.2175Y22.0367
G01 X32.1967Y22.0575
G01 X32.1310Y22.1304
G01 X32.0723Y22.2091
G01 X32.0638Y22.2211
G01 X32.0506Y22.2425
G01 X17.4201Y22.2425
G01 X17.3603Y22.1622
G01 X17.2878Y22.0822
G01 X17.2078Y22.0097
G01 X17.1275Y21.9499
G01 X17.1275Y16.5100
G01 X17.1245Y16.4495
G01 X17.1182Y16.4040
G01 X17.1124Y16.3752
G01 X17.1009Y16.3308
G01 X17.0858Y16.2874
G01 X17.0745Y16.2602
G01 X17.0546Y16.2189
G01 X17.0313Y16.1794
G01 X17.0150Y16.1549
G01 X16.9873Y16.1183
G01 X16.9568Y16.0840
G01 X15.6766Y14.8034
G01 X15.6429Y14.7723
G01 X15.6201Y14.7536
G01 X15.5951Y14.7350
G01 X15.5706Y14.7187
G01 X15.5311Y14.6954
G01 X15.4898Y14.6755
G01 X15.4626Y14.6642
G01 X15.4193Y14.6491
G01 X15.3605Y14.6344
G01 X15.3005Y14.6255
G01 X15.2474Y14.6226
G01 X8.5894Y14.6225
G00 Z2.0000
G00 X8.5328Y14.7225
G01 Z-0.2000
G01 X8.4930Y14.6567
G01 X8.4317Y14.5739
G01 X8.3625Y14.4975
G01 X8.2861Y14.4283
G01 X8.2033Y14.3670
G01 X8.1150Y14.3140
G01 X8.0218Y14.2699
G01 X7.9248Y14.2352
G01 X7.8248Y14.2102
G01 X7.7229Y14.1951
G01 X7.6200Y14.1900
G01 X7.5171Y14.1951
G01 X7.4152Y14.2102
G01 X7.3152Y14.2352
G01 X7.2182Y14.2699
G01 X7.1250Y14.3140
G01 X7.0367Y14.3670
G01 X6.9539Y14.4283
G01 X6.8775Y14.4975
G01 X6.8083Y14.5739
G01 X6.7470Y14.6567
G01 X6.6940Y14.7450
G01 X6.6499Y14.8382
G01 X6.6152Y14.9352
G01 X6.5902Y15.0352
G01 X6.5751Y15.1371
G01 X6.5702Y15.2302
G01 X6.5701Y15.2449
G01 X6.5751Y15.3429
G01 X6.5902Y15.4448
G01 X6.6152Y15.5448
G01 X6.6499Y15.6418
G01 X6.6940Y15.7350
G01 X6.7417Y15.8151
G01 X6.7526Y15.8314
G01 X6.8083Y15.9061
G01 X6.8708Y15.9754
G01 X6.8846Y15.9892
G01 X6.9539Y16.0517
G01 X7.0286Y16.1074
G01 X7.0449Y16.1183
G01 X7.1250Y16.1660
G01 X7.2092Y16.2061
G01 X7.2273Y16.2136
G01 X7.3152Y16.2448
G01 X7.4152Y16.2698
G01 X7.5073Y16.2837
G01 X7.5269Y16.2857
G01 X7.6200Y16.2900
G01 X7.7131Y16.2857
G01 X7.7327Y16.2837
G01 X7.8248Y16.2698
G01 X7.9153Y16.2474
G01 X7.9341Y16.2417
G01 X8.0218Y16.2101
G01 X8.1062Y16.1704
G01 X8.1235Y16.1612
G01 X8.2033Y16.1130
G01 X8.2784Y16.0577
G01 X8.2935Y16.0452
G01 X8.3625Y15.9825
G01 X8.4252Y15.9135
G01 X8.4377Y15.8984
G01 X8.4930Y15.8233
G01 X8.5328Y15.7575
G01 X15.0256Y15.7575
G01 X15.9925Y16.7244
G01 X15.9925Y22.0054
G01 X15.9544Y22.0285
G01 X15.8756Y22.0870
G01 X15.8100Y22.1461
G01 X15.7961Y22.1600
G01 X15.7370Y22.2256
G01 X15.6842Y22.2964
G01 X15.6733Y22.3127
G01 X15.6281Y22.3886
G01 X15.5901Y22.4683
G01 X15.5826Y22.4865
G01 X15.5531Y22.5697
G01 X15.5314Y22.6553
G01 X15.5275Y22.6746
G01 X15.5148Y22.7620
G01 X15.5101Y22.8649
G01 X15.5148Y22.9580
G01 X15.5275Y23.0454
G01 X15.5314Y23.0647
G01 X15.5531Y23.1503
G01 X15.5861Y23.2427
G01 X15.6237Y23.3226
G01 X15.6329Y23.3399
G01 X15.6733Y23.4073
G01 X15.6842Y23.4236
G01 X15.7370Y23.4944
G01 X15.7961Y23.5600
G01 X15.8100Y23.5739
G01 X15.8682Y23.6266
G01 X15.8833Y23.6390
G01 X15.9544Y23.6915
G01 X16.0386Y23.7419
G01 X16.1273Y23.7839
G01 X16.2104Y23.8139
G01 X16.2292Y23.8196
G01 X16.3149Y23.8408
G01 X16.4022Y23.8540
G01 X16.4218Y23.8559
G01 X16.5002Y23.8598
G01 X16.5198Y23.8598
G01 X16.6080Y23.8552
G01 X16.7051Y23.8408
G01 X16.8003Y23.8169
G01 X16.8835Y23.7874
G01 X16.9017Y23.7799
G01 X16.9726Y23.7463
G01 X16.9899Y23.7371
G01 X17.0656Y23.6915
G01 X17.1444Y23.6330
G01 X17.2171Y23.5671
G01 X17.2830Y23.4944
G01 X17.3415Y23.4156
G01 X17.3646Y23.3775
G01 X32.1072Y23.3775
G01 X32.1470Y23.4433
G01 X32.2023Y23.5184
G01 X32.2148Y23.5335
G01 X32.2775Y23.6025
G01 X32.3465Y23.6652
G01 X32.3616Y23.6777
G01 X32.4367Y23.7330
G01 X32.5165Y23.7812
G01 X32.5338Y23.7904
G01 X32.6092Y23.8261
G01 X32.6273Y23.8336
G01 X32.7152Y23.8648
G01 X32.8056Y23.8877
G01 X32.8248Y23.8915
G01 X32.9171Y23.9049
G01 X33.0102Y23.9098
G01 X33.0298Y23.9098
G01 X33.1229Y23.9049
G01 X33.2248Y23.8898
G01 X33.3248Y23.8648
G01 X33.4127Y23.8336
G01 X33.4308Y23.8261
G01 X33.5062Y23.7904
G01 X33.5235Y23.7812
G01 X33.6033Y23.7330
G01 X33.6784Y23.6777
G01 X33.6935Y23.6652
G01 X33.7554Y23.6092
G01 X33.7692Y23.5954
G01 X33.8317Y23.5261
G01 X33.8930Y23.4433
G01 X33.9412Y23.3635
G01 X33.9504Y23.3462
G01 X33.9901Y23.2618
G01 X34.0217Y23.1741
G01 X34.0274Y23.1553
G01 X34.0498Y23.0648
G01 X34.0649Y22.9629
G01 X34.0700Y22.8600
G01 X34.0657Y22.7669
G01 X34.0637Y22.7473
G01 X34.0515Y22.6648
G01 X34.0477Y22.6456
G01 X34.0248Y22.5552
G01 X33.9936Y22.4673
G01 X33.9861Y22.4492
G01 X33.9460Y22.3650
G01 X33.8930Y22.2767
G01 X33.8317Y22.1939
G01 X33.7692Y22.1246
G01 X33.7554Y22.1108
G01 X33.6935Y22.0548
G01 X33.6784Y22.0423
G01 X33.6033Y21.9870
G01 X33.5235Y21.9388
G01 X33.5062Y21.9296
G01 X33.4218Y21.8899
G01 X33.3248Y21.8552
G01 X33.2248Y21.8302
G01 X33.1327Y21.8163
G01 X33.1131Y21.8143
G01 X33.0200Y21.8100
G01 X32.9269Y21.8143
G01 X32.9073Y21.8163
G01 X32.8152Y21.8302
G01 X32.7152Y21.8552
G01 X32.6273Y21.8864
G01 X32.6092Y21.8939
G01 X32.5250Y21.9340
G01 X32.4449Y21.9817
G01 X32.4286Y21.9926
G01 X32.3539Y22.0483
G01 X32.2775Y22.1175
G01 X32.2148Y22.1865
G01 X32.2023Y22.2016
G01 X32.1470Y22.2767
G01 X32.1072Y22.3425
G01 X17.3646Y22.3425
G01 X17.3415Y22.3044
G01 X17.2890Y22.2333
G01 X17.2766Y22.2182
G01 X17.2171Y22.1529
G01 X17.1518Y22.0934
G01 X17.1367Y22.0810
G01 X17.0656Y22.0285
G01 X17.0275Y22.0054
G01 X17.0275Y16.5100
G01 X17.0250Y16.4593
G01 X17.0192Y16.4187
G01 X17.0154Y16.3995
G01 X17.0052Y16.3598
G01 X16.9916Y16.3211
G01 X16.9841Y16.3030
G01 X16.9664Y16.2661
G01 X16.9455Y16.2308
G01 X16.9346Y16.2145
G01 X16.9100Y16.1817
G01 X16.8827Y16.1512
G01 X15.6059Y14.8741
G01 X15.5757Y14.8464
G01 X15.5606Y14.8339
G01 X15.5355Y14.8154
G01 X15.5192Y14.8045
G01 X15.4839Y14.7836
G01 X15.4470Y14.7659
G01 X15.4289Y14.7584
G01 X15.3902Y14.7448
G01 X15.3410Y14.7324
G01 X15.2907Y14.7250
G01 X15.2449Y14.7226
G01 X8.5328Y14.7225
G00 Z2.0000
G00 X8.4723Y14.8225
G01 Z-0.2000
G01 X15.2425Y14.8225
G01 X15.2809Y14.8245
G01 X15.3215Y14.8305
G01 X15.3612Y14.8405
G01 X15.3952Y14.8525
G01 X15.4411Y14.8742
G01 X15.4720Y14.8929
G01 X15.5049Y14.9173
G01 X15.5352Y14.9448
G01 X16.8069Y16.2165
G01 X16.8327Y16.2451
G01 X16.8543Y16.2740
G01 X16.8782Y16.3132
G01 X16.8975Y16.3548
G01 X16.9095Y16.3888
G01 X16.9184Y16.4238
G01 X16.9255Y16.4691
G01 X16.9275Y16.5100
G01 X16.9275Y22.0629
G01 X16.9385Y22.0687
G01 X17.0140Y22.1145
G01 X17.0810Y22.1643
G01 X17.1464Y22.2236
G01 X17.2057Y22.2890
G01 X17.2555Y22.3560
G01 X17.3013Y22.4315
G01 X17.3071Y22.4425
G01 X32.1677Y22.4425
G01 X32.1822Y22.4122
G01 X32.2301Y22.3322
G01 X32.2888Y22.2536
G01 X32.3482Y22.1882
G01 X32.4136Y22.1288
G01 X32.4964Y22.0675
G01 X32.5722Y22.0222
G01 X32.6520Y21.9843
G01 X32.7442Y21.9509
G01 X32.8347Y21.9283
G01 X32.9220Y21.9152
G01 X33.0249Y21.9101
G01 X33.1131Y21.9146
G01 X33.2005Y21.9274
G01 X33.2910Y21.9496
G01 X33.3835Y21.9823
G01 X33.4678Y22.0222
G01 X33.5478Y22.0701
G01 X33.6264Y22.1288
G01 X33.6951Y22.1918
G01 X33.7544Y22.2573
G01 X33.8071Y22.3282
G01 X33.8578Y22.4122
G01 X33.8977Y22.4965
G01 X33.9291Y22.5842
G01 X33.9526Y22.6795
G01 X33.9654Y22.7669
G01 X33.9699Y22.8551
G01 X33.9658Y22.9482
G01 X33.9517Y23.0453
G01 X33.9291Y23.1358
G01 X33.8957Y23.2280
G01 X33.8578Y23.3078
G01 X33.8099Y23.3878
G01 X33.7544Y23.4627
G01 X33.6951Y23.5282
G01 X33.6188Y23.5974
G01 X33.5478Y23.6499
G01 X33.4721Y23.6954
G01 X33.3790Y23.7395
G01 X33.2958Y23.7691
G01 X33.2053Y23.7917
G01 X33.1131Y23.8054
G01 X33.0249Y23.8099
G01 X32.9220Y23.8048
G01 X32.8347Y23.7917
G01 X32.7442Y23.7691
G01 X32.6520Y23.7357
G01 X32.5722Y23.6978
G01 X32.4964Y23.6525
G01 X32.4136Y23.5912
G01 X32.3482Y23.5318
G01 X32.2888Y23.4664
G01 X32.2301Y23.3878
G01 X32.1822Y23.3078
G01 X32.1677Y23.2775
G01 X17.3071Y23.2775
G01 X17.3013Y23.2885
G01 X17.2555Y23.3640
G01 X17.2057Y23.4310
G01 X17.1428Y23.4998
G01 X17.0810Y23.5557
G01 X17.0100Y23.6083
G01 X16.9343Y23.6537
G01 X16.8544Y23.6915
G01 X16.7713Y23.7212
G01 X16.6904Y23.7416
G01 X16.5933Y23.7560
G01 X16.5100Y23.7600
G01 X16.4218Y23.7557
G01 X16.3344Y23.7427
G01 X16.2487Y23.7212
G01 X16.1611Y23.6895
G01 X16.0857Y23.6537
G01 X16.0100Y23.6083
G01 X15.9390Y23.5557
G01 X15.8772Y23.4998
G01 X15.8113Y23.4271
G01 X15.7617Y23.3600
G01 X15.7163Y23.2843
G01 X15.6785Y23.2044
G01 X15.6503Y23.1259
G01 X15.6265Y23.0307
G01 X15.6143Y22.9482
G01 X15.6100Y22.8625
G01 X15.6149Y22.7669
G01 X15.6273Y22.6844
G01 X15.6488Y22.5987
G01 X15.6805Y22.5111
G01 X15.7163Y22.4357
G01 X15.7591Y22.3641
G01 X15.8175Y22.2853
G01 X15.8736Y22.2236
G01 X15.9353Y22.1675
G01 X16.0100Y22.1117
G01 X16.0815Y22.0687
G01 X16.0925Y22.0629
G01 X16.0925Y16.6829
G01 X15.0671Y15.6575
G01 X8.4723Y15.6575
G01 X8.4578Y15.6878
G01 X8.4099Y15.7678
G01 X8.3512Y15.8464
G01 X8.2918Y15.9118
G01 X8.2264Y15.9712
G01 X8.1436Y16.0325
G01 X8.0678Y16.0778
G01 X7.9880Y16.1157
G01 X7.8958Y16.1491
G01 X7.8053Y16.1717
G01 X7.7180Y16.1848
G01 X7.6200Y16.1900
G01 X7.5220Y16.1848
G01 X7.4347Y16.1717
G01 X7.3442Y16.1491
G01 X7.2520Y16.1157
G01 X7.1722Y16.0778
G01 X7.0964Y16.0325
G01 X7.0173Y15.9744
G01 X6.9449Y15.9082
G01 X6.8856Y15.8427
G01 X6.8329Y15.7718
G01 X6.7822Y15.6878
G01 X6.7423Y15.6035
G01 X6.7109Y15.5158
G01 X6.6883Y15.4253
G01 X6.6746Y15.3331
G01 X6.6700Y15.2425
G01 X6.6746Y15.1469
G01 X6.6883Y15.0547
G01 X6.7109Y14.9642
G01 X6.7423Y14.8765
G01 X6.7822Y14.7922
G01 X6.8301Y14.7122
G01 X6.8856Y14.6373
G01 X6.9482Y14.5682
G01 X7.0173Y14.5056
G01 X7.0922Y14.4501
G01 X7.1722Y14.4022
G01 X7.2565Y14.3623
G01 X7.3442Y14.3309
G01 X7.4347Y14.3083
G01 X7.5269Y14.2946
G01 X7.6200Y14.2900
G01 X7.7131Y14.2946
G01 X7.8053Y14.3083
G01 X7.8958Y14.3309
G01 X7.9835Y14.3623
G01 X8.0678Y14.4022
G01 X8.1478Y14.4501
G01 X8.2227Y14.5056
G01 X8.2918Y14.5682
G01 X8.3544Y14.6373
G01 X8.4099Y14.7122
G01 X8.4578Y14.7922
G01 X8.4723Y14.8225
G00 Z2.0000
G00 X7.6053Y16.6304
G01 Z-0.2000
G01 X7.5073Y16.6355
G01 X7.3956Y16.6521
G01 X7.2862Y16.6795
G01 X7.1799Y16.7175
G01 X7.0779Y16.7658
G01 X6.9811Y16.8238
G01 X6.8904Y16.8910
G01 X6.8068Y16.9668
G01 X6.7310Y17.0504
G01 X6.6638Y17.1411
G01 X6.6058Y17.2379
G01 X6.5575Y17.3399
G01 X6.5195Y17.4462
G01 X6.4921Y17.5556
G01 X6.4755Y17.6673
G01 X6.4704Y17.7653
G01 X6.4701Y17.7874
G01 X6.4755Y17.8927
G01 X6.4921Y18.0044
G01 X6.5195Y18.1138
G01 X6.5575Y18.2201
G01 X6.6058Y18.3221
G01 X6.6638Y18.4189
G01 X6.7310Y18.5096
G01 X6.8068Y18.5932
G01 X6.8904Y18.6690
G01 X6.9811Y18.7362
G01 X7.0779Y18.7942
G01 X7.1799Y18.8425
G01 X7.2862Y18.8805
G01 X7.3956Y18.9079
G01 X7.5073Y18.9245
G01 X7.6200Y18.9300
G01 X7.7327Y18.9245
G01 X7.8444Y18.9079
G01 X7.9538Y18.8805
G01 X8.0601Y18.8425
G01 X8.1621Y18.7942
G01 X8.2589Y18.7362
G01 X8.3496Y18.6690
G01 X8.4332Y18.5932
G01 X8.5090Y18.5096
G01 X8.5762Y18.4189
G01 X8.6342Y18.3221
G01 X8.6825Y18.2201
G01 X8.7205Y18.1138
G01 X8.7479Y18.0044
G01 X8.7645Y17.8927
G01 X8.7700Y17.7800
G01 X8.7645Y17.6673
G01 X8.7479Y17.5556
G01 X8.7205Y17.4462
G01 X8.6825Y17.3399
G01 X8.6342Y17.2379
G01 X8.5762Y17.1411
G01 X8.5090Y17.0504
G01 X8.4332Y16.9668
G01 X8.3496Y16.8910
G01 X8.2589Y16.8238
G01 X8.1621Y16.7658
G01 X8.0601Y16.7175
G01 X7.9538Y16.6795
G01 X7.8444Y16.6521
G01 X7.7327Y16.6355
G01 X7.6347Y16.6304
G01 X7.6053Y16.6304
G00 Z2.0000
G00 X7.6102Y16.7302
G01 Z-0.2000
G01 X7.5171Y16.7351
G01 X7.4152Y16.7502
G01 X7.3152Y16.7752
G01 X7.2182Y16.8099
G01 X7.1250Y16.8540
G01 X7.0367Y16.9070
G01 X6.9539Y16.9683
G01 X6.8775Y17.0375
G01 X6.8083Y17.1139
G01 X6.7470Y17.1967
G01 X6.6940Y17.2850
G01 X6.6499Y17.3782
G01 X6.6152Y17.4752
G01 X6.5902Y17.5752
G01 X6.5751Y17.6771
G01 X6.5702Y17.7702
G01 X6.5701Y17.7849
G01 X6.5751Y17.8829
G01 X6.5902Y17.9848
G01 X6.6152Y18.0848
G01 X6.6499Y18.1818
G01 X6.6940Y18.2750
G01 X6.7470Y18.3633
G01 X6.8083Y18.4461
G01 X6.8775Y18.5225
G01 X6.9539Y18.5917
G01 X7.0367Y18.6530
G01 X7.1250Y18.7060
G01 X7.2182Y18.7501
G01 X7.3152Y18.7848
G01 X7.4152Y18.8098
G01 X7.5171Y18.8249
G01 X7.6200Y18.8300
G01 X7.7229Y18.8249
G01 X7.8248Y18.8098
G01 X7.9248Y18.7848
G01 X8.0218Y18.7501
G01 X8.1150Y18.7060
G01 X8.2033Y18.6530
G01 X8.2861Y18.5917
G01 X8.3625Y18.5225
G01 X8.4317Y18.4461
G01 X8.4930Y18.3633
G01 X8.5460Y18.2750
G01 X8.5901Y18.1818
G01 X8.6248Y18.0848
G01 X8.6498Y17.9848
G01 X8.6649Y17.8829
G01 X8.6700Y17.7800
G01 X8.6649Y17.6771
G01 X8.6498Y17.5752
G01 X8.6248Y17.4752
G01 X8.5901Y17.3782
G01 X8.5460Y17.2850
G01 X8.4930Y17.1967
G01 X8.4317Y17.1139
G01 X8.3625Y17.0375
G01 X8.2861Y16.9683
G01 X8.2033Y16.9070
G01 X8.1150Y16.8540
G01 X8.0218Y16.8099
G01 X7.9248Y16.7752
G01 X7.8248Y16.7502
G01 X7.7229Y16.7351
G01 X7.6298Y16.7302
G01 X7.6102Y16.7302
G00 Z2.0000
G00 X7.6151Y16.8301
G01 Z-0.2000
G01 X7.7131Y16.8346
G01 X7.8053Y16.8483
G01 X7.8958Y16.8709
G01 X7.9835Y16.9023
G01 X8.0678Y16.9422
G01 X8.1478Y16.9901
G01 X8.2227Y17.0456
G01 X8.2918Y17.1082
G01 X8.3544Y17.1773
G01 X8.4099Y17.2522
G01 X8.4578Y17.3322
G01 X8.4977Y17.4165
G01 X8.5291Y17.5042
G01 X8.5517Y17.5947
G01 X8.5654Y17.6869
G01 X8.5700Y17.7800
G01 X8.5654Y17.8731
G01 X8.5517Y17.9653
G01 X8.5291Y18.0558
G01 X8.4977Y18.1435
G01 X8.4578Y18.2278
G01 X8.4099Y18.3078
G01 X8.3544Y18.3827
G01 X8.2918Y18.4518
G01 X8.2227Y18.5144
G01 X8.1478Y18.5699
G01 X8.0678Y18.6178
G01 X7.9835Y18.6577
G01 X7.8958Y18.6891
G01 X7.8053Y18.7117
G01 X7.7131Y18.7254
G01 X7.6200Y18.7300
G01 X7.5269Y18.7254
G01 X7.4347Y18.7117
G01 X7.3442Y18.6891
G01 X7.2565Y18.6577
G01 X7.1722Y18.6178
G01 X7.0922Y18.5699
G01 X7.0173Y18.5144
G01 X6.9482Y18.4518
G01 X6.8856Y18.3827
G01 X6.8301Y18.3078
G01 X6.7822Y18.2278
G01 X6.7423Y18.1435
G01 X6.7109Y18.0558
G01 X6.6883Y17.9653
G01 X6.6746Y17.8731
G01 X6.6700Y17.7825
G01 X6.6746Y17.6869
G01 X6.6883Y17.5947
G01 X6.7109Y17.5042
G01 X6.7423Y17.4165
G01 X6.7822Y17.3322
G01 X6.8301Y17.2522
G01 X6.8856Y17.1773
G01 X6.9482Y17.1082
G01 X7.0173Y17.0456
G01 X7.0922Y16.9901
G01 X7.1722Y16.9422
G01 X7.2565Y16.9023
G01 X7.3442Y16.8709
G01 X7.4347Y16.8483
G01 X7.5269Y16.8346
G01 X7.6151Y16.8301
G00 Z2.0000
G00 X8.5894Y19.7025
G01 Z-0.2000
G01 X8.5762Y19.6811
G01 X8.5677Y19.6691
G01 X8.5090Y19.5904
G01 X8.4332Y19.5068
G01 X8.3496Y19.4310
G01 X8.2589Y19.3638
G01 X8.1621Y19.3058
G01 X8.0601Y19.2575
G01 X7.9538Y19.2195
G01 X7.8444Y19.1921
G01 X7.7327Y19.1755
G01 X7.6200Y19.1700
G01 X7.5073Y19.1755
G01 X7.3956Y19.1921
G01 X7.2862Y19.2195
G01 X7.1799Y19.2575
G01 X7.0779Y19.3058
G01 X6.9811Y19.3638
G01 X6.8904Y19.4310
G01 X6.8068Y19.5068
G01 X6.7310Y19.5904
G01 X6.6638Y19.6811
G01 X6.6058Y19.7779
G01 X6.5575Y19.8799
G01 X6.5195Y19.9862
G01 X6.4921Y20.0956
G01 X6.4755Y20.2073
G01 X6.4704Y20.3053
G01 X6.4701Y20.3274
G01 X6.4755Y20.4327
G01 X6.4921Y20.5444
G01 X6.5195Y20.6538
G01 X6.5575Y20.7601
G01 X6.6058Y20.8621
G01 X6.6638Y20.9589
G01 X6.7310Y21.0496
G01 X6.8068Y21.1332
G01 X6.8904Y21.2090
G01 X6.9691Y21.2677
G01 X6.9935Y21.2841
G01 X7.0651Y21.3270
G01 X7.0910Y21.3408
G01 X7.1799Y21.3825
G01 X7.2722Y21.4159
G01 X7.3004Y21.4244
G01 X7.3956Y21.4479
G01 X7.5073Y21.4645
G01 X7.6053Y21.4696
G01 X7.6347Y21.4696
G01 X7.7327Y21.4645
G01 X7.8444Y21.4479
G01 X7.9396Y21.4244
G01 X7.9678Y21.4159
G01 X8.0601Y21.3825
G01 X8.1490Y21.3408
G01 X8.1749Y21.3270
G01 X8.2465Y21.2841
G01 X8.2709Y21.2677
G01 X8.3496Y21.2090
G01 X8.4225Y21.1433
G01 X8.4433Y21.1225
G01 X8.5090Y21.0496
G01 X8.5677Y20.9709
G01 X8.5762Y20.9589
G01 X8.5894Y20.9375
G01 X10.5199Y20.9375
G01 X10.5706Y21.0062
G01 X10.5893Y21.0290
G01 X10.6522Y21.0978
G01 X10.7210Y21.1607
G01 X10.7438Y21.1794
G01 X10.8189Y21.2346
G01 X10.8987Y21.2829
G01 X10.9246Y21.2967
G01 X11.0090Y21.3363
G01 X11.0967Y21.3680
G01 X11.1249Y21.3766
G01 X11.2154Y21.3989
G01 X11.3076Y21.4129
G01 X11.3369Y21.4158
G01 X11.4300Y21.4200
G01 X11.5231Y21.4158
G01 X11.5524Y21.4129
G01 X11.6301Y21.4014
G01 X11.6590Y21.3956
G01 X11.7493Y21.3726
G01 X11.8510Y21.3363
G01 X11.9485Y21.2901
G01 X12.0287Y21.2425
G01 X12.0532Y21.2261
G01 X12.1162Y21.1794
G01 X12.1390Y21.1607
G01 X12.2078Y21.0978
G01 X12.2803Y21.0178
G01 X12.3446Y20.9311
G01 X12.3929Y20.8513
G01 X12.4067Y20.8254
G01 X12.4403Y20.7544
G01 X12.4516Y20.7272
G01 X12.4826Y20.6393
G01 X12.5089Y20.5346
G01 X12.5247Y20.4278
G01 X12.5300Y20.3200
G01 X12.5247Y20.2122
G01 X12.5089Y20.1054
G01 X12.4826Y20.0007
G01 X12.4463Y19.8990
G01 X12.4001Y19.8015
G01 X12.3446Y19.7089
G01 X12.2803Y19.6222
G01 X12.2078Y19.5422
G01 X12.1278Y19.4697
G01 X12.0411Y19.4054
G01 X11.9485Y19.3499
G01 X11.8510Y19.3037
G01 X11.7493Y19.2674
G01 X11.6446Y19.2411
G01 X11.5524Y19.2271
G01 X11.5231Y19.2242
G01 X11.4300Y19.2200
G01 X11.3222Y19.2253
G01 X11.2154Y19.2411
G01 X11.1249Y19.2634
G01 X11.0967Y19.2720
G01 X11.0090Y19.3037
G01 X10.9115Y19.3499
G01 X10.8313Y19.3975
G01 X10.8068Y19.4139
G01 X10.7322Y19.4697
G01 X10.6628Y19.5320
G01 X10.6420Y19.5528
G01 X10.5797Y19.6222
G01 X10.5199Y19.7025
G01 X8.5894Y19.7025
G00 Z2.0000
G00 X8.5328Y19.8025
G01 Z-0.2000
G01 X8.4930Y19.7367
G01 X8.4317Y19.6539
G01 X8.3625Y19.5775
G01 X8.2861Y19.5083
G01 X8.2033Y19.4470
G01 X8.1150Y19.3940
G01 X8.0218Y19.3499
G01 X7.9248Y19.3152
G01 X7.8248Y19.2902
G01 X7.7229Y19.2751
G01 X7.6200Y19.2700
G01 X7.5171Y19.2751
G01 X7.4152Y19.2902
G01 X7.3152Y19.3152
G01 X7.2182Y19.3499
G01 X7.1250Y19.3940
G01 X7.0367Y19.4470
G01 X6.9539Y19.5083
G01 X6.8775Y19.5775
G01 X6.8083Y19.6539
G01 X6.7470Y19.7367
G01 X6.6940Y19.8250
G01 X6.6499Y19.9182
G01 X6.6152Y20.0152
G01 X6.5902Y20.1152
G01 X6.5751Y20.2171
G01 X6.5702Y20.3102
G01 X6.5701Y20.3249
G01 X6.5751Y20.4229
G01 X6.5902Y20.5248
G01 X6.6152Y20.6248
G01 X6.6499Y20.7218
G01 X6.6940Y20.8150
G01 X6.7470Y20.9033
G01 X6.8023Y20.9784
G01 X6.8148Y20.9935
G01 X6.8775Y21.0625
G01 X6.9465Y21.1252
G01 X6.9616Y21.1377
G01 X7.0367Y21.1930
G01 X7.1250Y21.2460
G01 X7.2092Y21.2861
G01 X7.2273Y21.2936
G01 X7.3152Y21.3248
G01 X7.4056Y21.3477
G01 X7.4248Y21.3515
G01 X7.5171Y21.3649
G01 X7.6102Y21.3698
G01 X7.6298Y21.3698
G01 X7.7229Y21.3649
G01 X7.8248Y21.3498
G01 X7.9153Y21.3274
G01 X7.9341Y21.3217
G01 X8.0218Y21.2901
G01 X8.1150Y21.2460
G01 X8.2033Y21.1930
G01 X8.2784Y21.1377
G01 X8.2935Y21.1252
G01 X8.3625Y21.0625
G01 X8.4252Y20.9935
G01 X8.4377Y20.9784
G01 X8.4930Y20.9033
G01 X8.5328Y20.8375
G01 X10.5754Y20.8375
G01 X10.5985Y20.8756
G01 X10.6570Y20.9544
G01 X10.7161Y21.0200
G01 X10.7300Y21.0339
G01 X10.7956Y21.0930
G01 X10.8664Y21.1458
G01 X10.8827Y21.1567
G01 X10.9586Y21.2019
G01 X11.0383Y21.2399
G01 X11.0565Y21.2474
G01 X11.1397Y21.2769
G01 X11.2349Y21.3008
G01 X11.3222Y21.3140
G01 X11.3418Y21.3159
G01 X11.4300Y21.3200
G01 X11.5182Y21.3159
G01 X11.5378Y21.3140
G01 X11.6154Y21.3025
G01 X11.6347Y21.2986
G01 X11.7203Y21.2769
G01 X11.8127Y21.2439
G01 X11.9014Y21.2019
G01 X11.9773Y21.1567
G01 X11.9936Y21.1458
G01 X12.0567Y21.0990
G01 X12.0718Y21.0866
G01 X12.1371Y21.0271
G01 X12.2030Y20.9544
G01 X12.2615Y20.8756
G01 X12.3071Y20.7999
G01 X12.3163Y20.7826
G01 X12.3499Y20.7117
G01 X12.3574Y20.6935
G01 X12.3869Y20.6103
G01 X12.4108Y20.5151
G01 X12.4252Y20.4180
G01 X12.4300Y20.3200
G01 X12.4252Y20.2220
G01 X12.4108Y20.1249
G01 X12.3869Y20.0297
G01 X12.3539Y19.9373
G01 X12.3119Y19.8486
G01 X12.2615Y19.7644
G01 X12.2030Y19.6856
G01 X12.1371Y19.6129
G01 X12.0644Y19.5470
G01 X11.9856Y19.4885
G01 X11.9014Y19.4381
G01 X11.8127Y19.3961
G01 X11.7203Y19.3631
G01 X11.6251Y19.3392
G01 X11.5378Y19.3260
G01 X11.5182Y19.3241
G01 X11.4300Y19.3200
G01 X11.3320Y19.3248
G01 X11.2349Y19.3392
G01 X11.1492Y19.3604
G01 X11.1304Y19.3661
G01 X11.0473Y19.3961
G01 X10.9586Y19.4381
G01 X10.8827Y19.4833
G01 X10.8664Y19.4942
G01 X10.7956Y19.5470
G01 X10.7229Y19.6129
G01 X10.6570Y19.6856
G01 X10.5985Y19.7644
G01 X10.5754Y19.8025
G01 X8.5328Y19.8025
G00 Z2.0000
G00 X8.4723Y19.9025
G01 Z-0.2000
G01 X10.6329Y19.9025
G01 X10.6387Y19.8915
G01 X10.6845Y19.8160
G01 X10.7343Y19.7490
G01 X10.7936Y19.6836
G01 X10.8590Y19.6243
G01 X10.9260Y19.5745
G01 X11.0057Y19.5263
G01 X11.0902Y19.4867
G01 X11.1687Y19.4588
G01 X11.2544Y19.4373
G01 X11.3418Y19.4243
G01 X11.4251Y19.4201
G01 X11.5231Y19.4249
G01 X11.6056Y19.4373
G01 X11.6913Y19.4588
G01 X11.7744Y19.4885
G01 X11.8543Y19.5263
G01 X11.9300Y19.5717
G01 X12.0010Y19.6243
G01 X12.0664Y19.6836
G01 X12.1257Y19.7490
G01 X12.1783Y19.8200
G01 X12.2237Y19.8957
G01 X12.2615Y19.9756
G01 X12.2912Y20.0587
G01 X12.3127Y20.1444
G01 X12.3257Y20.2318
G01 X12.3300Y20.3200
G01 X12.3251Y20.4131
G01 X12.3127Y20.4956
G01 X12.2912Y20.5813
G01 X12.2615Y20.6644
G01 X12.2259Y20.7399
G01 X12.1755Y20.8240
G01 X12.1257Y20.8910
G01 X12.0664Y20.9564
G01 X12.0010Y21.0157
G01 X11.9300Y21.0683
G01 X11.8543Y21.1137
G01 X11.7789Y21.1495
G01 X11.6913Y21.1812
G01 X11.6104Y21.2016
G01 X11.5133Y21.2160
G01 X11.4300Y21.2200
G01 X11.3467Y21.2160
G01 X11.2544Y21.2027
G01 X11.1687Y21.1812
G01 X11.0902Y21.1533
G01 X11.0057Y21.1137
G01 X10.9260Y21.0655
G01 X10.8590Y21.0157
G01 X10.7936Y20.9564
G01 X10.7343Y20.8910
G01 X10.6845Y20.8240
G01 X10.6387Y20.7485
G01 X10.6329Y20.7375
G01 X8.4723Y20.7375
G01 X8.4554Y20.7721
G01 X8.4071Y20.8518
G01 X8.3544Y20.9227
G01 X8.2918Y20.9918
G01 X8.2188Y21.0574
G01 X8.1478Y21.1099
G01 X8.0678Y21.1578
G01 X7.9835Y21.1977
G01 X7.9004Y21.2276
G01 X7.8053Y21.2517
G01 X7.7131Y21.2654
G01 X7.6249Y21.2699
G01 X7.5269Y21.2654
G01 X7.4299Y21.2507
G01 X7.3442Y21.2291
G01 X7.2610Y21.1995
G01 X7.1722Y21.1578
G01 X7.0922Y21.1099
G01 X7.0136Y21.0512
G01 X6.9482Y20.9918
G01 X6.8888Y20.9264
G01 X6.8301Y20.8478
G01 X6.7822Y20.7678
G01 X6.7423Y20.6835
G01 X6.7109Y20.5958
G01 X6.6883Y20.5053
G01 X6.6746Y20.4131
G01 X6.6700Y20.3225
G01 X6.6746Y20.2269
G01 X6.6883Y20.1347
G01 X6.7109Y20.0442
G01 X6.7423Y19.9565
G01 X6.7822Y19.8722
G01 X6.8301Y19.7922
G01 X6.8856Y19.7173
G01 X6.9482Y19.6482
G01 X7.0173Y19.5856
G01 X7.0922Y19.5301
G01 X7.1722Y19.4822
G01 X7.2565Y19.4423
G01 X7.3442Y19.4109
G01 X7.4347Y19.3883
G01 X7.5269Y19.3746
G01 X7.6200Y19.3700
G01 X7.7131Y19.3746
G01 X7.8053Y19.3883
G01 X7.8958Y19.4109
G01 X7.9835Y19.4423
G01 X8.0678Y19.4822
G01 X8.1478Y19.5301
G01 X8.2227Y19.5856
G01 X8.2918Y19.6482
G01 X8.3544Y19.7173
G01 X8.4099Y19.7922
G01 X8.4578Y19.8722
G01 X8.4723Y19.9025
G00 Z2.0000
G00 X7.6053Y21.7104
G01 Z-0.2000
G01 X7.5073Y21.7155
G01 X7.3956Y21.7321
G01 X7.2862Y21.7595
G01 X7.1799Y21.7975
G01 X7.0779Y21.8458
G01 X6.9811Y21.9038
G01 X6.8904Y21.9710
G01 X6.8068Y22.0468
G01 X6.7310Y22.1304
G01 X6.6638Y22.2211
G01 X6.6058Y22.3179
G01 X6.5575Y22.4199
G01 X6.5195Y22.5262
G01 X6.4921Y22.6356
G01 X6.4755Y22.7473
G01 X6.4704Y22.8453
G01 X6.4701Y22.8674
G01 X6.4755Y22.9727
G01 X6.4921Y23.0844
G01 X6.5195Y23.1938
G01 X6.5575Y23.3001
G01 X6.6058Y23.4021
G01 X6.6638Y23.4989
G01 X6.7310Y23.5896
G01 X6.8068Y23.6732
G01 X6.8904Y23.7490
G01 X6.9811Y23.8162
G01 X7.0779Y23.8742
G01 X7.1799Y23.9225
G01 X7.2862Y23.9605
G01 X7.3956Y23.9879
G01 X7.5073Y24.0045
G01 X7.6200Y24.0100
G01 X7.7327Y24.0045
G01 X7.8444Y23.9879
G01 X7.9538Y23.9605
G01 X8.0601Y23.9225
G01 X8.1621Y23.8742
G01 X8.2589Y23.8162
G01 X8.3496Y23.7490
G01 X8.4332Y23.6732
G01 X8.5090Y23.5896
G01 X8.5762Y23.4989
G01 X8.6342Y23.4021
G01 X8.6825Y23.3001
G01 X8.7205Y23.1938
G01 X8.7479Y23.0844
G01 X8.7645Y22.9727
G01 X8.7700Y22.8600
G01 X8.7645Y22.7473
G01 X8.7479Y22.6356
G01 X8.7205Y22.5262
G01 X8.6825Y22.4199
G01 X8.6342Y22.3179
G01 X8.5762Y22.2211
G01 X8.5090Y22.1304
G01 X8.4332Y22.0468
G01 X8.3496Y21.9710
G01 X8.2589Y21.9038
G01 X8.1621Y21.8458
G01 X8.0601Y21.7975
G01 X7.9538Y21.7595
G01 X7.8444Y21.7321
G01 X7.7327Y21.7155
G01 X7.6347Y21.7104
G01 X7.6053Y21.7104
G00 Z2.0000
G00 X7.6102Y21.8102
G01 Z-0.2000
G01 X7.5171Y21.8151
G01 X7.4152Y21.8302
G01 X7.3152Y21.8552
G01 X7.2182Y21.8899
G01 X7.1250Y21.9340
G01 X7.0367Y21.9870
G01 X6.9539Y22.0483
G01 X6.8775Y22.1175
G01 X6.8083Y22.1939
G01 X6.7470Y22.2767
G01 X6.6940Y22.3650
G01 X6.6499Y22.4582
G01 X6.6152Y22.5552
G01 X6.5902Y22.6552
G01 X6.5751Y22.7571
G01 X6.5702Y22.8502
G01 X6.5701Y22.8649
G01 X6.5751Y22.9629
G01 X6.5902Y23.0648
G01 X6.6152Y23.1648
G01 X6.6499Y23.2618
G01 X6.6940Y23.3550
G01 X6.7470Y23.4433
G01 X6.8083Y23.5261
G01 X6.8775Y23.6025
G01 X6.9539Y23.6717
G01 X7.0367Y23.7330
G01 X7.1250Y23.7860
G01 X7.2182Y23.8301
G01 X7.3152Y23.8648
G01 X7.4152Y23.8898
G01 X7.5171Y23.9049
G01 X7.6200Y23.9100
G01 X7.7229Y23.9049
G01 X7.8248Y23.8898
G01 X7.9248Y23.8648
G01 X8.0218Y23.8301
G01 X8.1150Y23.7860
G01 X8.2033Y23.7330
G01 X8.2861Y23.6717
G01 X8.3625Y23.6025
G01 X8.4317Y23.5261
G01 X8.4930Y23.4433
G01 X8.5460Y23.3550
G01 X8.5901Y23.2618
G01 X8.6248Y23.1648
G01 X8.6498Y23.0648
G01 X8.6649Y22.9629
G01 X8.6700Y22.8600
G01 X8.6649Y22.7571
G01 X8.6498Y22.6552
G01 X8.6248Y22.5552
G01 X8.5901Y22.4582
G01 X8.5460Y22.3650
G01 X8.4930Y22.2767
G01 X8.4317Y22.1939
G01 X8.3625Y22.1175
G01 X8.2861Y22.0483
G01 X8.2033Y21.9870
G01 X8.1150Y21.9340
G01 X8.0218Y21.8899
G01 X7.9248Y21.8552
G01 X7.8248Y21.8302
G01 X7.7229Y21.8151
G01 X7.6298Y21.8102
G01 X7.6102Y21.8102
G00 Z2.0000
G00 X7.6151Y21.9101
G01 Z-0.2000
G01 X7.7131Y21.9146
G01 X7.8053Y21.9283
G01 X7.8958Y21.9509
G01 X7.9835Y21.9823
G01 X8.0678Y22.0222
G01 X8.1478Y22.0701
G01 X8.2227Y22.1256
G01 X8.2918Y22.1882
G01 X8.3544Y22.2573
G01 X8.4099Y22.3322
G01 X8.4578Y22.4122
G01 X8.4977Y22.4965
G01 X8.5291Y22.5842
G01 X8.5517Y22.6747
G01 X8.5654Y22.7669
G01 X8.5700Y22.8600
G01 X8.5654Y22.9531
G01 X8.5517Y23.0453
G01 X8.5291Y23.1358
G01 X8.4977Y23.2235
G01 X8.4578Y23.3078
G01 X8.4099Y23.3878
G01 X8.3544Y23.4627
G01 X8.2918Y23.5318
G01 X8.2227Y23.5944
G01 X8.1478Y23.6499
G01 X8.0678Y23.6978
G01 X7.9835Y23.7377
G01 X7.8958Y23.7691
G01 X7.8053Y23.7917
G01 X7.7131Y23.8054
G01 X7.6200Y23.8100
G01 X7.5269Y23.8054
G01 X7.4347Y23.7917
G01 X7.3442Y23.7691
G01 X7.2565Y23.7377
G01 X7.1722Y23.6978
G01 X7.0922Y23.6499
G01 X7.0173Y23.5944
G01 X6.9482Y23.5318
G01 X6.8856Y23.4627
G01 X6.8301Y23.3878
G01 X6.7822Y23.3078
G01 X6.7423Y23.2235
G01 X6.7109Y23.1358
G01 X6.6883Y23.0453
G01 X6.6746Y22.9531
G01 X6.6700Y22.8625
G01 X6.6746Y22.7669
G01 X6.6883Y22.6747
G01 X6.7109Y22.5842
G01 X6.7423Y22.4965
G01 X6.7822Y22.4122
G01 X6.8301Y22.3322
G01 X6.8856Y22.2573
G01 X6.9482Y22.1882
G01 X7.0173Y22.1256
G01 X7.0922Y22.0701
G01 X7.1722Y22.0222
G01 X7.2565Y21.9823
G01 X7.3442Y21.9509
G01 X7.4347Y21.9283
G01 X7.5269Y21.9146
G01 X7.6151Y21.9101
G00 Z2.0000
G00 X7.2918Y31.3464
G01 Z-0.2000
G01 X7.2373Y31.3661
G01 X7.1486Y31.4081
G01 X7.0644Y31.4585
G01 X6.9856Y31.5170
G01 X6.9129Y31.5829
G01 X6.8470Y31.6556
G01 X6.7885Y31.7344
G01 X6.7381Y31.8186
G01 X6.6961Y31.9073
G01 X6.6631Y31.9997
G01 X6.6392Y32.0949
G01 X6.6248Y32.1920
G01 X6.6201Y32.2949
G01 X6.6248Y32.3880
G01 X6.6392Y32.4851
G01 X6.6631Y32.5803
G01 X6.6961Y32.6727
G01 X6.7381Y32.7614
G01 X6.7885Y32.8456
G01 X6.8470Y32.9244
G01 X6.9129Y32.9971
G01 X6.9856Y33.0630
G01 X7.0644Y33.1215
G01 X7.1486Y33.1719
G01 X7.2373Y33.2139
G01 X7.3297Y33.2469
G01 X7.4249Y33.2708
G01 X7.5220Y33.2852
G01 X7.6200Y33.2900
G01 X7.7180Y33.2852
G01 X7.8151Y33.2708
G01 X7.9103Y33.2469
G01 X8.0027Y33.2139
G01 X8.0826Y33.1763
G01 X8.0999Y33.1671
G01 X8.1756Y33.1215
G01 X8.2467Y33.0690
G01 X8.2618Y33.0566
G01 X8.3271Y32.9971
G01 X8.3866Y32.9318
G01 X8.3990Y32.9167
G01 X8.4515Y32.8456
G01 X8.4971Y32.7699
G01 X8.5063Y32.7526
G01 X8.5439Y32.6727
G01 X8.5769Y32.5803
G01 X8.5986Y32.4947
G01 X8.6025Y32.4754
G01 X8.6152Y32.3880
G01 X8.6198Y32.2998
G01 X8.6198Y32.2802
G01 X8.6152Y32.1920
G01 X8.6008Y32.0949
G01 X8.5769Y31.9997
G01 X8.5474Y31.9165
G01 X8.5399Y31.8983
G01 X8.5063Y31.8274
G01 X8.4971Y31.8101
G01 X8.4515Y31.7344
G01 X8.4159Y31.6860
G01 X12.9144Y27.1875
G01 X15.0256Y27.1875
G01 X15.9925Y28.1544
G01 X15.9925Y28.3554
G01 X15.9544Y28.3785
G01 X15.8833Y28.4310
G01 X15.8682Y28.4434
G01 X15.8029Y28.5029
G01 X15.7370Y28.5756
G01 X15.6785Y28.6544
G01 X15.6281Y28.7386
G01 X15.5901Y28.8183
G01 X15.5826Y28.8365
G01 X15.5561Y28.9104
G01 X15.5504Y28.9292
G01 X15.5292Y29.0149
G01 X15.5160Y29.1022
G01 X15.5141Y29.1218
G01 X15.5102Y29.2002
G01 X15.5102Y29.2198
G01 X15.5148Y29.3080
G01 X15.5292Y29.4051
G01 X15.5504Y29.4908
G01 X15.5561Y29.5096
G01 X15.5861Y29.5927
G01 X15.6237Y29.6726
G01 X15.6329Y29.6899
G01 X15.6733Y29.7573
G01 X15.6842Y29.7736
G01 X15.7370Y29.8444
G01 X15.7961Y29.9100
G01 X15.8100Y29.9239
G01 X15.8756Y29.9830
G01 X15.9544Y30.0415
G01 X15.9925Y30.0646
G01 X15.9925Y30.8372
G01 X15.9267Y30.8770
G01 X15.8439Y30.9383
G01 X15.7675Y31.0075
G01 X15.7048Y31.0765
G01 X15.6923Y31.0916
G01 X15.6426Y31.1586
G01 X15.6317Y31.1749
G01 X15.5840Y31.2550
G01 X15.5399Y31.3482
G01 X15.5052Y31.4452
G01 X15.4823Y31.5356
G01 X15.4785Y31.5548
G01 X15.4663Y31.6373
G01 X15.4643Y31.6569
G01 X15.4601Y31.7549
G01 X15.4651Y31.8529
G01 X15.4802Y31.9548
G01 X15.5052Y32.0548
G01 X15.5399Y32.1518
G01 X15.5840Y32.2450
G01 X15.6370Y32.3333
G01 X15.6983Y32.4161
G01 X15.7675Y32.4925
G01 X15.8439Y32.5617
G01 X15.9267Y32.6230
G01 X16.0065Y32.6712
G01 X16.0238Y32.6804
G01 X16.1082Y32.7201
G01 X16.1959Y32.7517
G01 X16.2147Y32.7574
G01 X16.2956Y32.7777
G01 X16.3148Y32.7815
G01 X16.4071Y32.7949
G01 X16.5100Y32.8000
G01 X16.6129Y32.7949
G01 X16.7052Y32.7815
G01 X16.7244Y32.7777
G01 X16.8148Y32.7548
G01 X16.9027Y32.7236
G01 X16.9208Y32.7161
G01 X17.0050Y32.6760
G01 X17.0851Y32.6283
G01 X17.1014Y32.6174
G01 X17.1761Y32.5617
G01 X17.2525Y32.4925
G01 X17.3152Y32.4235
G01 X17.3277Y32.4084
G01 X17.3830Y32.3333
G01 X17.4360Y32.2450
G01 X17.4761Y32.1608
G01 X17.4836Y32.1427
G01 X17.5148Y32.0548
G01 X17.5398Y31.9548
G01 X17.5537Y31.8627
G01 X17.5557Y31.8431
G01 X17.5600Y31.7500
G01 X17.5549Y31.6471
G01 X17.5398Y31.5452
G01 X17.5174Y31.4547
G01 X17.5117Y31.4359
G01 X17.4836Y31.3573
G01 X17.4761Y31.3392
G01 X17.4360Y31.2550
G01 X17.3883Y31.1749
G01 X17.3774Y31.1586
G01 X17.3277Y31.0916
G01 X17.3152Y31.0765
G01 X17.2525Y31.0075
G01 X17.1761Y30.9383
G01 X17.0933Y30.8770
G01 X17.0275Y30.8372
G01 X17.0275Y30.0646
G01 X17.0656Y30.0415
G01 X17.1444Y29.9830
G01 X17.2171Y29.9171
G01 X17.2830Y29.8444
G01 X17.3358Y29.7736
G01 X17.3467Y29.7573
G01 X17.3919Y29.6814
G01 X17.4339Y29.5927
G01 X17.4639Y29.5096
G01 X17.4696Y29.4908
G01 X17.4908Y29.4051
G01 X17.5052Y29.3080
G01 X17.5100Y29.2100
G01 X17.5059Y29.1218
G01 X17.5040Y29.1022
G01 X17.4925Y29.0246
G01 X17.4886Y29.0053
G01 X17.4669Y28.9197
G01 X17.4339Y28.8273
G01 X17.3919Y28.7386
G01 X17.3467Y28.6627
G01 X17.3358Y28.6464
G01 X17.2830Y28.5756
G01 X17.2239Y28.5100
G01 X17.2100Y28.4961
G01 X17.1518Y28.4434
G01 X17.1367Y28.4310
G01 X17.0656Y28.3785
G01 X17.0275Y28.3554
G01 X17.0275Y27.9400
G01 X17.0257Y27.8991
G01 X17.0238Y27.8795
G01 X17.0192Y27.8487
G01 X17.0154Y27.8295
G01 X17.0052Y27.7898
G01 X16.9916Y27.7511
G01 X16.9841Y27.7330
G01 X16.9664Y27.6961
G01 X16.9455Y27.6608
G01 X16.9346Y27.6445
G01 X16.9100Y27.6117
G01 X16.8759Y27.5741
G01 X15.6059Y26.3041
G01 X15.5757Y26.2764
G01 X15.5606Y26.2639
G01 X15.5275Y26.2397
G01 X15.4925Y26.2184
G01 X15.4752Y26.2092
G01 X15.4380Y26.1919
G01 X15.3995Y26.1779
G01 X15.3808Y26.1722
G01 X15.3410Y26.1624
G01 X15.3005Y26.1562
G01 X15.2809Y26.1543
G01 X15.2449Y26.1526
G01 X12.7000Y26.1525
G01 X12.6493Y26.1550
G01 X12.6087Y26.1608
G01 X12.5895Y26.1646
G01 X12.5498Y26.1748
G01 X12.5111Y26.1884
G01 X12.4930Y26.1959
G01 X12.4561Y26.2136
G01 X12.4208Y26.2345
G01 X12.4045Y26.2454
G01 X12.3717Y26.2700
G01 X12.3341Y26.3041
G01 X7.2918Y31.3464
G00 Z2.0000
G00 X7.3466Y31.4330
G01 Z-0.2000
G01 X12.4048Y26.3748
G01 X12.4351Y26.3473
G01 X12.4640Y26.3257
G01 X12.5032Y26.3018
G01 X12.5448Y26.2825
G01 X12.5788Y26.2705
G01 X12.6138Y26.2616
G01 X12.6591Y26.2545
G01 X12.7000Y26.2525
G01 X15.2425Y26.2525
G01 X15.2858Y26.2551
G01 X15.3215Y26.2605
G01 X15.3565Y26.2692
G01 X15.3998Y26.2843
G01 X15.4411Y26.3042
G01 X15.4720Y26.3229
G01 X15.5010Y26.3442
G01 X15.5352Y26.3748
G01 X16.8052Y27.6448
G01 X16.8327Y27.6751
G01 X16.8543Y27.7040
G01 X16.8782Y27.7432
G01 X16.8975Y27.7848
G01 X16.9095Y27.8188
G01 X16.9184Y27.8538
G01 X16.9255Y27.8991
G01 X16.9275Y27.9400
G01 X16.9275Y28.4129
G01 X16.9385Y28.4187
G01 X17.0100Y28.4617
G01 X17.0810Y28.5143
G01 X17.1464Y28.5736
G01 X17.2087Y28.6429
G01 X17.2583Y28.7100
G01 X17.3013Y28.7815
G01 X17.3395Y28.8611
G01 X17.3712Y28.9487
G01 X17.3916Y29.0296
G01 X17.4060Y29.1267
G01 X17.4100Y29.2100
G01 X17.4051Y29.3031
G01 X17.3927Y29.3856
G01 X17.3712Y29.4713
G01 X17.3415Y29.5544
G01 X17.3059Y29.6299
G01 X17.2555Y29.7140
G01 X17.2057Y29.7810
G01 X17.1464Y29.8464
G01 X17.0810Y29.9057
G01 X17.0140Y29.9555
G01 X16.9385Y30.0013
G01 X16.9275Y30.0071
G01 X16.9275Y30.8977
G01 X16.9621Y30.9146
G01 X17.0418Y30.9629
G01 X17.1127Y31.0156
G01 X17.1818Y31.0782
G01 X17.2444Y31.1473
G01 X17.2971Y31.2182
G01 X17.3500Y31.3066
G01 X17.3877Y31.3865
G01 X17.4191Y31.4742
G01 X17.4417Y31.5647
G01 X17.4548Y31.6520
G01 X17.4599Y31.7549
G01 X17.4554Y31.8431
G01 X17.4417Y31.9353
G01 X17.4191Y32.0258
G01 X17.3895Y32.1090
G01 X17.3478Y32.1978
G01 X17.2999Y32.2778
G01 X17.2474Y32.3488
G01 X17.1818Y32.4218
G01 X17.1127Y32.4844
G01 X17.0418Y32.5371
G01 X16.9578Y32.5878
G01 X16.8690Y32.6295
G01 X16.7858Y32.6591
G01 X16.7001Y32.6807
G01 X16.6031Y32.6954
G01 X16.5100Y32.7000
G01 X16.4169Y32.6954
G01 X16.3295Y32.6826
G01 X16.2296Y32.6576
G01 X16.1465Y32.6277
G01 X16.0579Y32.5854
G01 X15.9822Y32.5399
G01 X15.9073Y32.4844
G01 X15.8382Y32.4218
G01 X15.7756Y32.3527
G01 X15.7201Y32.2778
G01 X15.6722Y32.1978
G01 X15.6323Y32.1135
G01 X15.6009Y32.0258
G01 X15.5783Y31.9353
G01 X15.5646Y31.8431
G01 X15.5600Y31.7525
G01 X15.5642Y31.6618
G01 X15.5793Y31.5599
G01 X15.6009Y31.4742
G01 X15.6323Y31.3865
G01 X15.6722Y31.3022
G01 X15.7201Y31.2222
G01 X15.7756Y31.1473
G01 X15.8349Y31.0818
G01 X15.9073Y31.0156
G01 X15.9782Y30.9629
G01 X16.0579Y30.9146
G01 X16.0925Y30.8977
G01 X16.0925Y30.0071
G01 X16.0815Y30.0013
G01 X16.0060Y29.9555
G01 X15.9390Y29.9057
G01 X15.8736Y29.8464
G01 X15.8143Y29.7810
G01 X15.7645Y29.7140
G01 X15.7163Y29.6343
G01 X15.6767Y29.5498
G01 X15.6488Y29.4713
G01 X15.6273Y29.3856
G01 X15.6143Y29.2982
G01 X15.6101Y29.2149
G01 X15.6149Y29.1169
G01 X15.6273Y29.0344
G01 X15.6474Y28.9535
G01 X15.6767Y28.8702
G01 X15.7163Y28.7857
G01 X15.7617Y28.7100
G01 X15.8175Y28.6353
G01 X15.8736Y28.5736
G01 X15.9353Y28.5175
G01 X16.0100Y28.4617
G01 X16.0815Y28.4187
G01 X16.0925Y28.4129
G01 X16.0925Y28.1129
G01 X15.0671Y27.0875
G01 X12.8729Y27.0875
G01 X8.2805Y31.6800
G01 X8.3157Y31.7190
G01 X8.3655Y31.7860
G01 X8.4137Y31.8657
G01 X8.4533Y31.9502
G01 X8.4812Y32.0287
G01 X8.5016Y32.1096
G01 X8.5157Y32.2018
G01 X8.5199Y32.2949
G01 X8.5151Y32.3831
G01 X8.5027Y32.4656
G01 X8.4826Y32.5465
G01 X8.4515Y32.6344
G01 X8.4113Y32.7185
G01 X8.3683Y32.7900
G01 X8.3187Y32.8571
G01 X8.2564Y32.9264
G01 X8.1871Y32.9887
G01 X8.1200Y33.0383
G01 X8.0485Y33.0813
G01 X7.9644Y33.1215
G01 X7.8813Y33.1512
G01 X7.7956Y33.1727
G01 X7.7082Y33.1857
G01 X7.6200Y33.1900
G01 X7.5318Y33.1857
G01 X7.4444Y33.1727
G01 X7.3587Y33.1512
G01 X7.2756Y33.1215
G01 X7.1957Y33.0837
G01 X7.1200Y33.0383
G01 X7.0490Y32.9857
G01 X6.9836Y32.9264
G01 X6.9243Y32.8610
G01 X6.8717Y32.7900
G01 X6.8263Y32.7143
G01 X6.7885Y32.6344
G01 X6.7588Y32.5513
G01 X6.7373Y32.4656
G01 X6.7243Y32.3782
G01 X6.7200Y32.2925
G01 X6.7243Y32.2018
G01 X6.7373Y32.1144
G01 X6.7588Y32.0287
G01 X6.7885Y31.9456
G01 X6.8263Y31.8657
G01 X6.8717Y31.7900
G01 X6.9243Y31.7190
G01 X6.9836Y31.6536
G01 X7.0490Y31.5943
G01 X7.1200Y31.5417
G01 X7.1957Y31.4963
G01 X7.2756Y31.4585
G01 X7.3466Y31.4330
G00 Z2.0000
G00 X6.9886Y33.1900
G01 Z-0.2000
G01 X6.8200Y33.1900
G01 X6.8053Y33.1904
G01 X6.7760Y33.1932
G01 X6.7471Y33.1990
G01 X6.7189Y33.2075
G01 X6.6917Y33.2188
G01 X6.6658Y33.2327
G01 X6.6413Y33.2490
G01 X6.6185Y33.2677
G01 X6.5977Y33.2885
G01 X6.5790Y33.3113
G01 X6.5627Y33.3358
G01 X6.5488Y33.3617
G01 X6.5375Y33.3889
G01 X6.5290Y33.4171
G01 X6.5232Y33.4460
G01 X6.5204Y33.4753
G01 X6.5200Y33.4900
G01 X6.5200Y35.0900
G01 X6.5204Y35.1047
G01 X6.5232Y35.1340
G01 X6.5290Y35.1629
G01 X6.5375Y35.1911
G01 X6.5488Y35.2183
G01 X6.5627Y35.2442
G01 X6.5790Y35.2687
G01 X6.5977Y35.2915
G01 X6.6185Y35.3123
G01 X6.6413Y35.3310
G01 X6.6658Y35.3473
G01 X6.6917Y35.3612
G01 X6.7189Y35.3725
G01 X6.7471Y35.3810
G01 X6.7760Y35.3868
G01 X6.8053Y35.3896
G01 X6.8200Y35.3900
G01 X8.4200Y35.3900
G01 X8.4347Y35.3896
G01 X8.4640Y35.3868
G01 X8.4929Y35.3810
G01 X8.5211Y35.3725
G01 X8.5483Y35.3612
G01 X8.5742Y35.3473
G01 X8.5987Y35.3310
G01 X8.6215Y35.3123
G01 X8.6423Y35.2915
G01 X8.6610Y35.2687
G01 X8.6773Y35.2442
G01 X8.6912Y35.2183
G01 X8.7025Y35.1911
G01 X8.7110Y35.1629
G01 X8.7168Y35.1340
G01 X8.7196Y35.1047
G01 X8.7200Y34.9075
G01 X15.5406Y34.9075
G01 X15.5538Y34.9289
G01 X15.5623Y34.9409
G01 X15.6120Y35.0079
G01 X15.6307Y35.0307
G01 X15.6968Y35.1032
G01 X15.7693Y35.1693
G01 X15.7921Y35.1880
G01 X15.8711Y35.2462
G01 X15.9679Y35.3042
G01 X16.0699Y35.3525
G01 X16.1622Y35.3859
G01 X16.1904Y35.3944
G01 X16.2856Y35.4179
G01 X16.3973Y35.4345
G01 X16.5100Y35.4400
G01 X16.6227Y35.4345
G01 X16.7344Y35.4179
G01 X16.8438Y35.3905
G01 X16.9501Y35.3525
G01 X17.0521Y35.3042
G01 X17.1489Y35.2462
G01 X17.2279Y35.1880
G01 X17.2507Y35.1693
G01 X17.3232Y35.1032
G01 X17.3893Y35.0307
G01 X17.4080Y35.0079
G01 X17.4662Y34.9289
G01 X17.5170Y34.8449
G01 X17.5308Y34.8190
G01 X17.5725Y34.7301
G01 X17.6059Y34.6378
G01 X17.6144Y34.6096
G01 X17.6379Y34.5144
G01 X17.6527Y34.4173
G01 X17.6555Y34.3880
G01 X17.6600Y34.2900
G01 X17.6555Y34.1920
G01 X17.6527Y34.1627
G01 X17.6379Y34.0656
G01 X17.6144Y33.9704
G01 X17.6059Y33.9422
G01 X17.5725Y33.8499
G01 X17.5308Y33.7610
G01 X17.5170Y33.7351
G01 X17.4662Y33.6511
G01 X17.4080Y33.5721
G01 X17.3893Y33.5493
G01 X17.3232Y33.4768
G01 X17.2507Y33.4107
G01 X17.2279Y33.3920
G01 X17.1489Y33.3338
G01 X17.0521Y33.2758
G01 X16.9501Y33.2275
G01 X16.8438Y33.1895
G01 X16.7487Y33.1653
G01 X16.7198Y33.1596
G01 X16.6227Y33.1455
G01 X16.5247Y33.1404
G01 X16.4953Y33.1404
G01 X16.4120Y33.1445
G01 X16.3827Y33.1473
G01 X16.2856Y33.1621
G01 X16.1904Y33.1856
G01 X16.1622Y33.1941
G01 X16.0699Y33.2275
G01 X15.9810Y33.2692
G01 X15.9551Y33.2830
G01 X15.8835Y33.3259
G01 X15.8591Y33.3423
G01 X15.7804Y33.4010
G01 X15.6968Y33.4768
G01 X15.6210Y33.5604
G01 X15.5623Y33.6391
G01 X15.5538Y33.6511
G01 X15.5406Y33.6725
G01 X14.5875Y33.6725
G01 X14.5875Y30.1201
G01 X14.6562Y30.0694
G01 X14.6790Y30.0507
G01 X14.7478Y29.9878
G01 X14.8107Y29.9190
G01 X14.8294Y29.8962
G01 X14.8846Y29.8211
G01 X14.9329Y29.7413
G01 X14.9467Y29.7154
G01 X14.9863Y29.6310
G01 X15.0180Y29.5433
G01 X15.0266Y29.5151
G01 X15.0489Y29.4246
G01 X15.0629Y29.3324
G01 X15.0658Y29.3031
G01 X15.0700Y29.2100
G01 X15.0658Y29.1169
G01 X15.0629Y29.0876
G01 X15.0514Y29.0099
G01 X15.0456Y28.9810
G01 X15.0226Y28.8907
G01 X14.9863Y28.7890
G01 X14.9401Y28.6915
G01 X14.8925Y28.6113
G01 X14.8761Y28.5868
G01 X14.8294Y28.5238
G01 X14.8107Y28.5010
G01 X14.7478Y28.4322
G01 X14.6790Y28.3693
G01 X14.6562Y28.3506
G01 X14.5932Y28.3039
G01 X14.5687Y28.2875
G01 X14.4885Y28.2399
G01 X14.3910Y28.1937
G01 X14.2893Y28.1574
G01 X14.1990Y28.1344
G01 X14.1701Y28.1286
G01 X14.0778Y28.1153
G01 X13.9700Y28.1100
G01 X13.8622Y28.1153
G01 X13.7554Y28.1311
G01 X13.6507Y28.1574
G01 X13.5490Y28.1937
G01 X13.4515Y28.2399
G01 X13.3589Y28.2954
G01 X13.2722Y28.3597
G01 X13.1922Y28.4322
G01 X13.1197Y28.5122
G01 X13.0554Y28.5989
G01 X12.9999Y28.6915
G01 X12.9537Y28.7890
G01 X12.9174Y28.8907
G01 X12.8944Y28.9810
G01 X12.8886Y29.0099
G01 X12.8753Y29.1022
G01 X12.8704Y29.1953
G01 X12.8704Y29.2247
G01 X12.8753Y29.3178
G01 X12.8911Y29.4246
G01 X12.9134Y29.5151
G01 X12.9220Y29.5433
G01 X12.9537Y29.6310
G01 X12.9999Y29.7285
G01 X13.0475Y29.8087
G01 X13.0639Y29.8332
G01 X13.1197Y29.9078
G01 X13.1820Y29.9772
G01 X13.2028Y29.9980
G01 X13.2722Y30.0603
G01 X13.3525Y30.1201
G01 X13.3525Y33.6725
G01 X8.7200Y33.6725
G01 X8.7196Y33.4753
G01 X8.7168Y33.4460
G01 X8.7110Y33.4171
G01 X8.7025Y33.3889
G01 X8.6912Y33.3617
G01 X8.6773Y33.3358
G01 X8.6610Y33.3113
G01 X8.6423Y33.2885
G01 X8.6215Y33.2677
G01 X8.5987Y33.2490
G01 X8.5742Y33.2327
G01 X8.5483Y33.2188
G01 X8.5211Y33.2075
G01 X8.4929Y33.1990
G01 X8.4640Y33.1932
G01 X8.4347Y33.1904
G01 X8.2514Y33.1900
G01 X8.3178Y33.1403
G01 X8.3978Y33.0678
G01 X8.4703Y32.9878
G01 X8.5346Y32.9011
G01 X8.5901Y32.8085
G01 X8.6363Y32.7110
G01 X8.6726Y32.6093
G01 X8.6989Y32.5046
G01 X8.7147Y32.3978
G01 X8.7200Y32.2900
G01 X8.7147Y32.1822
G01 X8.6989Y32.0754
G01 X8.6726Y31.9707
G01 X8.6363Y31.8690
G01 X8.5901Y31.7715
G01 X8.5460Y31.6972
G01 X12.9558Y27.2875
G01 X14.9842Y27.2875
G01 X15.8925Y28.1958
G01 X15.8925Y28.2999
G01 X15.8238Y28.3506
G01 X15.8010Y28.3693
G01 X15.7322Y28.4322
G01 X15.6693Y28.5010
G01 X15.6506Y28.5238
G01 X15.5954Y28.5989
G01 X15.5399Y28.6915
G01 X15.4937Y28.7890
G01 X15.4574Y28.8907
G01 X15.4311Y28.9954
G01 X15.4171Y29.0876
G01 X15.4142Y29.1169
G01 X15.4104Y29.1953
G01 X15.4101Y29.2174
G01 X15.4153Y29.3178
G01 X15.4286Y29.4101
G01 X15.4344Y29.4390
G01 X15.4574Y29.5293
G01 X15.4884Y29.6172
G01 X15.4997Y29.6444
G01 X15.5399Y29.7285
G01 X15.5875Y29.8087
G01 X15.6039Y29.8332
G01 X15.6597Y29.9078
G01 X15.7220Y29.9772
G01 X15.7428Y29.9980
G01 X15.8122Y30.0603
G01 X15.8925Y30.1201
G01 X15.8925Y30.7806
G01 X15.8711Y30.7938
G01 X15.8591Y30.8023
G01 X15.7921Y30.8520
G01 X15.7693Y30.8707
G01 X15.6968Y30.9368
G01 X15.6210Y31.0204
G01 X15.5538Y31.1111
G01 X15.5030Y31.1951
G01 X15.4892Y31.2210
G01 X15.4535Y31.2965
G01 X15.4422Y31.3237
G01 X15.4095Y31.4162
G01 X15.3853Y31.5113
G01 X15.3796Y31.5402
G01 X15.3673Y31.6227
G01 X15.3645Y31.6520
G01 X15.3604Y31.7353
G01 X15.3601Y31.7574
G01 X15.3655Y31.8627
G01 X15.3821Y31.9744
G01 X15.4056Y32.0696
G01 X15.4141Y32.0978
G01 X15.4475Y32.1901
G01 X15.4958Y32.2921
G01 X15.5538Y32.3889
G01 X15.6120Y32.4679
G01 X15.6307Y32.4907
G01 X15.6968Y32.5632
G01 X15.7693Y32.6293
G01 X15.7921Y32.6480
G01 X15.8591Y32.6977
G01 X15.8835Y32.7141
G01 X15.9679Y32.7642
G01 X16.0565Y32.8065
G01 X16.0837Y32.8178
G01 X16.1762Y32.8505
G01 X16.2713Y32.8747
G01 X16.3002Y32.8804
G01 X16.3827Y32.8927
G01 X16.4120Y32.8955
G01 X16.5100Y32.9000
G01 X16.6227Y32.8945
G01 X16.7344Y32.8779
G01 X16.8296Y32.8544
G01 X16.8578Y32.8459
G01 X16.9501Y32.8125
G01 X17.0390Y32.7708
G01 X17.0649Y32.7570
G01 X17.1365Y32.7141
G01 X17.1609Y32.6977
G01 X17.2396Y32.6390
G01 X17.3125Y32.5733
G01 X17.3333Y32.5525
G01 X17.3990Y32.4796
G01 X17.4577Y32.4009
G01 X17.4741Y32.3765
G01 X17.5242Y32.2921
G01 X17.5665Y32.2035
G01 X17.5778Y32.1763
G01 X17.6105Y32.0838
G01 X17.6347Y31.9887
G01 X17.6404Y31.9598
G01 X17.6545Y31.8627
G01 X17.6600Y31.7500
G01 X17.6545Y31.6373
G01 X17.6404Y31.5402
G01 X17.6347Y31.5113
G01 X17.6105Y31.4162
G01 X17.5778Y31.3237
G01 X17.5665Y31.2965
G01 X17.5242Y31.2079
G01 X17.4741Y31.1235
G01 X17.4577Y31.0991
G01 X17.3990Y31.0204
G01 X17.3333Y30.9475
G01 X17.3125Y30.9267
G01 X17.2396Y30.8610
G01 X17.1609Y30.8023
G01 X17.1489Y30.7938
G01 X17.1275Y30.7806
G01 X17.1275Y30.1201
G01 X17.1962Y30.0694
G01 X17.2190Y30.0507
G01 X17.2878Y29.9878
G01 X17.3507Y29.9190
G01 X17.3694Y29.8962
G01 X17.4246Y29.8211
G01 X17.4801Y29.7285
G01 X17.5203Y29.6444
G01 X17.5316Y29.6172
G01 X17.5626Y29.5293
G01 X17.5856Y29.4390
G01 X17.5914Y29.4101
G01 X17.6047Y29.3178
G01 X17.6100Y29.2100
G01 X17.6047Y29.1022
G01 X17.5914Y29.0099
G01 X17.5856Y28.9810
G01 X17.5626Y28.8907
G01 X17.5316Y28.8028
G01 X17.5203Y28.7756
G01 X17.4801Y28.6915
G01 X17.4246Y28.5989
G01 X17.3694Y28.5238
G01 X17.3507Y28.5010
G01 X17.2878Y28.4322
G01 X17.2190Y28.3693
G01 X17.1962Y28.3506
G01 X17.1275Y28.2999
G01 X17.1275Y27.9400
G01 X17.1245Y27.8795
G01 X17.1156Y27.8195
G01 X17.1009Y27.7608
G01 X17.0805Y27.7037
G01 X17.0546Y27.6489
G01 X17.0313Y27.6094
G01 X17.0150Y27.5849
G01 X16.9873Y27.5483
G01 X16.9518Y27.5086
G01 X15.6714Y26.2282
G01 X15.6429Y26.2023
G01 X15.6201Y26.1836
G01 X15.5831Y26.1566
G01 X15.5439Y26.1327
G01 X15.5179Y26.1188
G01 X15.4763Y26.0995
G01 X15.4192Y26.0791
G01 X15.3605Y26.0644
G01 X15.3151Y26.0573
G01 X15.2858Y26.0544
G01 X15.2400Y26.0525
G01 X12.6926Y26.0526
G01 X12.6542Y26.0544
G01 X12.6249Y26.0573
G01 X12.5795Y26.0644
G01 X12.5349Y26.0752
G01 X12.5068Y26.0837
G01 X12.4637Y26.0995
G01 X12.4089Y26.1254
G01 X12.3694Y26.1487
G01 X12.3449Y26.1650
G01 X12.3083Y26.1927
G01 X12.2634Y26.2334
G01 X7.2369Y31.2598
G01 X7.1990Y31.2737
G01 X7.1856Y31.2797
G01 X7.1015Y31.3199
G01 X7.0213Y31.3675
G01 X6.9968Y31.3839
G01 X6.9222Y31.4397
G01 X6.8528Y31.5020
G01 X6.8320Y31.5228
G01 X6.7793Y31.5810
G01 X6.7606Y31.6038
