; ==== FlatCAM NC generated file ====
G90 G40 G17 G21 G94
M6 T1
;=============
G21
G90
G94
F30.00
G00 Z2.0000
M03 S10000
G00 X29.2100Y25.4000
G01 Z-3.0000
G01 Z0
G00 Z2.0000
G00 X29.2100Y10.1600
G01 Z-3.0000
G01 Z0
G00 Z2.0000
G00 X19.0500Y29.2100
G01 Z-3.0000
G01 Z0
G00 Z2.0000
G00 X19.0500Y7.6200
G01 Z-3.0000
G01 Z0
G00 Z2.0000
G00 X16.5100Y29.2100
G01 Z-3.0000
G01 Z0
G00 Z2.0000
G00 X16.5100Y22.8600
G01 Z-3.0000
G01 Z0
G00 Z2.0000
G00 X13.9700Y29.2100
G01 Z-3.0000
G01 Z0
G00 Z2.0000
G00 X13.9700Y10.1600
G01 Z-3.0000
G01 Z0
G00 Z2.0000
G00 X11.4300Y39.3700
G01 Z-3.0000
G01 Z0
G00 Z2.0000
G00 X11.4300Y20.3200
G01 Z-3.0000
G01 Z0
G00 Z2.0000
G00 X37.4650Y20.3200
G01 Z-3.0000
G01 Z0
G00 Z2.0000
G00 X37.4650Y10.1600
G01 Z-3.0000
G01 Z0
G00 Z2.0000
G00 X7.6200Y34.2900
G01 Z-3.0000
G01 Z0
G00 Z2.0000
G00 X7.6200Y32.2900
G01 Z-3.0000
G01 Z0
G00 Z2.0000
G00 X29.2100Y39.3700
G01 Z-3.0000
G01 Z0
G00 Z2.0000
G00 X29.2100Y29.2100
G01 Z-3.0000
G01 Z0
G00 Z2.0000
G00 X0.0000Y0.0000
M05
;=============
G0 Z20
M30