; ==== mount_right_bottom ====
; 2.38mm (3/32in) Carbide Cutter
; Stock material: 110x50x3mm GFK
; Zero (X,Y) at center; Zero Z at top of stock (tip of tool)
;=============
G90 G40 G17 G21
M6 T1
S20000 M3
F30 G94
;=============
G00 X-49.19 Y22.19 Z3
F15
G01 Z-4
F30
G01 X-24.31
G01 Y19.19
G01 X24.31
G01 Y22.19
G01 X49.19
G01 Y11.69
G01 X52.19
G01 Y-11.69
G01 X49.19
G01 Y-22.19
G01 X24.31
G01 Y-19.19
G01 X-24.31
G01 Y-22.19
G01 X-49.19
G01 Y-11.69
G01 X-52.19
G01 Y11.69
G01 X-49.19
G01 Y22.19
G01 Z3
G00 X-37.31 Y13.81
F15
G01 Z-4
F30
G01 X37.31
G01 Y12
G03 X42 Y7.31 I4.69 J0
G01 X43.81
G01 Y-7.31
G01 X42
G03 X37.31 Y-12 I0 J-4.69
G01 Y-13.81
G01 X-37.31
G01 Y-12
G03 X-42 Y-7.31 I-4.69 J0
G01 X-43.81
G01 Y7.31
G01 X-42
G03 X-37.31 Y12 I0 J4.69
G01 Y13.81
G01 Z3
;-------------
G00 X-22.19 Y12.19
F15
G01 Z-4
F30
G01 X-9.31
G01 Y9.19
G01 X9.31
G01 Y12.19
G01 X22.19
G01 Y4.31
G01 X12.19
G01 Y-4.31
G01 X22.19
G01 Y-12.19
G01 X9.31
G01 Y-9.19
G01 X-9.31
G01 Y-12.19
G01 X-22.19
G01 Y-4.31
G01 X-19.19
G01 Y4.31
G01 X-22.19
G01 Y12.19
G01 Z3
G00 X-7.81 Y3.81
F15
G01 Z-4
F30
G01 X3.81
G01 Y-3.81
G01 X-7.81
G01 Y3.81
G01 Z3
;=============
M5
G0 Z20
M30