; ==== 3/32in Carbide Cutter ====
G90 G40 G17 G21 G94
M6 T4
;=============
G21
G90
G94
F60.00
G00 Z2.0000
M03 S20000
G00 X91.3586Y1.8992
G01 Z-3.0000
G01 X91.3600Y1.9576
G01 X91.3600Y27.8874
G01 X91.3580Y27.9582
G01 X91.3537Y28.0165
G01 X91.3447Y28.0868
G01 X91.3347Y28.1443
G01 X91.3189Y28.2134
G01 X91.3033Y28.2697
G01 X91.2808Y28.3369
G01 X91.2597Y28.3914
G01 X91.2361Y28.4448
G01 X91.2045Y28.5082
G01 X91.1757Y28.5590
G01 X91.1380Y28.6191
G01 X91.0970Y28.6768
G01 X91.0610Y28.7229
G01 X91.0229Y28.7671
G01 X90.9946Y28.7978
G01 X89.1437Y30.6493
G01 X89.1014Y30.6895
G01 X89.0479Y30.7361
G01 X89.0018Y30.7720
G01 X88.9441Y30.8130
G01 X88.8840Y30.8507
G01 X88.8332Y30.8795
G01 X88.7811Y30.9058
G01 X88.7164Y30.9347
G01 X88.6619Y30.9558
G01 X88.5947Y30.9783
G01 X88.5263Y30.9969
G01 X88.4693Y31.0097
G01 X88.4118Y31.0197
G01 X88.3415Y31.0287
G01 X88.2708Y31.0336
G01 X88.2124Y31.0350
G01 X1.9284Y31.0346
G01 X1.8868Y31.0330
G01 X1.8285Y31.0287
G01 X1.7582Y31.0197
G01 X1.7007Y31.0097
G01 X1.6316Y30.9939
G01 X1.5753Y30.9783
G01 X1.5081Y30.9558
G01 X1.4536Y30.9347
G01 X1.3889Y30.9058
G01 X1.3368Y30.8795
G01 X1.2753Y30.8443
G01 X1.2259Y30.8130
G01 X1.1782Y30.7794
G01 X1.1221Y30.7361
G01 X1.0779Y30.6979
G01 X1.0263Y30.6493
G01 X-0.8043Y28.8187
G01 X-0.8445Y28.7764
G01 X-0.8911Y28.7229
G01 X-0.9270Y28.6768
G01 X-0.9680Y28.6191
G01 X-1.0057Y28.5590
G01 X-1.0345Y28.5082
G01 X-1.0608Y28.4561
G01 X-1.0897Y28.3914
G01 X-1.1150Y28.3252
G01 X-1.1333Y28.2697
G01 X-1.1519Y28.2013
G01 X-1.1647Y28.1443
G01 X-1.1765Y28.0745
G01 X-1.1837Y28.0165
G01 X-1.1880Y27.9582
G01 X-1.1900Y27.8874
G01 X-1.1900Y1.9576
G01 X-1.1886Y1.8992
G01 X-1.1837Y1.8285
G01 X-1.1747Y1.7582
G01 X-1.1647Y1.7007
G01 X-1.1489Y1.6316
G01 X-1.1333Y1.5753
G01 X-1.1150Y1.5198
G01 X-1.0898Y1.4536
G01 X-1.0661Y1.4002
G01 X-1.0345Y1.3368
G01 X-1.0057Y1.2860
G01 X-0.9680Y1.2259
G01 X-0.9270Y1.1682
G01 X-0.8911Y1.1221
G01 X-0.8529Y1.0779
G01 X-0.8247Y1.0473
G01 X1.0263Y-0.8043
G01 X1.0686Y-0.8445
G01 X1.1221Y-0.8911
G01 X1.1682Y-0.9270
G01 X1.2259Y-0.9680
G01 X1.2860Y-1.0057
G01 X1.3368Y-1.0345
G01 X1.3889Y-1.0608
G01 X1.4536Y-1.0897
G01 X1.5081Y-1.1108
G01 X1.5753Y-1.1333
G01 X1.6437Y-1.1519
G01 X1.7007Y-1.1647
G01 X1.7582Y-1.1747
G01 X1.8285Y-1.1837
G01 X1.8868Y-1.1880
G01 X1.9576Y-1.1900
G01 X88.2416Y-1.1896
G01 X88.2832Y-1.1880
G01 X88.3415Y-1.1837
G01 X88.3995Y-1.1765
G01 X88.4693Y-1.1647
G01 X88.5263Y-1.1519
G01 X88.5947Y-1.1333
G01 X88.6619Y-1.1108
G01 X88.7164Y-1.0897
G01 X88.7698Y-1.0661
G01 X88.8332Y-1.0345
G01 X88.8947Y-0.9993
G01 X88.9441Y-0.9680
G01 X89.0018Y-0.9270
G01 X89.0479Y-0.8911
G01 X89.0921Y-0.8529
G01 X89.1437Y-0.8043
G01 X90.9743Y1.0263
G01 X91.0229Y1.0779
G01 X91.0611Y1.1221
G01 X91.1044Y1.1782
G01 X91.1380Y1.2259
G01 X91.1757Y1.2860
G01 X91.2045Y1.3368
G01 X91.2361Y1.4002
G01 X91.2597Y1.4536
G01 X91.2808Y1.5081
G01 X91.3033Y1.5753
G01 X91.3219Y1.6437
G01 X91.3347Y1.7007
G01 X91.3447Y1.7582
G01 X91.3537Y1.8285
G01 X91.3586Y1.8992
G00 Z2.0000
G00 Z2.0000
G00 X0Y0
M05
;=============
G0 Z20
M30