; ==== FlatCAM NC generated file ====
; 1mm milling bit
G90 G40 G17 G21 G94
M6 T1
;=============
G21
G90
G94
F60.00
G00 Z2.0000
M03 S20000
G00 X0.1797Y0.3451
G01 Z-0.2000
G01 X0.3451Y0.1797
G01 X0.3364Y0.1810
G01 X0.3176Y0.1857
G01 X0.2993Y0.1922
G01 X0.2817Y0.2005
G01 X0.2651Y0.2105
G01 X0.2495Y0.2221
G01 X0.2351Y0.2351
G01 X0.2221Y0.2495
G01 X0.2105Y0.2651
G01 X0.2005Y0.2817
G01 X0.1922Y0.2993
G01 X0.1857Y0.3176
G01 X0.1810Y0.3364
G01 X0.1797Y0.3451
G01 X-1.0250Y0.3897
G01 X-1.0250Y19.9303
G01 X-1.0175Y20.0822
G01 X-0.9974Y20.2180
G01 X-0.9640Y20.3512
G01 X-0.9178Y20.4805
G01 X-0.8591Y20.6046
G01 X-0.7885Y20.7224
G01 X-0.7067Y20.8327
G01 X-0.6144Y20.9344
G01 X-0.5127Y21.0267
G01 X-0.4024Y21.1085
G01 X-0.2846Y21.1791
G01 X-0.1605Y21.2378
G01 X-0.0312Y21.2840
G01 X0.1020Y21.3174
G01 X0.2378Y21.3375
G01 X0.3897Y21.3450
G01 X37.6153Y21.3450
G01 X37.7672Y21.3375
G01 X37.9030Y21.3174
G01 X38.0362Y21.2840
G01 X38.1655Y21.2378
G01 X38.2896Y21.1791
G01 X38.4074Y21.1085
G01 X38.5177Y21.0267
G01 X38.6194Y20.9344
G01 X38.7117Y20.8327
G01 X38.7935Y20.7224
G01 X38.8641Y20.6046
G01 X38.9228Y20.4805
G01 X38.9690Y20.3512
G01 X39.0024Y20.2180
G01 X39.0225Y20.0822
G01 X39.0300Y19.9303
G01 X39.0300Y0.3897
G01 X39.0225Y0.2378
G01 X39.0024Y0.1020
G01 X38.9690Y-0.0312
G01 X38.9228Y-0.1605
G01 X38.8641Y-0.2846
G01 X38.7935Y-0.4024
G01 X38.7117Y-0.5127
G01 X38.6194Y-0.6144
G01 X38.5177Y-0.7067
G01 X38.4074Y-0.7885
G01 X38.2896Y-0.8591
G01 X38.1655Y-0.9178
G01 X38.0362Y-0.9640
G01 X37.9030Y-0.9974
G01 X37.7672Y-1.0175
G01 X37.6153Y-1.0250
G01 X0.3897Y-1.0250
G01 X0.2378Y-1.0175
G01 X0.1020Y-0.9974
G01 X-0.0312Y-0.9640
G01 X-0.1605Y-0.9178
G01 X-0.2846Y-0.8591
G01 X-0.4024Y-0.7885
G01 X-0.5127Y-0.7067
G01 X-0.6144Y-0.6144
G01 X-0.7067Y-0.5127
G01 X-0.7885Y-0.4024
G01 X-0.8591Y-0.2846
G01 X-0.9178Y-0.1605
G01 X-0.9640Y-0.0312
G01 X-0.9974Y0.1020
G01 X-1.0175Y0.2378
G01 X-1.0250Y0.3897
G01 X-0.0398Y2.2636
G01 X-0.0200Y2.2418
G01 X2.2418Y-0.0200
G01 X2.2704Y-0.0469
G01 X2.2828Y-0.0579
G01 X2.3238Y-0.0901
G01 X2.3484Y-0.1074
G01 X2.3811Y-0.1278
G01 X2.4213Y-0.1498
G01 X2.4331Y-0.1556
G01 X2.4548Y-0.1657
G01 X2.4963Y-0.1823
G01 X2.5353Y-0.1954
G01 X2.5619Y-0.2027
G01 X2.5871Y-0.2088
G01 X2.6292Y-0.2166
G01 X2.6672Y-0.2215
G01 X2.6975Y-0.2238
G01 X2.7367Y-0.2250
G01 X25.3000Y-0.2250
G01 X25.3392Y-0.2238
G01 X25.3695Y-0.2215
G01 X25.4075Y-0.2166
G01 X25.4497Y-0.2088
G01 X25.5014Y-0.1954
G01 X25.5404Y-0.1823
G01 X25.5819Y-0.1657
G01 X25.6155Y-0.1498
G01 X25.6640Y-0.1228
G01 X25.6884Y-0.1074
G01 X25.7209Y-0.0842
G01 X25.7539Y-0.0579
G01 X25.7736Y-0.0403
G01 X25.7950Y-0.0200
G01 X25.8219Y0.0086
G01 X25.8329Y0.0211
G01 X25.8592Y0.0541
G01 X25.8824Y0.0866
G01 X25.9028Y0.1194
G01 X25.9248Y0.1595
G01 X25.9407Y0.1930
G01 X25.9573Y0.2346
G01 X25.9704Y0.2736
G01 X25.9838Y0.3253
G01 X25.9930Y0.3772
G01 X25.9965Y0.4055
G01 X25.9993Y0.4456
G01 X26.0000Y0.4750
G01 X26.0000Y1.8343
G01 X25.9988Y1.8736
G01 X25.9965Y1.9038
G01 X25.9930Y1.9322
G01 X25.9838Y1.9840
G01 X25.9704Y2.0358
G01 X25.9573Y2.0747
G01 X25.9407Y2.1163
G01 X25.9248Y2.1498
G01 X25.9028Y2.1899
G01 X25.8824Y2.2227
G01 X25.8592Y2.2552
G01 X25.8329Y2.2882
G01 X25.7950Y2.3293
G01 X25.7539Y2.3672
G01 X25.7209Y2.3935
G01 X25.6884Y2.4167
G01 X25.6556Y2.4371
G01 X25.6155Y2.4592
G01 X25.5800Y2.4758
G01 X25.5800Y3.6842
G01 X25.6155Y3.7008
G01 X25.6640Y3.7279
G01 X25.6884Y3.7433
G01 X25.7130Y3.7606
G01 X25.7529Y3.7921
G01 X25.7548Y3.7494
G01 X25.7570Y3.7192
G01 X25.7651Y3.6600
G01 X25.7729Y3.6179
G01 X25.7915Y3.5454
G01 X25.8117Y3.4864
G01 X25.8284Y3.4448
G01 X25.8343Y3.4320
G01 X25.8533Y3.3920
G01 X25.8754Y3.3519
G01 X25.9068Y3.3008
G01 X25.9426Y3.2512
G01 X25.9690Y3.2181
G01 X26.0009Y3.1826
G01 X26.0014Y3.1830
G01 X26.0212Y3.1612
G01 X27.2912Y1.8912
G01 X27.3126Y1.8709
G01 X27.3481Y1.8390
G01 X27.3812Y1.8126
G01 X27.4308Y1.7768
G01 X27.4819Y1.7454
G01 X27.5220Y1.7233
G01 X27.5748Y1.6984
G01 X27.6164Y1.6817
G01 X27.6754Y1.6615
G01 X27.7479Y1.6429
G01 X27.7900Y1.6351
G01 X27.8208Y1.6305
G01 X27.8492Y1.6270
G01 X27.8794Y1.6248
G01 X27.9400Y1.6225
G01 X28.1534Y1.6225
G01 X28.1997Y1.5714
G01 X28.2200Y1.5501
G01 X28.2414Y1.5297
G01 X28.2995Y1.4770
G01 X28.3120Y1.4660
G01 X28.3451Y1.4397
G01 X28.4081Y1.3929
G01 X28.4327Y1.3756
G01 X28.4571Y1.3602
G01 X28.5244Y1.3198
G01 X28.5646Y1.2978
G01 X28.6473Y1.2585
G01 X28.6602Y1.2526
G01 X28.7017Y1.2360
G01 X28.7756Y1.2095
G01 X28.8054Y1.1998
G01 X28.8320Y1.1924
G01 X28.9238Y1.1697
G01 X28.9659Y1.1619
G01 X29.0719Y1.1468
G01 X29.1021Y1.1446
G01 X29.1806Y1.1407
G01 X29.2100Y1.1400
G01 X29.2394Y1.1407
G01 X29.3179Y1.1446
G01 X29.3481Y1.1468
G01 X29.4541Y1.1619
G01 X29.4962Y1.1697
G01 X29.5119Y1.1734
G01 X29.6146Y1.1998
G01 X29.6444Y1.2095
G01 X29.7183Y1.2360
G01 X29.7598Y1.2526
G01 X29.8554Y1.2978
G01 X29.8956Y1.3198
G01 X29.9629Y1.3602
G01 X29.9873Y1.3756
G01 X30.0119Y1.3929
G01 X30.0749Y1.4397
G01 X30.1080Y1.4660
G01 X30.1786Y1.5297
G01 X30.2000Y1.5501
G01 X30.2203Y1.5714
G01 X30.2840Y1.6420
G01 X30.3103Y1.6751
G01 X30.3571Y1.7381
G01 X30.3744Y1.7627
G01 X30.3898Y1.7871
G01 X30.4302Y1.8544
G01 X30.4522Y1.8946
G01 X30.4974Y1.9902
G01 X30.5140Y2.0317
G01 X30.5405Y2.1056
G01 X30.5502Y2.1354
G01 X30.5766Y2.2381
G01 X30.5803Y2.2538
G01 X30.5881Y2.2959
G01 X30.5997Y2.3735
G01 X30.6032Y2.4019
G01 X30.6054Y2.4321
G01 X30.6093Y2.5106
G01 X30.6100Y2.5400
G01 X30.6093Y2.5694
G01 X30.6054Y2.6479
G01 X30.6032Y2.6781
G01 X30.5881Y2.7841
G01 X30.5803Y2.8262
G01 X30.5576Y2.9180
G01 X30.5502Y2.9446
G01 X30.5405Y2.9744
G01 X30.5140Y3.0483
G01 X30.4974Y3.0898
G01 X30.4579Y3.1737
G01 X30.4522Y3.1854
G01 X30.4302Y3.2256
G01 X30.3898Y3.2929
G01 X30.3744Y3.3173
G01 X30.3571Y3.3419
G01 X30.3103Y3.4049
G01 X30.2840Y3.4380
G01 X30.2203Y3.5086
G01 X30.1999Y3.5300
G01 X30.1786Y3.5503
G01 X30.1080Y3.6140
G01 X30.0749Y3.6403
G01 X30.0207Y3.6806
G01 X30.0726Y3.6833
G01 X30.1346Y3.6931
G01 X30.1951Y3.7093
G01 X30.2537Y3.7317
G01 X30.3098Y3.7602
G01 X30.3625Y3.7945
G01 X30.4114Y3.8341
G01 X30.4559Y3.8786
G01 X30.4955Y3.9275
G01 X30.5298Y3.9802
G01 X30.5583Y4.0363
G01 X30.5807Y4.0949
G01 X30.5969Y4.1554
G01 X30.5980Y4.1625
G01 X31.9686Y4.1625
G01 X31.9549Y4.0696
G01 X31.9513Y4.0412
G01 X31.9491Y4.0110
G01 X31.9407Y3.8394
G01 X31.9399Y3.8100
G01 X31.9407Y3.7806
G01 X31.9491Y3.6090
G01 X31.9513Y3.5788
G01 X31.9549Y3.5504
G01 X31.9801Y3.3805
G01 X31.9879Y3.3384
G01 X31.9915Y3.3228
G01 X32.0333Y3.1562
G01 X32.0406Y3.1296
G01 X32.0504Y3.0999
G01 X32.1082Y2.9381
G01 X32.1249Y2.8966
G01 X32.2099Y2.7167
G01 X32.2319Y2.6766
G01 X32.3202Y2.5293
G01 X32.3356Y2.5049
G01 X32.3530Y2.4803
G01 X32.4553Y2.3424
G01 X32.4816Y2.3093
G01 X32.6080Y2.1696
G01 X32.6283Y2.1483
G01 X32.6496Y2.1280
G01 X32.7768Y2.0126
G01 X32.7893Y2.0016
G01 X32.8224Y1.9753
G01 X32.9603Y1.8730
G01 X32.9849Y1.8556
G01 X33.0093Y1.8402
G01 X33.1566Y1.7519
G01 X33.1967Y1.7299
G01 X33.3766Y1.6449
G01 X33.4181Y1.6282
G01 X33.5799Y1.5704
G01 X33.6096Y1.5606
G01 X33.6362Y1.5533
G01 X33.8184Y1.5079
G01 X33.8605Y1.5001
G01 X34.0304Y1.4749
G01 X34.0588Y1.4713
G01 X34.0890Y1.4691
G01 X34.2606Y1.4607
G01 X34.2900Y1.4599
G01 X34.3194Y1.4607
G01 X34.4910Y1.4691
G01 X34.5212Y1.4713
G01 X34.5496Y1.4749
G01 X34.7195Y1.5001
G01 X34.7616Y1.5079
G01 X34.9438Y1.5533
G01 X34.9704Y1.5606
G01 X35.0001Y1.5704
G01 X35.1619Y1.6282
G01 X35.2034Y1.6449
G01 X35.3833Y1.7299
G01 X35.4234Y1.7519
G01 X35.5707Y1.8402
G01 X35.5951Y1.8556
G01 X35.6197Y1.8730
G01 X35.7576Y1.9753
G01 X35.7907Y2.0016
G01 X35.9304Y2.1280
G01 X35.9517Y2.1483
G01 X35.9720Y2.1696
G01 X36.0874Y2.2968
G01 X36.0984Y2.3093
G01 X36.1247Y2.3424
G01 X36.2270Y2.4803
G01 X36.2444Y2.5049
G01 X36.2598Y2.5293
G01 X36.3481Y2.6766
G01 X36.3701Y2.7167
G01 X36.4492Y2.8837
G01 X36.4551Y2.8966
G01 X36.4718Y2.9381
G01 X36.5296Y3.0999
G01 X36.5394Y3.1296
G01 X36.5467Y3.1562
G01 X36.5921Y3.3384
G01 X36.5999Y3.3805
G01 X36.6251Y3.5504
G01 X36.6287Y3.5788
G01 X36.6309Y3.6090
G01 X36.6393Y3.7806
G01 X36.6401Y3.8100
G01 X36.6393Y3.8394
G01 X36.6309Y4.0110
G01 X36.6287Y4.0412
G01 X36.6251Y4.0696
G01 X36.5999Y4.2395
G01 X36.5921Y4.2816
G01 X36.5885Y4.2972
G01 X36.5467Y4.4638
G01 X36.5394Y4.4904
G01 X36.5296Y4.5201
G01 X36.4718Y4.6819
G01 X36.4551Y4.7234
G01 X36.3758Y4.8915
G01 X36.3701Y4.9033
G01 X36.3481Y4.9434
G01 X36.2598Y5.0907
G01 X36.2444Y5.1151
G01 X36.2270Y5.1397
G01 X36.1247Y5.2776
G01 X36.0984Y5.3107
G01 X35.9720Y5.4504
G01 X35.9517Y5.4717
G01 X35.9304Y5.4920
G01 X35.8032Y5.6074
G01 X35.7907Y5.6184
G01 X35.7576Y5.6447
G01 X35.6197Y5.7470
G01 X35.5951Y5.7644
G01 X35.5707Y5.7798
G01 X35.4234Y5.8681
G01 X35.3833Y5.8901
G01 X35.2163Y5.9692
G01 X35.2034Y5.9751
G01 X35.1619Y5.9918
G01 X35.0001Y6.0496
G01 X34.9704Y6.0594
G01 X34.9438Y6.0667
G01 X34.7772Y6.1085
G01 X34.7616Y6.1121
G01 X34.7195Y6.1199
G01 X34.5496Y6.1451
G01 X34.5212Y6.1487
G01 X34.4910Y6.1509
G01 X34.3194Y6.1593
G01 X34.2900Y6.1601
G01 X34.2606Y6.1593
G01 X34.0890Y6.1509
G01 X34.0588Y6.1487
G01 X34.0304Y6.1451
G01 X33.8605Y6.1199
G01 X33.8184Y6.1121
G01 X33.8028Y6.1085
G01 X33.6362Y6.0667
G01 X33.6096Y6.0594
G01 X33.5799Y6.0496
G01 X33.4181Y5.9918
G01 X33.3766Y5.9751
G01 X33.3178Y5.9475
G01 X33.2846Y5.9585
G01 X33.2580Y5.9658
G01 X33.2121Y5.9771
G01 X33.1700Y5.9849
G01 X33.1108Y5.9930
G01 X33.0806Y5.9952
G01 X33.0200Y5.9975
G01 X30.5980Y5.9975
G01 X30.5969Y6.0046
G01 X30.5807Y6.0651
G01 X30.5583Y6.1237
G01 X30.5298Y6.1798
G01 X30.4955Y6.2325
G01 X30.4559Y6.2814
G01 X30.4114Y6.3259
G01 X30.3625Y6.3655
G01 X30.3098Y6.3998
G01 X30.2537Y6.4283
G01 X30.1951Y6.4507
G01 X30.1346Y6.4669
G01 X30.1275Y6.4680
G01 X30.1275Y14.1834
G01 X30.1786Y14.2297
G01 X30.2000Y14.2501
G01 X30.2203Y14.2714
G01 X30.2730Y14.3295
G01 X30.2840Y14.3420
G01 X30.3103Y14.3751
G01 X30.3571Y14.4381
G01 X30.3744Y14.4627
G01 X30.3898Y14.4871
G01 X30.4302Y14.5544
G01 X30.4522Y14.5946
G01 X30.4974Y14.6902
G01 X30.5140Y14.7317
G01 X30.5405Y14.8056
G01 X30.5502Y14.8354
G01 X30.5576Y14.8620
G01 X30.5803Y14.9538
G01 X30.5881Y14.9959
G01 X30.6032Y15.1019
G01 X30.6054Y15.1321
G01 X30.6093Y15.2106
G01 X30.6100Y15.2400
G01 X30.6093Y15.2694
G01 X30.6054Y15.3479
G01 X30.6032Y15.3781
G01 X30.5881Y15.4841
G01 X30.5803Y15.5262
G01 X30.5766Y15.5419
G01 X30.5502Y15.6446
G01 X30.5405Y15.6744
G01 X30.5140Y15.7483
G01 X30.4974Y15.7898
G01 X30.4522Y15.8854
G01 X30.4302Y15.9256
G01 X30.3898Y15.9929
G01 X30.3744Y16.0173
G01 X30.3571Y16.0419
G01 X30.3103Y16.1049
G01 X30.2840Y16.1380
G01 X30.2203Y16.2086
G01 X30.2000Y16.2299
G01 X30.1786Y16.2503
G01 X30.1080Y16.3140
G01 X30.0749Y16.3403
G01 X30.0207Y16.3806
G01 X30.0726Y16.3833
G01 X30.1345Y16.3931
G01 X30.1951Y16.4093
G01 X30.2537Y16.4317
G01 X30.3097Y16.4602
G01 X30.3625Y16.4945
G01 X30.4114Y16.5341
G01 X30.4559Y16.5786
G01 X30.4955Y16.6275
G01 X30.5298Y16.6802
G01 X30.5583Y16.7363
G01 X30.5807Y16.7949
G01 X30.5969Y16.8554
G01 X30.6067Y16.9174
G01 X30.6100Y16.9800
G01 X30.6100Y18.5800
G01 X30.6067Y18.6426
G01 X30.5969Y18.7046
G01 X30.5807Y18.7651
G01 X30.5583Y18.8237
G01 X30.5298Y18.8798
G01 X30.4955Y18.9325
G01 X30.4559Y18.9814
G01 X30.4114Y19.0259
G01 X30.3625Y19.0655
G01 X30.3098Y19.0998
G01 X30.2537Y19.1283
G01 X30.1951Y19.1507
G01 X30.1346Y19.1669
G01 X30.0726Y19.1767
G01 X30.0100Y19.1800
G01 X28.4100Y19.1800
G01 X28.3474Y19.1767
G01 X28.2855Y19.1669
G01 X28.2249Y19.1507
G01 X28.1663Y19.1283
G01 X28.1103Y19.0998
G01 X28.0575Y19.0655
G01 X28.0086Y19.0259
G01 X27.9641Y18.9814
G01 X27.9245Y18.9325
G01 X27.8902Y18.8798
G01 X27.8617Y18.8237
G01 X27.8393Y18.7651
G01 X27.8231Y18.7046
G01 X27.8207Y18.6895
G01 X27.7900Y18.6849
G01 X27.7479Y18.6771
G01 X27.6754Y18.6585
G01 X27.6164Y18.6383
G01 X27.5748Y18.6216
G01 X27.5220Y18.5967
G01 X27.4819Y18.5746
G01 X27.4551Y18.5586
G01 X27.4308Y18.5432
G01 X27.4062Y18.5259
G01 X27.3812Y18.5074
G01 X27.3481Y18.4810
G01 X27.3126Y18.4491
G01 X27.3130Y18.4486
G01 X27.2912Y18.4288
G01 X26.0212Y17.1588
G01 X26.0009Y17.1374
G01 X25.9690Y17.1019
G01 X25.9426Y17.0688
G01 X25.9068Y17.0192
G01 X25.8754Y16.9681
G01 X25.8533Y16.9280
G01 X25.8284Y16.8752
G01 X25.8117Y16.8336
G01 X25.7915Y16.7746
G01 X25.7729Y16.7021
G01 X25.7651Y16.6600
G01 X25.7570Y16.6008
G01 X25.7548Y16.5706
G01 X25.7531Y16.5325
G01 X25.7130Y16.5640
G01 X25.6884Y16.5813
G01 X25.6640Y16.5967
G01 X25.6155Y16.6238
G01 X25.5800Y16.6404
G01 X25.5800Y17.8396
G01 X25.6155Y17.8562
G01 X25.6556Y17.8782
G01 X25.6884Y17.8987
G01 X25.7209Y17.9218
G01 X25.7539Y17.9482
G01 X25.7736Y17.9658
G01 X25.7950Y17.9861
G01 X25.8329Y18.0272
G01 X25.8592Y18.0602
G01 X25.8824Y18.0927
G01 X25.9028Y18.1255
G01 X25.9249Y18.1656
G01 X25.9407Y18.1991
G01 X25.9606Y18.2499
G01 X25.9704Y18.2796
G01 X25.9838Y18.3314
G01 X25.9916Y18.3735
G01 X25.9965Y18.4116
G01 X25.9988Y18.4418
G01 X26.0000Y18.4811
G01 X26.0000Y19.8450
G01 X25.9988Y19.8842
G01 X25.9965Y19.9145
G01 X25.9916Y19.9525
G01 X25.9838Y19.9947
G01 X25.9704Y20.0464
G01 X25.9573Y20.0854
G01 X25.9407Y20.1270
G01 X25.9248Y20.1605
G01 X25.8978Y20.2090
G01 X25.8824Y20.2334
G01 X25.8592Y20.2659
G01 X25.8329Y20.2989
G01 X25.8153Y20.3186
G01 X25.7950Y20.3400
G01 X25.7664Y20.3669
G01 X25.7539Y20.3779
G01 X25.7130Y20.4101
G01 X25.6884Y20.4274
G01 X25.6556Y20.4478
G01 X25.6155Y20.4698
G01 X25.5948Y20.4798
G01 X25.5820Y20.4857
G01 X25.5404Y20.5023
G01 X25.5014Y20.5154
G01 X25.4748Y20.5227
G01 X25.4497Y20.5288
G01 X25.4075Y20.5366
G01 X25.3695Y20.5415
G01 X25.3392Y20.5438
G01 X25.3000Y20.5450
G01 X2.7367Y20.5450
G01 X2.6975Y20.5438
G01 X2.6672Y20.5415
G01 X2.6292Y20.5366
G01 X2.5871Y20.5288
G01 X2.5619Y20.5227
G01 X2.5353Y20.5154
G01 X2.4963Y20.5023
G01 X2.4548Y20.4857
G01 X2.4331Y20.4756
G01 X2.4213Y20.4698
G01 X2.3811Y20.4478
G01 X2.3484Y20.4274
G01 X2.3238Y20.4101
G01 X2.2828Y20.3779
G01 X2.2704Y20.3669
G01 X2.2631Y20.3603
G01 X2.2636Y20.3598
G01 X2.2418Y20.3400
G01 X-0.0200Y18.0782
G01 X-0.0469Y18.0496
G01 X-0.0663Y18.0271
G01 X-0.0901Y17.9962
G01 X-0.1074Y17.9716
G01 X-0.1278Y17.9388
G01 X-0.1423Y17.9132
G01 X-0.1598Y17.8780
G01 X-0.1718Y17.8510
G01 X-0.1823Y17.8237
G01 X-0.1954Y17.7847
G01 X-0.2051Y17.7485
G01 X-0.2114Y17.7204
G01 X-0.2166Y17.6908
G01 X-0.2216Y17.6519
G01 X-0.2238Y17.6225
G01 X-0.2250Y17.5832
G01 X-0.2250Y2.7368
G01 X-0.2238Y2.6975
G01 X-0.2215Y2.6673
G01 X-0.2166Y2.6292
G01 X-0.2088Y2.5871
G01 X-0.1954Y2.5353
G01 X-0.1823Y2.4964
G01 X-0.1657Y2.4548
G01 X-0.1498Y2.4213
G01 X-0.1278Y2.3812
G01 X-0.1074Y2.3484
G01 X-0.0842Y2.3159
G01 X-0.0579Y2.2828
G01 X-0.0403Y2.2631
G01 X-0.0398Y2.2636
G01 X1.7983Y-0.4250
G01 X0.4045Y-0.4250
G01 X0.2967Y-0.4197
G01 X0.2192Y-0.4082
G01 X0.1432Y-0.3892
G01 X0.0694Y-0.3628
G01 X-0.0014Y-0.3293
G01 X-0.0687Y-0.2890
G01 X-0.1316Y-0.2423
G01 X-0.1897Y-0.1897
G01 X-0.2423Y-0.1316
G01 X-0.2890Y-0.0687
G01 X-0.3293Y-0.0014
G01 X-0.3628Y0.0694
G01 X-0.3892Y0.1432
G01 X-0.4082Y0.2192
G01 X-0.4197Y0.2967
G01 X-0.4250Y0.4045
G01 X-0.4250Y1.7983
G01 X1.7983Y-0.4250
G00 Z2.0000
G00 X-0.4250Y18.5217
G01 Z-0.2000
G01 X-0.4250Y19.9155
G01 X-0.4197Y20.0233
G01 X-0.4082Y20.1008
G01 X-0.3892Y20.1768
G01 X-0.3628Y20.2506
G01 X-0.3293Y20.3214
G01 X-0.2890Y20.3887
G01 X-0.2423Y20.4516
G01 X-0.1897Y20.5097
G01 X-0.1316Y20.5623
G01 X-0.0687Y20.6090
G01 X-0.0014Y20.6493
G01 X0.0694Y20.6828
G01 X0.1432Y20.7092
G01 X0.2192Y20.7282
G01 X0.2967Y20.7397
G01 X0.4045Y20.7450
G01 X1.7983Y20.7450
G01 X-0.4250Y18.5217
G01 X0.1797Y19.9749
G01 X0.1810Y19.9836
G01 X0.1857Y20.0024
G01 X0.1922Y20.0207
G01 X0.2005Y20.0383
G01 X0.2105Y20.0549
G01 X0.2221Y20.0705
G01 X0.2351Y20.0849
G01 X0.2495Y20.0979
G01 X0.2651Y20.1095
G01 X0.2817Y20.1195
G01 X0.2993Y20.1278
G01 X0.3176Y20.1343
G01 X0.3364Y20.1390
G01 X0.3451Y20.1403
G01 X0.1797Y19.9749
G00 Z2.0000
G00 X26.2378Y20.7450
G01 Z-0.2000
G01 X37.6005Y20.7450
G01 X37.7083Y20.7397
G01 X37.7858Y20.7282
G01 X37.8618Y20.7092
G01 X37.9356Y20.6828
G01 X38.0064Y20.6493
G01 X38.0737Y20.6090
G01 X38.1366Y20.5623
G01 X38.1947Y20.5097
G01 X38.2473Y20.4516
G01 X38.2940Y20.3887
G01 X38.3343Y20.3214
G01 X38.3678Y20.2506
G01 X38.3942Y20.1768
G01 X38.4132Y20.1008
G01 X38.4247Y20.0233
G01 X38.4300Y19.9155
G01 X38.4300Y11.3584
G01 X38.3994Y11.3991
G01 X38.3730Y11.4322
G01 X38.3475Y11.4622
G01 X38.3473Y13.9847
G01 X38.3445Y14.0600
G01 X38.3413Y14.1054
G01 X38.3349Y14.1630
G01 X38.3284Y14.2080
G01 X38.3171Y14.2713
G01 X38.3110Y14.3001
G01 X38.2944Y14.3671
G01 X38.2785Y14.4219
G01 X38.2532Y14.4958
G01 X38.2286Y14.5582
G01 X38.2081Y14.6046
G01 X38.1862Y14.6504
G01 X38.1727Y14.6766
G01 X38.1393Y14.7366
G01 X38.1003Y14.7999
G01 X38.0840Y14.8244
G01 X38.0578Y14.8612
G01 X38.0264Y14.9030
G01 X38.0000Y14.9361
G01 X37.9811Y14.9586
G01 X37.9436Y15.0004
G01 X37.9030Y15.0430
G01 X37.1502Y15.7959
G01 X37.1761Y15.9004
G01 X37.1899Y15.9714
G01 X37.2186Y16.1624
G01 X37.2270Y16.2342
G01 X37.2302Y16.2796
G01 X37.2386Y16.4511
G01 X37.2399Y16.4953
G01 X37.2399Y16.5247
G01 X37.2386Y16.5689
G01 X37.2293Y16.7556
G01 X37.2241Y16.8151
G01 X37.2186Y16.8576
G01 X37.1934Y17.0275
G01 X37.1821Y17.0908
G01 X37.1761Y17.1196
G01 X37.1287Y17.3096
G01 X37.1179Y17.3496
G01 X37.1094Y17.3778
G01 X37.0946Y17.4223
G01 X37.0367Y17.5840
G01 X37.0121Y17.6465
G01 X36.9916Y17.6928
G01 X36.9096Y17.8657
G01 X36.8961Y17.8919
G01 X36.8627Y17.9519
G01 X36.7744Y18.0992
G01 X36.7514Y18.1358
G01 X36.7351Y18.1603
G01 X36.7090Y18.1971
G01 X36.5938Y18.3518
G01 X36.5485Y18.4074
G01 X36.4166Y18.5534
G01 X36.3863Y18.5855
G01 X36.3441Y18.6266
G01 X36.2061Y18.7520
G01 X36.1649Y18.7874
G01 X36.1151Y18.8267
G01 X35.9771Y18.9290
G01 X35.9403Y18.9551
G01 X35.9158Y18.9714
G01 X35.8792Y18.9944
G01 X35.7319Y19.0827
G01 X35.6719Y19.1161
G01 X35.6457Y19.1296
G01 X35.4728Y19.2116
G01 X35.4265Y19.2321
G01 X35.3640Y19.2567
G01 X35.2023Y19.3146
G01 X35.1578Y19.3294
G01 X35.1029Y19.3452
G01 X34.9230Y19.3905
G01 X34.8707Y19.4021
G01 X34.8075Y19.4134
G01 X34.6376Y19.4386
G01 X34.5658Y19.4470
G01 X34.5204Y19.4502
G01 X34.3489Y19.4586
G01 X34.3047Y19.4599
G01 X34.2753Y19.4599
G01 X34.2311Y19.4586
G01 X34.0596Y19.4502
G01 X34.0142Y19.4470
G01 X33.9424Y19.4386
G01 X33.7725Y19.4134
G01 X33.7093Y19.4021
G01 X33.6570Y19.3905
G01 X33.4771Y19.3452
G01 X33.4222Y19.3294
G01 X33.3777Y19.3146
G01 X33.2160Y19.2567
G01 X33.1535Y19.2321
G01 X33.1072Y19.2116
G01 X32.9460Y19.1354
G01 X32.9081Y19.1161
G01 X32.8481Y19.0827
G01 X32.7008Y18.9944
G01 X32.6642Y18.9714
G01 X32.6397Y18.9551
G01 X32.6029Y18.9290
G01 X32.4649Y18.8267
G01 X32.4151Y18.7874
G01 X32.3739Y18.7520
G01 X32.2466Y18.6366
G01 X32.2145Y18.6063
G01 X32.1734Y18.5641
G01 X32.0480Y18.4261
G01 X32.0126Y18.3849
G01 X31.9733Y18.3351
G01 X31.8710Y18.1971
G01 X31.8449Y18.1603
G01 X31.8286Y18.1358
G01 X31.8056Y18.0992
G01 X31.7173Y17.9519
G01 X31.6839Y17.8919
G01 X31.6618Y17.8480
G01 X31.5795Y17.6735
G01 X31.5679Y17.6465
G01 X31.5433Y17.5840
G01 X31.4854Y17.4223
G01 X31.4706Y17.3778
G01 X31.4621Y17.3496
G01 X31.4513Y17.3096
G01 X31.4095Y17.1430
G01 X31.3979Y17.0907
G01 X31.3866Y17.0275
G01 X31.3614Y16.8576
G01 X31.3559Y16.8151
G01 X31.3507Y16.7556
G01 X31.3414Y16.5689
G01 X31.3401Y16.5247
G01 X31.3401Y16.4953
G01 X31.3414Y16.4511
G01 X31.3498Y16.2796
G01 X31.3530Y16.2342
G01 X31.3614Y16.1624
G01 X31.3866Y15.9925
G01 X31.3979Y15.9293
G01 X31.4095Y15.8770
G01 X31.4513Y15.7104
G01 X31.4706Y15.6422
G01 X31.4854Y15.5977
G01 X31.5433Y15.4360
G01 X31.5679Y15.3735
G01 X31.5884Y15.3272
G01 X31.6646Y15.1660
G01 X31.6839Y15.1281
G01 X31.7173Y15.0681
G01 X31.8056Y14.9208
G01 X31.8286Y14.8842
G01 X31.8622Y14.8351
G01 X31.9733Y14.6849
G01 X32.0126Y14.6351
G01 X32.0315Y14.6125
G01 X32.1634Y14.4666
G01 X32.1937Y14.4345
G01 X32.2145Y14.4137
G01 X32.2466Y14.3834
G01 X32.3739Y14.2680
G01 X32.4151Y14.2326
G01 X32.4649Y14.1933
G01 X32.6029Y14.0910
G01 X32.6397Y14.0649
G01 X32.6642Y14.0486
G01 X32.7008Y14.0256
G01 X32.8481Y13.9373
G01 X32.9081Y13.9039
G01 X32.9460Y13.8846
G01 X33.1072Y13.8084
G01 X33.1535Y13.7879
G01 X33.2160Y13.7633
G01 X33.3777Y13.7054
G01 X33.4222Y13.6906
G01 X33.4904Y13.6713
G01 X33.6648Y13.6276
G01 X33.7093Y13.6179
G01 X33.7725Y13.6066
G01 X33.9424Y13.5814
G01 X34.0142Y13.5730
G01 X34.0596Y13.5698
G01 X34.2458Y13.5608
G01 X34.2753Y13.5601
G01 X34.3047Y13.5601
G01 X34.3489Y13.5614
G01 X34.5204Y13.5698
G01 X34.5658Y13.5730
G01 X34.5951Y13.5759
G01 X34.6376Y13.5814
G01 X34.8286Y13.6101
G01 X34.8996Y13.6239
G01 X35.0041Y13.6498
G01 X35.3125Y13.3414
G01 X35.3125Y11.4622
G01 X35.2870Y11.4322
G01 X35.2606Y11.3991
G01 X35.1922Y11.3071
G01 X35.1585Y11.2580
G01 X35.1355Y11.2214
G01 X35.0952Y11.1540
G01 X35.0618Y11.0941
G01 X35.0397Y11.0502
G01 X34.9972Y10.9600
G01 X34.9856Y10.9329
G01 X34.9610Y10.8704
G01 X34.9295Y10.7817
G01 X34.9112Y10.7238
G01 X34.9004Y10.6838
G01 X34.8757Y10.5842
G01 X34.8619Y10.5133
G01 X34.8468Y10.4145
G01 X34.8385Y10.3427
G01 X34.8353Y10.2973
G01 X34.8314Y10.2189
G01 X34.8302Y10.1747
G01 X34.8302Y10.1453
G01 X34.8314Y10.1011
G01 X34.8353Y10.0227
G01 X34.8385Y9.9773
G01 X34.8414Y9.9480
G01 X34.8468Y9.9055
G01 X34.8584Y9.8279
G01 X34.8697Y9.7646
G01 X34.8794Y9.7202
G01 X34.9004Y9.6362
G01 X34.9197Y9.5680
G01 X34.9346Y9.5235
G01 X34.9610Y9.4496
G01 X34.9856Y9.3871
G01 X35.0061Y9.3408
G01 X35.0425Y9.2639
G01 X35.0618Y9.2259
G01 X35.0952Y9.1660
G01 X35.1355Y9.0986
G01 X35.1585Y9.0620
G01 X35.1749Y9.0375
G01 X35.2010Y9.0007
G01 X35.2606Y8.9209
G01 X35.3059Y8.8653
G01 X35.3852Y8.7777
G01 X35.4055Y8.7563
G01 X35.4477Y8.7152
G01 X35.5353Y8.6359
G01 X35.5578Y8.6170
G01 X35.6076Y8.5777
G01 X35.6707Y8.5310
G01 X35.7075Y8.5049
G01 X35.7320Y8.4885
G01 X35.7686Y8.4655
G01 X35.8360Y8.4252
G01 X35.8959Y8.3918
G01 X35.9339Y8.3725
G01 X36.0300Y8.3272
G01 X36.0987Y8.2990
G01 X36.1935Y8.2646
G01 X36.2380Y8.2497
G01 X36.2662Y8.2412
G01 X36.3062Y8.2304
G01 X36.4058Y8.2057
G01 X36.4346Y8.1997
G01 X36.4979Y8.1884
G01 X36.5897Y8.1749
G01 X36.6473Y8.1685
G01 X36.6927Y8.1653
G01 X36.7711Y8.1614
G01 X36.8153Y8.1602
G01 X36.8447Y8.1602
G01 X36.8889Y8.1614
G01 X36.9673Y8.1653
G01 X37.0127Y8.1685
G01 X37.0420Y8.1714
G01 X37.0845Y8.1768
G01 X37.1833Y8.1919
G01 X37.2542Y8.2057
G01 X37.3538Y8.2304
G01 X37.3938Y8.2412
G01 X37.4220Y8.2497
G01 X37.4665Y8.2646
G01 X37.5404Y8.2910
G01 X37.6029Y8.3156
G01 X37.6492Y8.3361
G01 X37.7261Y8.3725
G01 X37.7641Y8.3918
G01 X37.8240Y8.4252
G01 X37.8914Y8.4655
G01 X37.9280Y8.4885
G01 X37.9525Y8.5049
G01 X37.9893Y8.5310
G01 X38.0524Y8.5777
G01 X38.1022Y8.6170
G01 X38.1247Y8.6359
G01 X38.2123Y8.7152
G01 X38.2545Y8.7563
G01 X38.2748Y8.7777
G01 X38.3541Y8.8653
G01 X38.3994Y8.9209
G01 X38.4300Y8.9616
G01 X38.4300Y0.4045
G01 X38.4247Y0.2967
G01 X38.4132Y0.2192
G01 X38.3942Y0.1432
G01 X38.3678Y0.0694
G01 X38.3343Y-0.0014
G01 X38.2940Y-0.0687
G01 X38.2473Y-0.1316
G01 X38.1947Y-0.1897
G01 X38.1366Y-0.2423
G01 X38.0737Y-0.2890
G01 X38.0064Y-0.3293
G01 X37.9356Y-0.3628
G01 X37.8618Y-0.3892
G01 X37.7858Y-0.4082
G01 X37.7083Y-0.4197
G01 X37.6005Y-0.4250
G01 X26.2378Y-0.4250
G01 X26.2720Y-0.3881
G01 X26.3019Y-0.3531
G01 X26.3283Y-0.3200
G01 X26.3558Y-0.2832
G01 X26.3895Y-0.2341
G01 X26.4124Y-0.1975
G01 X26.4289Y-0.1692
G01 X26.4644Y-0.1029
G01 X26.4861Y-0.0571
G01 X26.4977Y-0.0300
G01 X26.5222Y0.0325
G01 X26.5404Y0.0862
G01 X26.5489Y0.1144
G01 X26.5640Y0.1717
G01 X26.5738Y0.2162
G01 X26.5816Y0.2583
G01 X26.5885Y0.3033
G01 X26.5949Y0.3609
G01 X26.5981Y0.4063
G01 X26.5998Y0.4603
G01 X26.6000Y1.7339
G01 X26.8775Y1.4567
G01 X26.9327Y1.4054
G01 X26.9739Y1.3700
G01 X27.0070Y1.3436
G01 X27.0488Y1.3122
G01 X27.0856Y1.2860
G01 X27.1101Y1.2697
G01 X27.1734Y1.2307
G01 X27.2334Y1.1973
G01 X27.2596Y1.1838
G01 X27.3247Y1.1530
G01 X27.3518Y1.1414
G01 X27.4142Y1.1168
G01 X27.4881Y1.0915
G01 X27.5429Y1.0756
G01 X27.5865Y1.0646
G01 X27.6387Y1.0529
G01 X27.6809Y1.0451
G01 X27.7470Y1.0351
G01 X27.8046Y1.0287
G01 X27.8500Y1.0255
G01 X27.9071Y1.0231
G01 X27.9378Y0.9970
G01 X27.9876Y0.9577
G01 X28.0629Y0.9022
G01 X28.1120Y0.8685
G01 X28.1486Y0.8455
G01 X28.2358Y0.7938
G01 X28.2759Y0.7718
G01 X28.3198Y0.7497
G01 X28.3972Y0.7131
G01 X28.4371Y0.6956
G01 X28.4996Y0.6710
G01 X28.5883Y0.6395
G01 X28.6462Y0.6212
G01 X28.6862Y0.6104
G01 X28.7858Y0.5857
G01 X28.8567Y0.5719
G01 X28.9697Y0.5549
G01 X29.0273Y0.5485
G01 X29.0576Y0.5462
G01 X29.1511Y0.5414
G01 X29.1953Y0.5402
G01 X29.2247Y0.5402
G01 X29.2689Y0.5414
G01 X29.3473Y0.5453
G01 X29.3927Y0.5485
G01 X29.4503Y0.5549
G01 X29.5421Y0.5684
G01 X29.6054Y0.5797
G01 X29.6342Y0.5857
G01 X29.7472Y0.6139
G01 X29.8020Y0.6297
G01 X29.8317Y0.6395
G01 X29.9413Y0.6790
G01 X30.0100Y0.7072
G01 X30.1061Y0.7525
G01 X30.1441Y0.7718
G01 X30.2040Y0.8052
G01 X30.2714Y0.8455
G01 X30.3080Y0.8685
G01 X30.3325Y0.8849
G01 X30.3693Y0.9110
G01 X30.4324Y0.9577
G01 X30.4822Y0.9970
G01 X30.5047Y1.0159
G01 X30.5816Y1.0852
G01 X30.6137Y1.1155
G01 X30.6345Y1.1363
G01 X30.6648Y1.1684
G01 X30.7175Y1.2266
G01 X30.7530Y1.2678
G01 X30.7923Y1.3176
G01 X30.8390Y1.3807
G01 X30.8651Y1.4175
G01 X30.8969Y1.4663
G01 X30.9448Y1.5460
G01 X30.9782Y1.6059
G01 X31.0003Y1.6498
G01 X31.0428Y1.7400
G01 X31.0544Y1.7671
G01 X31.0790Y1.8296
G01 X31.1105Y1.9183
G01 X31.1288Y1.9762
G01 X31.1396Y2.0162
G01 X31.1643Y2.1158
G01 X31.1781Y2.1867
G01 X31.1932Y2.2855
G01 X31.2015Y2.3573
G01 X31.2047Y2.4027
G01 X31.2086Y2.4811
G01 X31.2098Y2.5253
G01 X31.2098Y2.5547
G01 X31.2086Y2.5989
G01 X31.2047Y2.6773
G01 X31.2015Y2.7227
G01 X31.1951Y2.7803
G01 X31.1816Y2.8721
G01 X31.1703Y2.9354
G01 X31.1643Y2.9642
G01 X31.1396Y3.0638
G01 X31.1203Y3.1320
G01 X31.1054Y3.1765
G01 X31.0710Y3.2713
G01 X31.0428Y3.3400
G01 X30.9918Y3.4479
G01 X30.9782Y3.4741
G01 X30.9465Y3.5310
G01 X30.9710Y3.5625
G01 X31.3509Y3.5625
G01 X31.3559Y3.5049
G01 X31.3614Y3.4624
G01 X31.3866Y3.2925
G01 X31.3979Y3.2293
G01 X31.4095Y3.1770
G01 X31.4513Y3.0104
G01 X31.4621Y2.9704
G01 X31.4706Y2.9422
G01 X31.4854Y2.8977
G01 X31.5433Y2.7360
G01 X31.5679Y2.6735
G01 X31.5884Y2.6272
G01 X31.6646Y2.4660
G01 X31.6839Y2.4281
G01 X31.7173Y2.3681
G01 X31.8056Y2.2208
G01 X31.8286Y2.1842
G01 X31.8449Y2.1597
G01 X31.8710Y2.1229
G01 X31.9733Y1.9849
G01 X32.0126Y1.9351
G01 X32.0480Y1.8939
G01 X32.1634Y1.7666
G01 X32.1937Y1.7345
G01 X32.2145Y1.7137
G01 X32.2466Y1.6834
G01 X32.3739Y1.5680
G01 X32.4151Y1.5326
G01 X32.4649Y1.4933
G01 X32.6029Y1.3910
G01 X32.6397Y1.3649
G01 X32.6642Y1.3486
G01 X32.7008Y1.3256
G01 X32.8481Y1.2373
G01 X32.9081Y1.2039
G01 X32.9460Y1.1846
G01 X33.1072Y1.1084
G01 X33.1535Y1.0879
G01 X33.2160Y1.0633
G01 X33.3777Y1.0054
G01 X33.4222Y0.9906
G01 X33.4771Y0.9748
G01 X33.6804Y0.9239
G01 X33.7093Y0.9179
G01 X33.7725Y0.9066
G01 X33.9424Y0.8814
G01 X34.0142Y0.8730
G01 X34.0596Y0.8698
G01 X34.2458Y0.8608
G01 X34.3047Y0.8601
G01 X34.3489Y0.8614
G01 X34.5204Y0.8698
G01 X34.5658Y0.8730
G01 X34.5951Y0.8759
G01 X34.6376Y0.8814
G01 X34.8075Y0.9066
G01 X34.8707Y0.9179
G01 X34.9230Y0.9295
G01 X35.0896Y0.9713
G01 X35.1578Y0.9906
G01 X35.2023Y1.0054
G01 X35.3640Y1.0633
G01 X35.4265Y1.0879
G01 X35.4728Y1.1084
G01 X35.6340Y1.1846
G01 X35.6719Y1.2039
G01 X35.7319Y1.2373
G01 X35.8792Y1.3256
G01 X35.9158Y1.3486
G01 X35.9403Y1.3649
G01 X35.9771Y1.3910
G01 X36.1151Y1.4933
G01 X36.1649Y1.5326
G01 X36.2061Y1.5680
G01 X36.3334Y1.6834
G01 X36.3655Y1.7137
G01 X36.3863Y1.7345
G01 X36.4166Y1.7666
G01 X36.5320Y1.8939
G01 X36.5674Y1.9351
G01 X36.6067Y1.9849
G01 X36.7090Y2.1229
G01 X36.7351Y2.1597
G01 X36.7514Y2.1842
G01 X36.7744Y2.2208
G01 X36.8627Y2.3681
G01 X36.8961Y2.4281
G01 X36.9154Y2.4660
G01 X36.9916Y2.6272
G01 X37.0121Y2.6735
G01 X37.0367Y2.7360
G01 X37.0946Y2.8977
G01 X37.1094Y2.9422
G01 X37.1287Y3.0104
G01 X37.1705Y3.1770
G01 X37.1821Y3.2293
G01 X37.1934Y3.2925
G01 X37.2186Y3.4624
G01 X37.2270Y3.5342
G01 X37.2302Y3.5796
G01 X37.2386Y3.7511
G01 X37.2399Y3.7953
G01 X37.2399Y3.8247
G01 X37.2386Y3.8689
G01 X37.2302Y4.0404
G01 X37.2270Y4.0858
G01 X37.2186Y4.1576
G01 X37.1934Y4.3275
G01 X37.1821Y4.3908
G01 X37.1724Y4.4352
G01 X37.1287Y4.6096
G01 X37.1094Y4.6778
G01 X37.0946Y4.7223
G01 X37.0367Y4.8840
G01 X37.0121Y4.9465
G01 X36.9916Y4.9928
G01 X36.9154Y5.1540
G01 X36.8961Y5.1919
G01 X36.8627Y5.2519
G01 X36.7744Y5.3992
G01 X36.7514Y5.4358
G01 X36.7351Y5.4603
G01 X36.7090Y5.4971
G01 X36.6067Y5.6351
G01 X36.5674Y5.6849
G01 X36.5375Y5.7199
G01 X36.4166Y5.8534
G01 X36.3863Y5.8855
G01 X36.3655Y5.9063
G01 X36.3334Y5.9366
G01 X36.1874Y6.0685
G01 X36.1649Y6.0874
G01 X36.1151Y6.1267
G01 X35.9771Y6.2290
G01 X35.9403Y6.2551
G01 X35.8915Y6.2868
G01 X35.7319Y6.3827
G01 X35.6719Y6.4161
G01 X35.6280Y6.4382
G01 X35.4664Y6.5146
G01 X35.4265Y6.5321
G01 X35.3640Y6.5567
G01 X35.2023Y6.6146
G01 X35.1578Y6.6294
G01 X35.0896Y6.6487
G01 X34.8996Y6.6961
G01 X34.8707Y6.7021
G01 X34.8075Y6.7134
G01 X34.6376Y6.7386
G01 X34.5951Y6.7441
G01 X34.5658Y6.7470
G01 X34.5204Y6.7502
G01 X34.3489Y6.7586
G01 X34.3047Y6.7599
G01 X34.2753Y6.7599
G01 X34.2311Y6.7586
G01 X34.0596Y6.7502
G01 X34.0142Y6.7470
G01 X33.9424Y6.7386
G01 X33.7514Y6.7099
G01 X33.7093Y6.7021
G01 X33.6648Y6.6924
G01 X33.4904Y6.6487
G01 X33.4504Y6.6379
G01 X33.3925Y6.6196
G01 X33.2708Y6.5763
G01 X33.2130Y6.5849
G01 X33.1554Y6.5913
G01 X33.0789Y6.5961
G01 X33.0200Y6.5975
G01 X30.9710Y6.5975
G01 X30.9619Y6.6100
G01 X30.9223Y6.6589
G01 X30.8802Y6.7057
G01 X30.8357Y6.7502
G01 X30.7889Y6.7923
G01 X30.7400Y6.8319
G01 X30.7275Y6.8410
G01 X30.7275Y13.9378
G01 X30.7530Y13.9678
G01 X30.7794Y14.0009
G01 X30.8390Y14.0807
G01 X30.8651Y14.1175
G01 X30.8969Y14.1663
G01 X30.9448Y14.2460
G01 X30.9782Y14.3060
G01 X30.9975Y14.3439
G01 X31.0339Y14.4208
G01 X31.0544Y14.4671
G01 X31.0790Y14.5296
G01 X31.1054Y14.6035
G01 X31.1203Y14.6480
G01 X31.1361Y14.7028
G01 X31.1587Y14.7924
G01 X31.1703Y14.8446
G01 X31.1816Y14.9079
G01 X31.1951Y14.9997
G01 X31.2015Y15.0573
G01 X31.2047Y15.1027
G01 X31.2086Y15.1811
G01 X31.2098Y15.2253
G01 X31.2091Y15.2842
G01 X31.2047Y15.3773
G01 X31.2015Y15.4227
G01 X31.1932Y15.4945
G01 X31.1781Y15.5933
G01 X31.1643Y15.6642
G01 X31.1396Y15.7638
G01 X31.1203Y15.8320
G01 X31.1054Y15.8765
G01 X31.0710Y15.9713
G01 X31.0428Y16.0400
G01 X31.0003Y16.1302
G01 X30.9782Y16.1740
G01 X30.9465Y16.2310
G01 X30.9619Y16.2500
G01 X30.9988Y16.3009
G01 X31.0331Y16.3537
G01 X31.0645Y16.4082
G01 X31.0930Y16.4642
G01 X31.1186Y16.5216
G01 X31.1410Y16.5802
G01 X31.1603Y16.6398
G01 X31.1765Y16.7004
G01 X31.1896Y16.7617
G01 X31.1994Y16.8237
G01 X31.2059Y16.8860
G01 X31.2092Y16.9486
G01 X31.2100Y16.9800
G01 X31.2100Y18.5800
G01 X31.2092Y18.6114
G01 X31.2059Y18.6740
G01 X31.1994Y18.7363
G01 X31.1896Y18.7983
G01 X31.1765Y18.8596
G01 X31.1603Y18.9202
G01 X31.1410Y18.9798
G01 X31.1186Y19.0384
G01 X31.0930Y19.0958
G01 X31.0645Y19.1518
G01 X31.0331Y19.2063
G01 X30.9988Y19.2591
G01 X30.9619Y19.3100
G01 X30.9223Y19.3589
G01 X30.8802Y19.4057
G01 X30.8357Y19.4502
G01 X30.7890Y19.4923
G01 X30.7400Y19.5319
G01 X30.6891Y19.5688
G01 X30.6364Y19.6031
G01 X30.5819Y19.6345
G01 X30.5258Y19.6630
G01 X30.4684Y19.6886
G01 X30.4098Y19.7110
G01 X30.3502Y19.7303
G01 X30.2896Y19.7465
G01 X30.2283Y19.7596
G01 X30.1663Y19.7694
G01 X30.1040Y19.7759
G01 X30.0414Y19.7792
G01 X30.0100Y19.7800
G01 X28.4100Y19.7800
G01 X28.3786Y19.7792
G01 X28.3160Y19.7759
G01 X28.2537Y19.7694
G01 X28.1917Y19.7596
G01 X28.1304Y19.7466
G01 X28.0698Y19.7303
G01 X28.0102Y19.7110
G01 X27.9516Y19.6886
G01 X27.8942Y19.6631
G01 X27.8382Y19.6345
G01 X27.7837Y19.6031
G01 X27.7309Y19.5688
G01 X27.6800Y19.5319
G01 X27.6311Y19.4923
G01 X27.5843Y19.4502
G01 X27.5398Y19.4057
G01 X27.4977Y19.3590
G01 X27.4581Y19.3101
G01 X27.4212Y19.2591
G01 X27.3869Y19.2064
G01 X27.3767Y19.1886
G01 X27.3247Y19.1670
G01 X27.2596Y19.1362
G01 X27.2334Y19.1227
G01 X27.1734Y19.0893
G01 X27.1344Y19.0657
G01 X27.0856Y19.0340
G01 X27.0488Y19.0078
G01 X27.0070Y18.9764
G01 X26.9514Y18.9311
G01 X26.9096Y18.8936
G01 X26.8775Y18.8633
G01 X26.6000Y18.5861
G01 X26.5998Y19.8597
G01 X26.5981Y19.9137
G01 X26.5949Y19.9591
G01 X26.5885Y20.0167
G01 X26.5816Y20.0617
G01 X26.5738Y20.1038
G01 X26.5640Y20.1483
G01 X26.5489Y20.2056
G01 X26.5404Y20.2338
G01 X26.5222Y20.2875
G01 X26.4977Y20.3500
G01 X26.4861Y20.3771
G01 X26.4644Y20.4229
G01 X26.4289Y20.4892
G01 X26.4124Y20.5175
G01 X26.3895Y20.5541
G01 X26.3558Y20.6032
G01 X26.3283Y20.6400
G01 X26.3019Y20.6731
G01 X26.2720Y20.7081
G01 X26.2378Y20.7450
G01 X27.1760Y20.1450
G01 X27.5223Y20.1450
G01 X27.4839Y20.1229
G01 X27.4571Y20.1064
G01 X27.4043Y20.0722
G01 X27.3784Y20.0544
G01 X27.3274Y20.0174
G01 X27.3025Y19.9982
G01 X27.2536Y19.9587
G01 X27.1987Y19.9104
G01 X27.1960Y19.9658
G01 X27.1919Y20.0183
G01 X27.1839Y20.0906
G01 X27.1760Y20.1450
G01 X30.8977Y20.1450
G01 X37.5858Y20.1450
G01 X37.6494Y20.1419
G01 X37.6686Y20.1390
G01 X37.6874Y20.1343
G01 X37.7057Y20.1278
G01 X37.7233Y20.1195
G01 X37.7399Y20.1095
G01 X37.7555Y20.0979
G01 X37.7699Y20.0849
G01 X37.7829Y20.0705
G01 X37.7945Y20.0549
G01 X37.8045Y20.0383
G01 X37.8128Y20.0207
G01 X37.8193Y20.0024
G01 X37.8240Y19.9836
G01 X37.8269Y19.9644
G01 X37.8300Y19.9008
G01 X37.8300Y16.7590
G01 X37.8241Y16.8451
G01 X37.8151Y16.9244
G01 X37.7870Y17.1155
G01 X37.7721Y17.1999
G01 X37.7553Y17.2771
G01 X37.7090Y17.4621
G01 X37.6923Y17.5229
G01 X37.6671Y17.6022
G01 X37.6016Y17.7861
G01 X37.5691Y17.8695
G01 X37.5385Y17.9397
G01 X37.4564Y18.1134
G01 X37.4221Y18.1805
G01 X37.3831Y18.2505
G01 X37.2890Y18.4077
G01 X37.2505Y18.4689
G01 X37.2258Y18.5056
G01 X37.1953Y18.5485
G01 X37.0822Y18.7009
G01 X37.0364Y18.7591
G01 X36.9876Y18.8166
G01 X36.8612Y18.9563
G01 X36.8106Y19.0097
G01 X36.7792Y19.0408
G01 X36.7417Y19.0762
G01 X36.6059Y19.1993
G01 X36.5505Y19.2471
G01 X36.4809Y19.3022
G01 X36.3345Y19.4109
G01 X36.2734Y19.4541
G01 X36.2366Y19.4785
G01 X36.1938Y19.5053
G01 X36.0404Y19.5973
G01 X35.9605Y19.6421
G01 X35.9082Y19.6692
G01 X35.7197Y19.7585
G01 X35.6495Y19.7891
G01 X35.5661Y19.8216
G01 X35.3748Y19.8896
G01 X35.3310Y19.9038
G01 X35.2621Y19.9237
G01 X35.0649Y19.9735
G01 X34.9944Y19.9893
G01 X34.9378Y19.9999
G01 X34.8955Y20.0070
G01 X34.7044Y20.0351
G01 X34.6544Y20.0412
G01 X34.6104Y20.0453
G01 X34.5499Y20.0495
G01 X34.3783Y20.0579
G01 X34.3194Y20.0597
G01 X34.2753Y20.0599
G01 X34.2090Y20.0582
G01 X34.0301Y20.0495
G01 X33.9549Y20.0441
G01 X33.9110Y20.0395
G01 X33.8614Y20.0332
G01 X33.6739Y20.0053
G01 X33.5856Y19.9893
G01 X33.5112Y19.9725
G01 X33.3179Y19.9237
G01 X33.2490Y19.9038
G01 X33.1978Y19.8871
G01 X33.0034Y19.8178
G01 X32.9169Y19.7835
G01 X32.8507Y19.7540
G01 X32.6866Y19.6763
G01 X32.6325Y19.6491
G01 X32.5794Y19.6201
G01 X32.5396Y19.5973
G01 X32.3923Y19.5090
G01 X32.3434Y19.4785
G01 X32.3066Y19.4541
G01 X32.2637Y19.4241
G01 X32.1075Y19.3086
G01 X32.0409Y19.2564
G01 X31.9802Y19.2048
G01 X31.8275Y19.0662
G01 X31.7903Y19.0305
G01 X31.7597Y18.9998
G01 X31.7400Y19.0752
G01 X31.7311Y19.1053
G01 X31.7117Y19.1649
G01 X31.7013Y19.1945
G01 X31.6788Y19.2531
G01 X31.6668Y19.2821
G01 X31.6413Y19.3395
G01 X31.6278Y19.3679
G01 X31.5993Y19.4239
G01 X31.5843Y19.4516
G01 X31.5528Y19.5061
G01 X31.5364Y19.5329
G01 X31.5022Y19.5857
G01 X31.4844Y19.6117
G01 X31.4474Y19.6626
G01 X31.4282Y19.6875
G01 X31.3887Y19.7364
G01 X31.3682Y19.7604
G01 X31.3261Y19.8071
G01 X31.3045Y19.8300
G01 X31.2600Y19.8744
G01 X31.2372Y19.8961
G01 X31.1904Y19.9382
G01 X31.1665Y19.9586
G01 X31.1176Y19.9982
G01 X31.0926Y20.0174
G01 X31.0417Y20.0543
G01 X31.0157Y20.0721
G01 X30.9630Y20.1064
G01 X30.8977Y20.1450
G01 X31.5935Y14.2021
G01 X31.7188Y14.0637
G01 X31.7695Y14.0103
G01 X31.8008Y13.9792
G01 X31.8383Y13.9438
G01 X31.9710Y13.8235
G01 X32.0295Y13.7729
G01 X32.0823Y13.7307
G01 X32.2637Y13.5959
G01 X32.3311Y13.5495
G01 X32.3862Y13.5147
G01 X32.5396Y13.4227
G01 X32.6195Y13.3779
G01 X32.6836Y13.3451
G01 X32.8603Y13.2615
G01 X32.9169Y13.2365
G01 X32.9720Y13.2142
G01 X33.0139Y13.1984
G01 X33.2052Y13.1304
G01 X33.2771Y13.1077
G01 X33.3446Y13.0892
G01 X33.5229Y13.0446
G01 X33.6001Y13.0279
G01 X33.6422Y13.0201
G01 X33.6528Y13.0182
G01 X33.6845Y13.0130
G01 X33.8756Y12.9849
G01 X33.9549Y12.9759
G01 X34.0226Y12.9710
G01 X34.2090Y12.9618
G01 X34.2606Y12.9603
G01 X34.3047Y12.9601
G01 X34.3783Y12.9621
G01 X34.5726Y12.9719
G01 X34.6544Y12.9788
G01 X34.7125Y12.9860
G01 X34.7125Y11.6677
G01 X34.6758Y11.6156
G01 X34.6322Y11.5483
G01 X34.5748Y11.4526
G01 X34.5358Y11.3827
G01 X34.5030Y11.3185
G01 X34.4519Y11.2101
G01 X34.4286Y11.1560
G01 X34.4000Y11.0831
G01 X34.3620Y10.9765
G01 X34.3368Y10.8971
G01 X34.3201Y10.8363
G01 X34.2918Y10.7222
G01 X34.2797Y10.6646
G01 X34.2649Y10.5802
G01 X34.2504Y10.4813
G01 X34.2414Y10.4020
G01 X34.2364Y10.3343
G01 X34.2322Y10.2483
G01 X34.2304Y10.1894
G01 X34.2302Y10.1453
G01 X34.2319Y10.0790
G01 X34.2364Y9.9857
G01 X34.2401Y9.9327
G01 X34.2460Y9.8741
G01 X34.2523Y9.8245
G01 X34.2665Y9.7292
G01 X34.2797Y9.6554
G01 X34.2886Y9.6122
G01 X34.3184Y9.4904
G01 X34.3327Y9.4371
G01 X34.3497Y9.3807
G01 X34.3671Y9.3288
G01 X34.4079Y9.2160
G01 X34.4286Y9.1640
G01 X34.4519Y9.1099
G01 X34.5153Y8.9765
G01 X34.5358Y8.9373
G01 X34.5806Y8.8575
G01 X34.6322Y8.7717
G01 X34.6758Y8.7044
G01 X34.7146Y8.6494
G01 X34.7658Y8.5802
G01 X34.8180Y8.5136
G01 X34.8462Y8.4797
G01 X34.9306Y8.3855
G01 X34.9710Y8.3426
G01 X35.0126Y8.3009
G01 X35.0555Y8.2606
G01 X35.1385Y8.1858
G01 X35.1836Y8.1480
G01 X35.2250Y8.1151
G01 X35.3377Y8.0314
G01 X35.3744Y8.0058
G01 X35.4356Y7.9660
G01 X35.5572Y7.8934
G01 X35.6073Y7.8657
G01 X35.6597Y7.8387
G01 X35.7799Y7.7819
G01 X35.8340Y7.7586
G01 X35.9069Y7.7300
G01 X35.9988Y7.6971
G01 X36.0507Y7.6797
G01 X36.0929Y7.6668
G01 X36.1404Y7.6536
G01 X36.2405Y7.6284
G01 X36.2822Y7.6186
G01 X36.3254Y7.6097
G01 X36.3992Y7.5965
G01 X36.4945Y7.5823
G01 X36.5587Y7.5743
G01 X36.6027Y7.5701
G01 X36.6633Y7.5660
G01 X36.7490Y7.5619
G01 X36.8153Y7.5602
G01 X36.8594Y7.5604
G01 X36.9183Y7.5622
G01 X37.0043Y7.5664
G01 X37.0720Y7.5714
G01 X37.1159Y7.5760
G01 X37.1725Y7.5833
G01 X37.2608Y7.5965
G01 X37.3346Y7.6097
G01 X37.3922Y7.6218
G01 X37.4996Y7.6484
G01 X37.5529Y7.6627
G01 X37.5953Y7.6753
G01 X37.6612Y7.6971
G01 X37.7425Y7.7261
G01 X37.8300Y7.7603
G01 X37.8300Y4.0590
G01 X37.8241Y4.1451
G01 X37.8151Y4.2244
G01 X37.7870Y4.4155
G01 X37.7721Y4.4999
G01 X37.7554Y4.5771
G01 X37.7090Y4.7621
G01 X37.6923Y4.8228
G01 X37.6671Y4.9022
G01 X37.6016Y5.0861
G01 X37.5691Y5.1695
G01 X37.5385Y5.2397
G01 X37.4563Y5.4134
G01 X37.4221Y5.4805
G01 X37.3831Y5.5505
G01 X37.2890Y5.7077
G01 X37.2505Y5.7689
G01 X37.2258Y5.8056
G01 X37.1953Y5.8485
G01 X37.0822Y6.0009
G01 X37.0364Y6.0591
G01 X36.9876Y6.1166
G01 X36.8612Y6.2563
G01 X36.8106Y6.3097
G01 X36.7792Y6.3408
G01 X36.7417Y6.3762
G01 X36.5998Y6.5048
G01 X36.5505Y6.5471
G01 X36.4809Y6.6022
G01 X36.3345Y6.7109
G01 X36.2734Y6.7541
G01 X36.2366Y6.7785
G01 X36.1938Y6.8053
G01 X36.0305Y6.9031
G01 X35.9605Y6.9421
G01 X35.8934Y6.9763
G01 X35.7037Y7.0659
G01 X35.6495Y7.0891
G01 X35.5976Y7.1098
G01 X35.5661Y7.1216
G01 X35.3748Y7.1896
G01 X35.3029Y7.2123
G01 X35.2354Y7.2308
G01 X35.0571Y7.2754
G01 X34.9944Y7.2893
G01 X34.9061Y7.3053
G01 X34.7257Y7.3322
G01 X34.6544Y7.3412
G01 X34.5801Y7.3476
G01 X34.3783Y7.3579
G01 X34.3194Y7.3597
G01 X34.2606Y7.3597
G01 X34.2017Y7.3579
G01 X34.0301Y7.3495
G01 X33.9549Y7.3441
G01 X33.9110Y7.3395
G01 X33.8543Y7.3322
G01 X33.6739Y7.3053
G01 X33.6001Y7.2921
G01 X33.5568Y7.2832
G01 X33.5112Y7.2725
G01 X33.3246Y7.2255
G01 X33.2771Y7.2123
G01 X33.2042Y7.1893
G01 X33.1083Y7.1953
G01 X33.0200Y7.1975
G01 X31.3275Y7.1975
G01 X31.3275Y13.7323
G01 X31.3559Y13.7723
G01 X31.3886Y13.8213
G01 X31.4191Y13.8702
G01 X31.4766Y13.9672
G01 X31.5043Y14.0174
G01 X31.5313Y14.0697
G01 X31.5935Y14.2021
G01 X31.9275Y13.0987
G01 X31.9980Y13.0505
G01 X32.0501Y13.0171
G01 X32.2312Y12.9080
G01 X32.2758Y12.8822
G01 X32.3309Y12.8518
G01 X32.4028Y12.8145
G01 X32.6086Y12.7168
G01 X32.6464Y12.6997
G01 X32.7006Y12.6767
G01 X32.7542Y12.6552
G01 X32.8065Y12.6354
G01 X33.0141Y12.5616
G01 X33.0476Y12.5506
G01 X33.0546Y12.5483
G01 X33.0686Y12.5439
G01 X33.1109Y12.5311
G01 X33.1988Y12.5072
G01 X33.4045Y12.4561
G01 X33.4692Y12.4421
G01 X33.5383Y12.4292
G01 X33.5964Y12.4195
G01 X33.7663Y12.3943
G01 X33.8590Y12.3826
G01 X33.9177Y12.3769
G01 X33.9666Y12.3733
G01 X34.1125Y12.3658
G01 X34.1125Y11.8486
G01 X34.0630Y11.7660
G01 X34.0401Y11.7264
G01 X34.0062Y11.6648
G01 X33.9790Y11.6126
G01 X33.9556Y11.5647
G01 X33.9034Y11.4535
G01 X33.8800Y11.3994
G01 X33.8529Y11.3323
G01 X33.8331Y11.2799
G01 X33.7996Y11.1860
G01 X33.7775Y11.1196
G01 X33.7603Y11.0633
G01 X33.7398Y10.9888
G01 X33.7154Y10.8914
G01 X33.7030Y10.8386
G01 X33.6897Y10.7737
G01 X33.6738Y10.6841
G01 X33.6540Y10.5481
G01 X33.6437Y10.4539
G01 X33.6367Y10.3562
G01 X33.6313Y10.2336
G01 X33.6302Y10.1821
G01 X33.6304Y10.1232
G01 X33.6323Y10.0570
G01 X33.6367Y9.9638
G01 X33.6437Y9.8661
G01 X33.6497Y9.8075
G01 X33.6578Y9.7436
G01 X33.6722Y9.6465
G01 X33.6810Y9.5937
G01 X33.6939Y9.5246
G01 X33.7063Y9.4670
G01 X33.7398Y9.3312
G01 X33.7562Y9.2708
G01 X33.7709Y9.2214
G01 X33.8034Y9.1229
G01 X33.8331Y9.0401
G01 X33.8529Y8.9877
G01 X33.8800Y8.9206
G01 X33.9065Y8.8598
G01 X33.9724Y8.7206
G01 X33.9993Y8.6682
G01 X34.0317Y8.6086
G01 X34.0630Y8.5540
G01 X34.1119Y8.4725
G01 X34.1483Y8.4143
G01 X34.1767Y8.3713
G01 X34.2194Y8.3102
G01 X34.2839Y8.2228
G01 X34.3489Y8.1395
G01 X34.3865Y8.0941
G01 X34.4167Y8.0593
G01 X34.5145Y7.9519
G01 X34.3673Y7.9587
G01 X34.3121Y7.9598
G01 X34.2458Y7.9595
G01 X34.1759Y7.9573
G01 X33.9856Y7.9479
G01 X33.9177Y7.9431
G01 X33.8444Y7.9358
G01 X33.7698Y7.9262
G01 X33.5911Y7.8996
G01 X33.5383Y7.8908
G01 X33.4692Y7.8779
G01 X33.4116Y7.8655
G01 X33.3713Y7.8560
G01 X33.1955Y7.8119
G01 X33.1319Y7.7949
G01 X33.0200Y7.7975
G01 X31.9275Y7.7975
G01 X31.9275Y13.0987
G01 X32.5275Y12.0996
G01 X32.6017Y12.0714
G01 X32.7879Y12.0048
G01 X32.8707Y11.9772
G01 X32.9447Y11.9546
G01 X33.0397Y11.9286
G01 X33.2469Y11.8768
G01 X33.3384Y11.8565
G01 X33.4224Y11.8404
G01 X33.3611Y11.7103
G01 X33.3258Y11.6293
G01 X33.2858Y11.5293
G01 X33.2379Y11.3974
G01 X33.2063Y11.3035
G01 X33.1787Y11.2118
G01 X33.1561Y11.1279
G01 X33.1232Y10.9946
G01 X33.1025Y10.8974
G01 X33.0828Y10.7880
G01 X33.0635Y10.6592
G01 X33.0517Y10.5644
G01 X33.0437Y10.4801
G01 X33.0376Y10.3875
G01 X33.0316Y10.2557
G01 X33.0305Y10.2042
G01 X33.0302Y10.1453
G01 X33.0321Y10.0496
G01 X33.0384Y9.9173
G01 X33.0446Y9.8289
G01 X33.0534Y9.7410
G01 X33.0653Y9.6485
G01 X33.0864Y9.5109
G01 X33.1053Y9.4082
G01 X33.1240Y9.3218
G01 X33.1561Y9.1921
G01 X33.1797Y9.1046
G01 X33.2063Y9.0165
G01 X33.2392Y8.9189
G01 X33.2858Y8.7907
G01 X33.3258Y8.6907
G01 X33.3611Y8.6097
G01 X33.4224Y8.4796
G01 X33.3492Y8.4657
G01 X33.2772Y8.4503
G01 X33.0623Y8.3971
G01 X32.5275Y8.3975
G01 X32.5275Y12.0996
G01 X35.1707Y14.3318
G01 X35.9125Y13.5900
G01 X35.9125Y11.2166
G01 X35.8614Y11.1703
G01 X35.8401Y11.1500
G01 X35.8197Y11.1286
G01 X35.7670Y11.0705
G01 X35.7560Y11.0580
G01 X35.7297Y11.0249
G01 X35.6829Y10.9619
G01 X35.6656Y10.9373
G01 X35.6502Y10.9129
G01 X35.6098Y10.8456
G01 X35.5878Y10.8054
G01 X35.5426Y10.7098
G01 X35.5260Y10.6683
G01 X35.4995Y10.5944
G01 X35.4898Y10.5646
G01 X35.4824Y10.5380
G01 X35.4597Y10.4462
G01 X35.4519Y10.4041
G01 X35.4403Y10.3265
G01 X35.4368Y10.2981
G01 X35.4346Y10.2679
G01 X35.4307Y10.1894
G01 X35.4300Y10.1600
G01 X35.4307Y10.1306
G01 X35.4346Y10.0521
G01 X35.4368Y10.0219
G01 X35.4519Y9.9159
G01 X35.4597Y9.8738
G01 X35.4824Y9.7820
G01 X35.4898Y9.7554
G01 X35.4995Y9.7256
G01 X35.5260Y9.6517
G01 X35.5426Y9.6102
G01 X35.5878Y9.5146
G01 X35.6098Y9.4744
G01 X35.6502Y9.4071
G01 X35.6656Y9.3827
G01 X35.6829Y9.3581
G01 X35.7297Y9.2951
G01 X35.7560Y9.2620
G01 X35.8197Y9.1914
G01 X35.8401Y9.1700
G01 X35.8614Y9.1497
G01 X35.9320Y9.0860
G01 X35.9651Y9.0597
G01 X36.0281Y9.0129
G01 X36.0527Y8.9956
G01 X36.0771Y8.9802
G01 X36.1444Y8.9398
G01 X36.1846Y8.9178
G01 X36.2802Y8.8726
G01 X36.3217Y8.8560
G01 X36.3956Y8.8295
G01 X36.4254Y8.8198
G01 X36.4520Y8.8124
G01 X36.5438Y8.7897
G01 X36.5859Y8.7819
G01 X36.6919Y8.7668
G01 X36.7221Y8.7646
G01 X36.8006Y8.7607
G01 X36.8300Y8.7600
G01 X36.8594Y8.7607
G01 X36.9379Y8.7646
G01 X36.9681Y8.7668
G01 X37.0741Y8.7819
G01 X37.1162Y8.7897
G01 X37.2080Y8.8124
G01 X37.2346Y8.8198
G01 X37.2644Y8.8295
G01 X37.3383Y8.8560
G01 X37.3798Y8.8726
G01 X37.3927Y8.8785
G01 X37.4754Y8.9178
G01 X37.5156Y8.9398
G01 X37.5829Y8.9802
G01 X37.6073Y8.9956
G01 X37.6319Y9.0129
G01 X37.6949Y9.0597
G01 X37.7280Y9.0860
G01 X37.7986Y9.1497
G01 X37.8199Y9.1701
G01 X37.8403Y9.1914
G01 X37.9040Y9.2620
G01 X37.9303Y9.2951
G01 X37.9771Y9.3581
G01 X37.9944Y9.3827
G01 X38.0098Y9.4071
G01 X38.0502Y9.4744
G01 X38.0722Y9.5146
G01 X38.1174Y9.6102
G01 X38.1340Y9.6517
G01 X38.1605Y9.7256
G01 X38.1702Y9.7554
G01 X38.1776Y9.7820
G01 X38.2003Y9.8738
G01 X38.2081Y9.9159
G01 X38.2197Y9.9935
G01 X38.2232Y10.0219
G01 X38.2254Y10.0521
G01 X38.2293Y10.1306
G01 X38.2300Y10.1600
G01 X38.2293Y10.1894
G01 X38.2254Y10.2679
G01 X38.2232Y10.2981
G01 X38.2197Y10.3265
G01 X38.2081Y10.4041
G01 X38.2003Y10.4462
G01 X38.1776Y10.5380
G01 X38.1702Y10.5646
G01 X38.1605Y10.5944
G01 X38.1340Y10.6683
G01 X38.1174Y10.7098
G01 X38.0722Y10.8054
G01 X38.0502Y10.8456
G01 X38.0098Y10.9129
G01 X37.9944Y10.9373
G01 X37.9771Y10.9619
G01 X37.9303Y11.0249
G01 X37.9040Y11.0580
G01 X37.8930Y11.0705
G01 X37.8403Y11.1286
G01 X37.8199Y11.1499
G01 X37.7986Y11.1703
G01 X37.7475Y11.2166
G01 X37.7475Y13.9700
G01 X37.7452Y14.0306
G01 X37.7430Y14.0608
G01 X37.7349Y14.1200
G01 X37.7271Y14.1621
G01 X37.7085Y14.2346
G01 X37.6988Y14.2643
G01 X37.6883Y14.2936
G01 X37.6716Y14.3352
G01 X37.6467Y14.3880
G01 X37.6246Y14.4281
G01 X37.5932Y14.4792
G01 X37.5574Y14.5288
G01 X37.5310Y14.5619
G01 X37.4991Y14.5974
G01 X37.4986Y14.5970
G01 X37.4788Y14.6188
G01 X36.4682Y15.6293
G01 X36.5296Y15.7999
G01 X36.5394Y15.8296
G01 X36.5467Y15.8562
G01 X36.5885Y16.0228
G01 X36.5921Y16.0384
G01 X36.5999Y16.0805
G01 X36.6251Y16.2504
G01 X36.6287Y16.2788
G01 X36.6309Y16.3090
G01 X36.6393Y16.4806
G01 X36.6401Y16.5100
G01 X36.6393Y16.5394
G01 X36.6309Y16.7110
G01 X36.6287Y16.7412
G01 X36.6251Y16.7696
G01 X36.5999Y16.9395
G01 X36.5921Y16.9816
G01 X36.5467Y17.1638
G01 X36.5394Y17.1904
G01 X36.5296Y17.2201
G01 X36.4718Y17.3819
G01 X36.4551Y17.4234
G01 X36.3701Y17.6033
G01 X36.3481Y17.6434
G01 X36.2598Y17.7907
G01 X36.2444Y17.8151
G01 X36.2270Y17.8397
G01 X36.1247Y17.9776
G01 X36.0984Y18.0107
G01 X35.9720Y18.1504
G01 X35.9517Y18.1717
G01 X35.9304Y18.1920
G01 X35.8032Y18.3074
G01 X35.7907Y18.3184
G01 X35.7576Y18.3447
G01 X35.6197Y18.4470
G01 X35.5951Y18.4644
G01 X35.5707Y18.4798
G01 X35.4234Y18.5681
G01 X35.3833Y18.5901
G01 X35.2163Y18.6692
G01 X35.2034Y18.6751
G01 X35.1619Y18.6918
G01 X35.0001Y18.7496
G01 X34.9704Y18.7594
G01 X34.9438Y18.7667
G01 X34.7616Y18.8121
G01 X34.7195Y18.8199
G01 X34.5496Y18.8451
G01 X34.5212Y18.8487
G01 X34.4910Y18.8509
G01 X34.3194Y18.8593
G01 X34.2900Y18.8601
G01 X34.2606Y18.8593
G01 X34.0890Y18.8509
G01 X34.0588Y18.8487
G01 X34.0304Y18.8451
G01 X33.8605Y18.8199
G01 X33.8184Y18.8121
G01 X33.6362Y18.7667
G01 X33.6096Y18.7594
G01 X33.5799Y18.7496
G01 X33.4181Y18.6918
G01 X33.3766Y18.6751
G01 X33.1967Y18.5901
G01 X33.1566Y18.5681
G01 X33.0093Y18.4798
G01 X32.9849Y18.4644
G01 X32.9603Y18.4470
G01 X32.8224Y18.3447
G01 X32.7893Y18.3184
G01 X32.6496Y18.1920
G01 X32.6283Y18.1717
G01 X32.6080Y18.1504
G01 X32.4816Y18.0107
G01 X32.4553Y17.9776
G01 X32.3530Y17.8397
G01 X32.3357Y17.8151
G01 X32.3202Y17.7907
G01 X32.2319Y17.6434
G01 X32.2099Y17.6033
G01 X32.1249Y17.4234
G01 X32.1082Y17.3819
G01 X32.0504Y17.2201
G01 X32.0406Y17.1904
G01 X32.0333Y17.1638
G01 X31.9879Y16.9816
G01 X31.9801Y16.9395
G01 X31.9549Y16.7696
G01 X31.9513Y16.7412
G01 X31.9491Y16.7110
G01 X31.9407Y16.5394
G01 X31.9399Y16.5100
G01 X31.9407Y16.4806
G01 X31.9491Y16.3090
G01 X31.9513Y16.2788
G01 X31.9549Y16.2504
G01 X31.9801Y16.0805
G01 X31.9879Y16.0384
G01 X32.0333Y15.8562
G01 X32.0406Y15.8296
G01 X32.0504Y15.7999
G01 X32.1082Y15.6381
G01 X32.1249Y15.5966
G01 X32.2099Y15.4167
G01 X32.2319Y15.3766
G01 X32.3202Y15.2293
G01 X32.3356Y15.2049
G01 X32.3530Y15.1803
G01 X32.4553Y15.0424
G01 X32.4816Y15.0093
G01 X32.6080Y14.8696
G01 X32.6283Y14.8483
G01 X32.6496Y14.8280
G01 X32.7893Y14.7016
G01 X32.8224Y14.6753
G01 X32.9603Y14.5730
G01 X32.9849Y14.5556
G01 X33.0093Y14.5402
G01 X33.1566Y14.4519
G01 X33.1967Y14.4299
G01 X33.3766Y14.3449
G01 X33.4181Y14.3282
G01 X33.5799Y14.2704
G01 X33.6096Y14.2606
G01 X33.6362Y14.2533
G01 X33.8184Y14.2079
G01 X33.8605Y14.2001
G01 X34.0304Y14.1749
G01 X34.0588Y14.1713
G01 X34.0890Y14.1691
G01 X34.2606Y14.1607
G01 X34.2900Y14.1599
G01 X34.3194Y14.1607
G01 X34.4910Y14.1691
G01 X34.5212Y14.1713
G01 X34.5496Y14.1749
G01 X34.7195Y14.2001
G01 X34.7616Y14.2079
G01 X34.9438Y14.2533
G01 X34.9704Y14.2606
G01 X35.0001Y14.2704
G01 X35.1707Y14.3318
G00 Z2.0000
G00 X37.8300Y16.2610
G01 Z-0.2000
G01 X37.8300Y15.9646
G01 X37.8003Y15.9943
G01 X37.8132Y16.0814
G01 X37.8212Y16.1456
G01 X37.8253Y16.1896
G01 X37.8300Y16.2610
G01 X37.1180Y19.5450
G01 X37.2300Y19.5450
G01 X37.2300Y19.4388
G01 X37.1716Y19.4957
G01 X37.1180Y19.5450
G00 Z2.0000
G00 X36.9854Y6.9647
G01 Z-0.2000
G01 X37.0565Y6.9685
G01 X37.1092Y6.9724
G01 X37.1678Y6.9780
G01 X37.2268Y6.9852
G01 X37.2271Y6.7417
G01 X37.1929Y6.7754
G01 X37.1474Y6.8183
G01 X36.9854Y6.9647
G01 X37.8300Y3.5610
G01 X37.8300Y0.4192
G01 X37.8269Y0.3556
G01 X37.8240Y0.3364
G01 X37.8193Y0.3176
G01 X37.8128Y0.2993
G01 X37.8045Y0.2817
G01 X37.7945Y0.2651
G01 X37.7829Y0.2495
G01 X37.7699Y0.2351
G01 X37.7555Y0.2221
G01 X37.7399Y0.2105
G01 X37.7233Y0.2005
G01 X37.7057Y0.1922
G01 X37.6874Y0.1857
G01 X37.6686Y0.1810
G01 X37.6494Y0.1781
G01 X37.5858Y0.1750
G01 X30.2885Y0.1750
G01 X30.3935Y0.2253
G01 X30.4327Y0.2457
G01 X30.4828Y0.2734
G01 X30.5125Y0.2906
G01 X30.5798Y0.3309
G01 X30.5860Y0.3347
G01 X30.5983Y0.3422
G01 X30.6411Y0.3695
G01 X30.6777Y0.3941
G01 X30.7206Y0.4246
G01 X30.7898Y0.4758
G01 X30.8233Y0.5016
G01 X30.8677Y0.5373
G01 X30.9139Y0.5768
G01 X30.9845Y0.6406
G01 X31.0274Y0.6810
G01 X31.0588Y0.7121
G01 X31.1044Y0.7601
G01 X31.1621Y0.8237
G01 X31.2127Y0.8823
G01 X31.2484Y0.9267
G01 X31.2742Y0.9602
G01 X31.3254Y1.0294
G01 X31.3642Y1.0844
G01 X31.3886Y1.1213
G01 X31.4153Y1.1640
G01 X31.4594Y1.2375
G01 X31.4822Y1.2772
G01 X31.5112Y1.3303
G01 X31.5313Y1.3697
G01 X31.5935Y1.5021
G01 X31.7238Y1.3583
G01 X31.7592Y1.3208
G01 X31.7903Y1.2894
G01 X31.8383Y1.2438
G01 X31.9710Y1.1235
G01 X32.0295Y1.0729
G01 X32.0740Y1.0372
G01 X32.1075Y1.0114
G01 X32.2455Y0.9091
G01 X32.2944Y0.8742
G01 X32.3311Y0.8495
G01 X32.3739Y0.8223
G01 X32.5396Y0.7227
G01 X32.6195Y0.6779
G01 X32.6866Y0.6437
G01 X32.8763Y0.5541
G01 X32.9305Y0.5309
G01 X32.9824Y0.5102
G01 X33.0034Y0.5022
G01 X33.0139Y0.4984
G01 X33.1756Y0.4405
G01 X33.2490Y0.4162
G01 X33.2913Y0.4036
G01 X33.3379Y0.3910
G01 X33.5425Y0.3400
G01 X33.6001Y0.3279
G01 X33.6528Y0.3182
G01 X33.8543Y0.2878
G01 X33.9256Y0.2788
G01 X33.9696Y0.2747
G01 X34.0226Y0.2710
G01 X34.2090Y0.2618
G01 X34.2606Y0.2603
G01 X34.3047Y0.2601
G01 X34.3710Y0.2618
G01 X34.5499Y0.2705
G01 X34.6251Y0.2759
G01 X34.6690Y0.2805
G01 X34.7257Y0.2878
G01 X34.8955Y0.3130
G01 X34.9799Y0.3279
G01 X35.0571Y0.3446
G01 X35.2421Y0.3910
G01 X35.2887Y0.4036
G01 X35.3311Y0.4162
G01 X35.4044Y0.4405
G01 X35.5976Y0.5102
G01 X35.6495Y0.5309
G01 X35.7037Y0.5541
G01 X35.8875Y0.6408
G01 X35.9475Y0.6709
G01 X36.0006Y0.6999
G01 X36.0106Y0.7055
G01 X36.0305Y0.7169
G01 X36.1938Y0.8147
G01 X36.2366Y0.8415
G01 X36.2734Y0.8659
G01 X36.3285Y0.9047
G01 X36.4809Y1.0178
G01 X36.5505Y1.0729
G01 X36.6059Y1.1207
G01 X36.7525Y1.2538
G01 X36.8106Y1.3103
G01 X36.8562Y1.3583
G01 X36.9848Y1.5002
G01 X37.0364Y1.5609
G01 X37.0886Y1.6275
G01 X37.2085Y1.7898
G01 X37.2341Y1.8266
G01 X37.2739Y1.8878
G01 X37.3773Y2.0596
G01 X37.4221Y2.1395
G01 X37.4492Y2.1918
G01 X37.4606Y2.2154
G01 X37.5340Y2.3707
G01 X37.5355Y2.3739
G01 X37.5635Y2.4369
G01 X37.5978Y2.5234
G01 X37.6595Y2.6956
G01 X37.6838Y2.7690
G01 X37.7055Y2.8446
G01 X37.7554Y3.0429
G01 X37.7721Y3.1201
G01 X37.7870Y3.2045
G01 X37.8151Y3.3956
G01 X37.8241Y3.4749
G01 X37.8300Y3.5610
G01 X37.1180Y0.7750
G01 X37.1716Y0.8243
G01 X37.2300Y0.8812
G01 X37.2300Y0.7750
G01 X37.1180Y0.7750
G01 X28.1315Y0.1750
G01 X27.1760Y0.1750
G01 X27.1874Y0.2577
G01 X27.1919Y0.3017
G01 X27.1960Y0.3542
G01 X27.1981Y0.3940
G01 X27.1996Y0.4456
G01 X27.2000Y0.5564
G01 X27.2636Y0.5337
G01 X27.3148Y0.5170
G01 X27.3838Y0.4971
G01 X27.4446Y0.4816
G01 X27.5151Y0.4658
G01 X27.5717Y0.4551
G01 X27.6139Y0.4481
G01 X27.6802Y0.4388
G01 X27.7423Y0.3941
G01 X27.7913Y0.3614
G01 X27.8340Y0.3347
G01 X27.9174Y0.2848
G01 X27.9873Y0.2457
G01 X28.0265Y0.2253
G01 X28.1315Y0.1750
G00 Z2.0000
G00 X28.3993Y3.6806
G01 Z-0.2000
G01 X28.3451Y3.6403
G01 X28.3120Y3.6140
G01 X28.2342Y3.5434
G01 X27.5875Y4.1900
G01 X27.5875Y9.1034
G01 X27.6386Y9.1497
G01 X27.6600Y9.1701
G01 X27.6803Y9.1914
G01 X27.7330Y9.2495
G01 X27.7440Y9.2620
G01 X27.7703Y9.2951
G01 X27.8171Y9.3581
G01 X27.8344Y9.3827
G01 X27.8498Y9.4071
G01 X27.8902Y9.4744
G01 X27.9122Y9.5146
G01 X27.9574Y9.6102
G01 X27.9740Y9.6517
G01 X28.0005Y9.7256
G01 X28.0102Y9.7554
G01 X28.0176Y9.7820
G01 X28.0403Y9.8738
G01 X28.0481Y9.9159
G01 X28.0632Y10.0219
G01 X28.0654Y10.0521
G01 X28.0693Y10.1306
G01 X28.0700Y10.1600
G01 X28.0693Y10.1894
G01 X28.0654Y10.2679
G01 X28.0632Y10.2981
G01 X28.0481Y10.4041
G01 X28.0403Y10.4462
G01 X28.0176Y10.5380
G01 X28.0102Y10.5646
G01 X28.0005Y10.5944
G01 X27.9740Y10.6683
G01 X27.9574Y10.7098
G01 X27.9122Y10.8054
G01 X27.8902Y10.8456
G01 X27.8498Y10.9129
G01 X27.8344Y10.9373
G01 X27.8171Y10.9619
G01 X27.7703Y11.0249
G01 X27.7440Y11.0580
G01 X27.7330Y11.0705
G01 X27.6803Y11.1286
G01 X27.6600Y11.1499
G01 X27.6386Y11.1703
G01 X27.5875Y11.2166
G01 X27.5875Y16.1300
G01 X28.0001Y16.5425
G01 X28.0086Y16.5341
G01 X28.0575Y16.4945
G01 X28.1102Y16.4602
G01 X28.1663Y16.4317
G01 X28.2249Y16.4093
G01 X28.2854Y16.3931
G01 X28.3474Y16.3833
G01 X28.3993Y16.3806
G01 X28.3451Y16.3403
G01 X28.3120Y16.3140
G01 X28.2414Y16.2503
G01 X28.2200Y16.2299
G01 X28.1997Y16.2086
G01 X28.1360Y16.1380
G01 X28.1097Y16.1049
G01 X28.0629Y16.0419
G01 X28.0456Y16.0173
G01 X28.0302Y15.9929
G01 X27.9898Y15.9256
G01 X27.9678Y15.8854
G01 X27.9226Y15.7898
G01 X27.9060Y15.7483
G01 X27.8795Y15.6744
G01 X27.8698Y15.6446
G01 X27.8434Y15.5419
G01 X27.8397Y15.5262
G01 X27.8319Y15.4841
G01 X27.8168Y15.3781
G01 X27.8146Y15.3479
G01 X27.8107Y15.2694
G01 X27.8100Y15.2400
G01 X27.8107Y15.2106
G01 X27.8146Y15.1321
G01 X27.8168Y15.1019
G01 X27.8319Y14.9959
G01 X27.8397Y14.9538
G01 X27.8624Y14.8620
G01 X27.8698Y14.8354
G01 X27.8795Y14.8056
G01 X27.9060Y14.7317
G01 X27.9226Y14.6902
G01 X27.9678Y14.5946
G01 X27.9898Y14.5544
G01 X28.0302Y14.4871
G01 X28.0456Y14.4627
G01 X28.0629Y14.4381
G01 X28.1097Y14.3751
G01 X28.1360Y14.3420
G01 X28.1470Y14.3295
G01 X28.1997Y14.2714
G01 X28.2200Y14.2501
G01 X28.2414Y14.2297
G01 X28.2925Y14.1834
G01 X28.2925Y6.4680
G01 X28.2854Y6.4669
G01 X28.2249Y6.4507
G01 X28.1663Y6.4283
G01 X28.1102Y6.3998
G01 X28.0575Y6.3655
G01 X28.0086Y6.3259
G01 X27.9641Y6.2814
G01 X27.9245Y6.2325
G01 X27.8902Y6.1798
G01 X27.8617Y6.1237
G01 X27.8393Y6.0651
G01 X27.8231Y6.0046
G01 X27.8133Y5.9426
G01 X27.8100Y5.8800
G01 X27.8100Y4.2800
G01 X27.8133Y4.2174
G01 X27.8231Y4.1554
G01 X27.8393Y4.0949
G01 X27.8617Y4.0363
G01 X27.8902Y3.9802
G01 X27.9245Y3.9275
G01 X27.9641Y3.8786
G01 X28.0086Y3.8341
G01 X28.0575Y3.7945
G01 X28.1102Y3.7602
G01 X28.1663Y3.7317
G01 X28.2249Y3.7093
G01 X28.2854Y3.6931
G01 X28.3474Y3.6833
G01 X28.3993Y3.6806
G00 Z2.0000
G00 X25.7525Y13.9471
G01 Z-0.2000
G01 X25.7525Y11.2166
G01 X25.7014Y11.1703
G01 X25.6800Y11.1499
G01 X25.6597Y11.1286
G01 X25.6070Y11.0705
G01 X25.5960Y11.0580
G01 X25.5697Y11.0249
G01 X25.5229Y10.9619
G01 X25.5056Y10.9373
G01 X25.4902Y10.9129
G01 X25.4498Y10.8456
G01 X25.4278Y10.8054
G01 X25.3826Y10.7098
G01 X25.3660Y10.6683
G01 X25.3395Y10.5944
G01 X25.3298Y10.5646
G01 X25.3224Y10.5380
G01 X25.2997Y10.4462
G01 X25.2919Y10.4041
G01 X25.2768Y10.2981
G01 X25.2746Y10.2679
G01 X25.2707Y10.1894
G01 X25.2700Y10.1600
G01 X25.2707Y10.1306
G01 X25.2746Y10.0521
G01 X25.2768Y10.0219
G01 X25.2919Y9.9159
G01 X25.2997Y9.8738
G01 X25.3224Y9.7820
G01 X25.3298Y9.7554
G01 X25.3395Y9.7256
G01 X25.3660Y9.6517
G01 X25.3826Y9.6102
G01 X25.4278Y9.5146
G01 X25.4498Y9.4744
G01 X25.4902Y9.4071
G01 X25.5056Y9.3827
G01 X25.5229Y9.3581
G01 X25.5697Y9.2951
G01 X25.5960Y9.2620
G01 X25.6070Y9.2495
G01 X25.6597Y9.1914
G01 X25.6800Y9.1701
G01 X25.7014Y9.1497
G01 X25.7525Y9.1034
G01 X25.7525Y6.3729
G01 X25.7130Y6.4040
G01 X25.6884Y6.4213
G01 X25.6640Y6.4367
G01 X25.6155Y6.4638
G01 X25.5800Y6.4804
G01 X25.5800Y8.0800
G01 X25.5767Y8.1426
G01 X25.5669Y8.2045
G01 X25.5507Y8.2651
G01 X25.5283Y8.3237
G01 X25.4998Y8.3797
G01 X25.4655Y8.4325
G01 X25.4259Y8.4814
G01 X25.3814Y8.5259
G01 X25.3325Y8.5655
G01 X25.2797Y8.5998
G01 X25.2237Y8.6283
G01 X25.1651Y8.6507
G01 X25.1045Y8.6669
G01 X25.0475Y8.6760
G01 X25.0475Y11.6440
G01 X25.1046Y11.6531
G01 X25.1651Y11.6693
G01 X25.2237Y11.6917
G01 X25.2798Y11.7202
G01 X25.3325Y11.7545
G01 X25.3814Y11.7941
G01 X25.4259Y11.8386
G01 X25.4655Y11.8875
G01 X25.4998Y11.9403
G01 X25.5283Y11.9963
G01 X25.5507Y12.0549
G01 X25.5669Y12.1155
G01 X25.5767Y12.1774
G01 X25.5800Y12.2400
G01 X25.5800Y13.8396
G01 X25.6155Y13.8562
G01 X25.6640Y13.8833
G01 X25.6884Y13.8987
G01 X25.7130Y13.9160
G01 X25.7525Y13.9471
G00 Z2.0000
G00 Z2.0000
G00 X0Y0
M05
;=============
G0 Z20
M30