; ==== FlatCAM NC generated file ====
G90 G40 G17 G21 G94
M6 T1
;=============
G21
G90
G94
F30.00
G00 Z2.0000
M03 S10000
G00 X19.0500Y13.9700
G01 Z-3.0000
G01 Z0
G00 Z2.0000
G00 X19.0500Y11.4300
G01 Z-3.0000
G01 Z0
G00 Z2.0000
G00 X19.0500Y8.8900
G01 Z-3.0000
G01 Z0
G00 Z2.0000
G00 X19.0500Y6.3500
G01 Z-3.0000
G01 Z0
G00 Z2.0000
G00 X11.4300Y13.9700
G01 Z-3.0000
G01 Z0
G00 Z2.0000
G00 X11.4300Y11.4300
G01 Z-3.0000
G01 Z0
G00 Z2.0000
G00 X11.4300Y8.8900
G01 Z-3.0000
G01 Z0
G00 Z2.0000
G00 X11.4300Y6.3500
G01 Z-3.0000
G01 Z0
G00 Z2.0000
G00 X29.2100Y17.7800
G01 Z-3.0000
G01 Z0
G00 Z2.0000
G00 X29.2100Y15.2400
G01 Z-3.0000
G01 Z0
G00 Z2.0000
G00 X21.5900Y17.7800
G01 Z-3.0000
G01 Z0
G00 Z2.0000
G00 X21.5900Y15.2400
G01 Z-3.0000
G01 Z0
G00 Z2.0000
G00 X36.8300Y10.1600
G01 Z-3.0000
G01 Z0
G00 Z2.0000
G00 X26.6700Y10.1600
G01 Z-3.0000
G01 Z0
G00 Z2.0000
G00 X29.2100Y5.0800
G01 Z-3.0000
G01 Z0
G00 Z2.0000
G00 X29.2100Y2.5400
G01 Z-3.0000
G01 Z0
G00 Z2.0000
G00 X21.5900Y5.0800
G01 Z-3.0000
G01 Z0
G00 Z2.0000
G00 X21.5900Y2.5400
G01 Z-3.0000
G01 Z0
G00 Z2.0000
G00 X0.0000Y0.0000
M05
;=============
G0 Z20
M30