; ==== FlatCAM NC generated file ====
G90 G40 G17 G21 G94
M6 T1
;=============
G21
G90
G94
F30.00
G00 Z2.0000
M03 S10000
G00 X3.8100Y11.4300
G01 Z-3.0000
G01 Z0
G00 Z2.0000
G00 X3.8100Y8.8900
G01 Z-3.0000
G01 Z0
G00 Z2.0000
G00 X3.8100Y6.3500
G01 Z-3.0000
G01 Z0
G00 Z2.0000
G00 X34.2900Y3.8100
G01 Z-3.0000
G01 Z0
G00 Z2.0000
G00 X34.2900Y16.5100
G01 Z-3.0000
G01 Z0
G00 Z2.0000
G00 X0.0000Y0.0000
M05
;=============
G0 Z20
M30