; ==== FlatCAM NC generated file ====
; 0.2mm engraver
G90 G40 G17 G21 G94
M6 T1
;=============
G21
G90
G94
F150.00
G00 Z2.0000
M03 S20000
G00 X0.1823Y2.4648
G01 Z-0.2000
G01 X0.1699Y2.4781
G01 X0.1567Y2.4946
G01 X0.1422Y2.5148
G01 X0.1345Y2.5270
G01 X0.1185Y2.5554
G01 X0.1085Y2.5766
G01 X0.1001Y2.5974
G01 X0.0920Y2.6215
G01 X0.0883Y2.6348
G01 X0.0841Y2.6522
G01 X0.0802Y2.6732
G01 X0.0770Y2.6971
G01 X0.0750Y2.7368
G01 X0.0750Y17.5832
G01 X0.0758Y17.6078
G01 X0.0787Y17.6371
G01 X0.0841Y17.6678
G01 X0.0922Y17.6993
G01 X0.1054Y17.7363
G01 X0.1185Y17.7645
G01 X0.1345Y17.7930
G01 X0.1509Y17.8175
G01 X0.1699Y17.8419
G01 X0.1922Y17.8661
G01 X2.4539Y20.1278
G01 X2.4781Y20.1501
G01 X2.4946Y20.1633
G01 X2.5148Y20.1778
G01 X2.5354Y20.1905
G01 X2.5554Y20.2015
G01 X2.5702Y20.2086
G01 X2.5974Y20.2199
G01 X2.6215Y20.2280
G01 X2.6522Y20.2359
G01 X2.6829Y20.2413
G01 X2.7122Y20.2442
G01 X2.7367Y20.2450
G01 X25.3000Y20.2450
G01 X25.3397Y20.2430
G01 X25.3635Y20.2398
G01 X25.3924Y20.2341
G01 X25.4152Y20.2280
G01 X25.4393Y20.2199
G01 X25.4601Y20.2115
G01 X25.4813Y20.2015
G01 X25.5014Y20.1905
G01 X25.5220Y20.1778
G01 X25.5421Y20.1633
G01 X25.5649Y20.1446
G01 X25.5828Y20.1278
G01 X25.6051Y20.1037
G01 X25.6183Y20.0871
G01 X25.6328Y20.0670
G01 X25.6455Y20.0464
G01 X25.6565Y20.0263
G01 X25.6636Y20.0115
G01 X25.6749Y19.9843
G01 X25.6830Y19.9602
G01 X25.6909Y19.9296
G01 X25.6948Y19.9085
G01 X25.6980Y19.8847
G01 X25.6996Y19.8597
G01 X25.7000Y18.4811
G01 X25.6980Y18.4414
G01 X25.6948Y18.4175
G01 X25.6909Y18.3965
G01 X25.6830Y18.3658
G01 X25.6749Y18.3417
G01 X25.6665Y18.3210
G01 X25.6565Y18.2998
G01 X25.6405Y18.2713
G01 X25.6328Y18.2591
G01 X25.6183Y18.2389
G01 X25.6051Y18.2224
G01 X25.5930Y18.2089
G01 X25.5828Y18.1982
G01 X25.5587Y18.1760
G01 X25.5343Y18.1570
G01 X25.5220Y18.1483
G01 X25.5014Y18.1356
G01 X25.4813Y18.1245
G01 X25.4601Y18.1145
G01 X25.4301Y18.1029
G01 X25.4152Y18.0980
G01 X25.3924Y18.0920
G01 X25.3538Y18.0848
G01 X25.3397Y18.0830
G01 X25.3147Y18.0814
G01 X25.2800Y18.0817
G01 X25.2800Y16.3983
G01 X25.3000Y16.3989
G01 X25.3397Y16.3970
G01 X25.3635Y16.3938
G01 X25.3846Y16.3899
G01 X25.4152Y16.3820
G01 X25.4393Y16.3738
G01 X25.4601Y16.3655
G01 X25.4813Y16.3555
G01 X25.5098Y16.3394
G01 X25.5220Y16.3317
G01 X25.5421Y16.3172
G01 X25.5649Y16.2985
G01 X25.5828Y16.2818
G01 X25.5930Y16.2711
G01 X25.6051Y16.2576
G01 X25.6183Y16.2411
G01 X25.6328Y16.2209
G01 X25.6455Y16.2003
G01 X25.6565Y16.1802
G01 X25.6665Y16.1590
G01 X25.6749Y16.1383
G01 X25.6830Y16.1142
G01 X25.6909Y16.0835
G01 X25.6948Y16.0625
G01 X25.6980Y16.0386
G01 X25.7000Y15.9989
G01 X25.7000Y14.4811
G01 X25.6980Y14.4414
G01 X25.6948Y14.4175
G01 X25.6909Y14.3965
G01 X25.6830Y14.3658
G01 X25.6749Y14.3417
G01 X25.6665Y14.3210
G01 X25.6565Y14.2998
G01 X25.6405Y14.2713
G01 X25.6328Y14.2591
G01 X25.6183Y14.2389
G01 X25.6051Y14.2224
G01 X25.5930Y14.2089
G01 X25.5828Y14.1982
G01 X25.5587Y14.1760
G01 X25.5343Y14.1570
G01 X25.5220Y14.1483
G01 X25.5014Y14.1356
G01 X25.4813Y14.1245
G01 X25.4601Y14.1145
G01 X25.4301Y14.1029
G01 X25.4152Y14.0980
G01 X25.3924Y14.0920
G01 X25.3538Y14.0848
G01 X25.3397Y14.0830
G01 X25.3147Y14.0814
G01 X25.2800Y14.0817
G01 X25.2800Y12.2400
G01 X25.2784Y12.2087
G01 X25.2735Y12.1777
G01 X25.2654Y12.1474
G01 X25.2541Y12.1182
G01 X25.2399Y12.0901
G01 X25.2228Y12.0637
G01 X25.2030Y12.0393
G01 X25.1807Y12.0170
G01 X25.1563Y11.9972
G01 X25.1299Y11.9801
G01 X25.1018Y11.9659
G01 X25.0726Y11.9546
G01 X25.0423Y11.9465
G01 X25.0113Y11.9416
G01 X24.9800Y11.9400
G01 X24.7475Y11.9400
G01 X24.7475Y8.3800
G01 X24.9800Y8.3800
G01 X25.0113Y8.3784
G01 X25.0423Y8.3735
G01 X25.0726Y8.3654
G01 X25.1018Y8.3541
G01 X25.1299Y8.3399
G01 X25.1563Y8.3228
G01 X25.1807Y8.3030
G01 X25.2030Y8.2807
G01 X25.2228Y8.2563
G01 X25.2399Y8.2299
G01 X25.2541Y8.2018
G01 X25.2654Y8.1726
G01 X25.2735Y8.1423
G01 X25.2784Y8.1113
G01 X25.2800Y8.0800
G01 X25.2800Y6.2383
G01 X25.3147Y6.2386
G01 X25.3397Y6.2370
G01 X25.3538Y6.2352
G01 X25.3924Y6.2280
G01 X25.4152Y6.2220
G01 X25.4301Y6.2171
G01 X25.4601Y6.2055
G01 X25.4813Y6.1955
G01 X25.5014Y6.1844
G01 X25.5220Y6.1717
G01 X25.5343Y6.1630
G01 X25.5649Y6.1385
G01 X25.5828Y6.1218
G01 X25.5930Y6.1111
G01 X25.6051Y6.0976
G01 X25.6183Y6.0811
G01 X25.6328Y6.0609
G01 X25.6405Y6.0487
G01 X25.6565Y6.0202
G01 X25.6665Y5.9990
G01 X25.6749Y5.9783
G01 X25.6830Y5.9542
G01 X25.6867Y5.9409
G01 X25.6909Y5.9235
G01 X25.6948Y5.9025
G01 X25.6980Y5.8786
G01 X25.6992Y5.8635
G01 X25.7000Y5.8389
G01 X25.7000Y4.3257
G01 X25.6980Y4.2860
G01 X25.6948Y4.2622
G01 X25.6909Y4.2411
G01 X25.6830Y4.2105
G01 X25.6749Y4.1864
G01 X25.6665Y4.1656
G01 X25.6565Y4.1444
G01 X25.6455Y4.1243
G01 X25.6328Y4.1037
G01 X25.6183Y4.0835
G01 X25.6051Y4.0670
G01 X25.5930Y4.0535
G01 X25.5722Y4.0327
G01 X25.5587Y4.0206
G01 X25.5421Y4.0074
G01 X25.5220Y3.9929
G01 X25.5098Y3.9852
G01 X25.4813Y3.9692
G01 X25.4601Y3.9592
G01 X25.4393Y3.9508
G01 X25.4152Y3.9426
G01 X25.3846Y3.9348
G01 X25.3635Y3.9309
G01 X25.3397Y3.9277
G01 X25.3000Y3.9257
G01 X25.2800Y3.9263
G01 X25.2800Y2.2337
G01 X25.3147Y2.2340
G01 X25.3397Y2.2323
G01 X25.3538Y2.2306
G01 X25.3924Y2.2234
G01 X25.4152Y2.2174
G01 X25.4301Y2.2125
G01 X25.4601Y2.2008
G01 X25.4813Y2.1908
G01 X25.5014Y2.1798
G01 X25.5220Y2.1671
G01 X25.5343Y2.1584
G01 X25.5649Y2.1339
G01 X25.5828Y2.1172
G01 X25.5930Y2.1065
G01 X25.6051Y2.0930
G01 X25.6183Y2.0765
G01 X25.6328Y2.0563
G01 X25.6405Y2.0441
G01 X25.6565Y2.0156
G01 X25.6665Y1.9944
G01 X25.6749Y1.9736
G01 X25.6830Y1.9495
G01 X25.6867Y1.9362
G01 X25.6909Y1.9189
G01 X25.6948Y1.8978
G01 X25.6980Y1.8740
G01 X25.6992Y1.8588
G01 X25.7000Y1.8343
G01 X25.7000Y0.4750
G01 X25.6980Y0.4353
G01 X25.6948Y0.4115
G01 X25.6909Y0.3904
G01 X25.6830Y0.3598
G01 X25.6782Y0.3449
G01 X25.6636Y0.3085
G01 X25.6565Y0.2937
G01 X25.6405Y0.2652
G01 X25.6328Y0.2530
G01 X25.6183Y0.2329
G01 X25.6051Y0.2163
G01 X25.5828Y0.1922
G01 X25.5587Y0.1699
G01 X25.5421Y0.1567
G01 X25.5220Y0.1422
G01 X25.5014Y0.1295
G01 X25.4813Y0.1185
G01 X25.4665Y0.1114
G01 X25.4393Y0.1001
G01 X25.4152Y0.0920
G01 X25.3846Y0.0841
G01 X25.3538Y0.0787
G01 X25.3245Y0.0758
G01 X25.3000Y0.0750
G01 X2.7367Y0.0750
G01 X2.6971Y0.0770
G01 X2.6732Y0.0802
G01 X2.6522Y0.0841
G01 X2.6348Y0.0883
G01 X2.6067Y0.0968
G01 X2.5766Y0.1085
G01 X2.5554Y0.1185
G01 X2.5354Y0.1295
G01 X2.5148Y0.1422
G01 X2.4946Y0.1567
G01 X2.4781Y0.1699
G01 X2.4646Y0.1820
G01 X0.1922Y2.4539
G01 X0.1823Y2.4648
G00 Z2.0000
G00 X0.2563Y2.5319
G01 Z-0.2000
G01 X0.2458Y2.5432
G01 X0.2371Y2.5542
G01 X0.2203Y2.5784
G01 X0.2079Y2.6002
G01 X0.1998Y2.6173
G01 X0.1943Y2.6311
G01 X0.1853Y2.6591
G01 X0.1791Y2.6879
G01 X0.1765Y2.7071
G01 X0.1750Y2.7368
G01 X0.1750Y17.5832
G01 X0.1757Y17.6029
G01 X0.1776Y17.6224
G01 X0.1817Y17.6461
G01 X0.1879Y17.6703
G01 X0.1978Y17.6980
G01 X0.2079Y17.7198
G01 X0.2203Y17.7416
G01 X0.2312Y17.7579
G01 X0.2458Y17.7768
G01 X0.2629Y17.7954
G01 X2.5246Y20.0571
G01 X2.5432Y20.0742
G01 X2.5703Y20.0946
G01 X2.5868Y20.1047
G01 X2.6130Y20.1182
G01 X2.6311Y20.1257
G01 X2.6503Y20.1323
G01 X2.6739Y20.1383
G01 X2.6976Y20.1424
G01 X2.7171Y20.1443
G01 X2.7367Y20.1450
G01 X25.3000Y20.1450
G01 X25.3297Y20.1435
G01 X25.3489Y20.1409
G01 X25.3681Y20.1371
G01 X25.3865Y20.1323
G01 X25.4056Y20.1257
G01 X25.4195Y20.1202
G01 X25.4366Y20.1121
G01 X25.4665Y20.0946
G01 X25.4826Y20.0829
G01 X25.4978Y20.0705
G01 X25.5121Y20.0571
G01 X25.5292Y20.0386
G01 X25.5496Y20.0115
G01 X25.5597Y19.9950
G01 X25.5732Y19.9688
G01 X25.5807Y19.9506
G01 X25.5873Y19.9315
G01 X25.5933Y19.9079
G01 X25.5959Y19.8939
G01 X25.5985Y19.8747
G01 X25.5998Y19.8548
G01 X25.6000Y18.4811
G01 X25.5985Y18.4514
G01 X25.5933Y18.4182
G01 X25.5873Y18.3946
G01 X25.5807Y18.3754
G01 X25.5752Y18.3616
G01 X25.5671Y18.3445
G01 X25.5496Y18.3146
G01 X25.5292Y18.2875
G01 X25.5050Y18.2622
G01 X25.4826Y18.2431
G01 X25.4665Y18.2315
G01 X25.4500Y18.2213
G01 X25.4366Y18.2140
G01 X25.4195Y18.2059
G01 X25.3865Y18.1938
G01 X25.3629Y18.1878
G01 X25.3489Y18.1852
G01 X25.3196Y18.1818
G01 X25.2902Y18.1813
G01 X25.2703Y18.1825
G01 X25.2511Y18.1852
G01 X25.2371Y18.1878
G01 X25.2135Y18.1938
G01 X25.1800Y18.2061
G01 X25.1800Y16.2739
G01 X25.2135Y16.2862
G01 X25.2371Y16.2922
G01 X25.2703Y16.2975
G01 X25.2902Y16.2987
G01 X25.3098Y16.2987
G01 X25.3297Y16.2975
G01 X25.3489Y16.2948
G01 X25.3776Y16.2886
G01 X25.4056Y16.2796
G01 X25.4195Y16.2741
G01 X25.4366Y16.2660
G01 X25.4665Y16.2485
G01 X25.4936Y16.2281
G01 X25.5121Y16.2111
G01 X25.5292Y16.1925
G01 X25.5379Y16.1815
G01 X25.5547Y16.1573
G01 X25.5671Y16.1355
G01 X25.5732Y16.1227
G01 X25.5840Y16.0953
G01 X25.5933Y16.0618
G01 X25.5985Y16.0286
G01 X25.6000Y15.9989
G01 X25.6000Y14.4811
G01 X25.5985Y14.4514
G01 X25.5933Y14.4182
G01 X25.5873Y14.3946
G01 X25.5807Y14.3754
G01 X25.5751Y14.3616
G01 X25.5671Y14.3445
G01 X25.5496Y14.3146
G01 X25.5292Y14.2875
G01 X25.5050Y14.2622
G01 X25.4826Y14.2431
G01 X25.4665Y14.2315
G01 X25.4500Y14.2213
G01 X25.4366Y14.2140
G01 X25.4195Y14.2059
G01 X25.3865Y14.1938
G01 X25.3629Y14.1878
G01 X25.3489Y14.1852
G01 X25.3196Y14.1818
G01 X25.2902Y14.1813
G01 X25.2703Y14.1825
G01 X25.2511Y14.1852
G01 X25.2371Y14.1878
G01 X25.2135Y14.1938
G01 X25.1800Y14.2061
G01 X25.1800Y12.2400
G01 X25.1789Y12.2191
G01 X25.1756Y12.1985
G01 X25.1702Y12.1783
G01 X25.1628Y12.1588
G01 X25.1533Y12.1401
G01 X25.1418Y12.1225
G01 X25.1286Y12.1062
G01 X25.1138Y12.0914
G01 X25.0975Y12.0782
G01 X25.0799Y12.0667
G01 X25.0612Y12.0572
G01 X25.0417Y12.0498
G01 X25.0215Y12.0444
G01 X25.0009Y12.0411
G01 X24.9800Y12.0400
G01 X24.6475Y12.0400
G01 X24.6475Y8.2800
G01 X24.9800Y8.2800
G01 X25.0009Y8.2789
G01 X25.0215Y8.2756
G01 X25.0417Y8.2702
G01 X25.0612Y8.2628
G01 X25.0799Y8.2533
G01 X25.0975Y8.2418
G01 X25.1138Y8.2286
G01 X25.1286Y8.2138
G01 X25.1418Y8.1975
G01 X25.1533Y8.1799
G01 X25.1628Y8.1612
G01 X25.1702Y8.1417
G01 X25.1756Y8.1215
G01 X25.1789Y8.1009
G01 X25.1800Y8.0800
G01 X25.1800Y6.1139
G01 X25.2135Y6.1262
G01 X25.2371Y6.1322
G01 X25.2511Y6.1348
G01 X25.2703Y6.1375
G01 X25.2902Y6.1387
G01 X25.3196Y6.1382
G01 X25.3489Y6.1348
G01 X25.3629Y6.1322
G01 X25.3865Y6.1262
G01 X25.4195Y6.1141
G01 X25.4366Y6.1060
G01 X25.4584Y6.0936
G01 X25.4826Y6.0769
G01 X25.4936Y6.0681
G01 X25.5121Y6.0511
G01 X25.5292Y6.0325
G01 X25.5379Y6.0215
G01 X25.5547Y5.9973
G01 X25.5671Y5.9755
G01 X25.5752Y5.9584
G01 X25.5873Y5.9254
G01 X25.5933Y5.9018
G01 X25.5959Y5.8878
G01 X25.5993Y5.8585
G01 X25.6000Y5.8389
G01 X25.6000Y4.3257
G01 X25.5985Y4.2960
G01 X25.5933Y4.2628
G01 X25.5840Y4.2293
G01 X25.5732Y4.2019
G01 X25.5671Y4.1891
G01 X25.5547Y4.1673
G01 X25.5379Y4.1431
G01 X25.5292Y4.1321
G01 X25.5121Y4.1136
G01 X25.4936Y4.0965
G01 X25.4665Y4.0761
G01 X25.4366Y4.0586
G01 X25.4195Y4.0505
G01 X25.4056Y4.0450
G01 X25.3776Y4.0360
G01 X25.3629Y4.0324
G01 X25.3391Y4.0283
G01 X25.3098Y4.0259
G01 X25.2902Y4.0259
G01 X25.2703Y4.0272
G01 X25.2371Y4.0324
G01 X25.2135Y4.0384
G01 X25.1800Y4.0508
G01 X25.1800Y2.1092
G01 X25.2135Y2.1216
G01 X25.2371Y2.1276
G01 X25.2511Y2.1302
G01 X25.2804Y2.1336
G01 X25.3000Y2.1343
G01 X25.3196Y2.1336
G01 X25.3489Y2.1302
G01 X25.3629Y2.1276
G01 X25.3865Y2.1216
G01 X25.4195Y2.1095
G01 X25.4366Y2.1014
G01 X25.4500Y2.0941
G01 X25.4747Y2.0781
G01 X25.4936Y2.0635
G01 X25.5050Y2.0532
G01 X25.5292Y2.0279
G01 X25.5496Y2.0008
G01 X25.5671Y1.9709
G01 X25.5751Y1.9538
G01 X25.5807Y1.9400
G01 X25.5873Y1.9208
G01 X25.5933Y1.8972
G01 X25.5985Y1.8640
G01 X25.6000Y1.8343
G01 X25.6000Y0.4750
G01 X25.5985Y0.4453
G01 X25.5933Y0.4121
G01 X25.5840Y0.3786
G01 X25.5732Y0.3512
G01 X25.5671Y0.3384
G01 X25.5547Y0.3166
G01 X25.5379Y0.2924
G01 X25.5292Y0.2814
G01 X25.5121Y0.2629
G01 X25.4936Y0.2458
G01 X25.4665Y0.2254
G01 X25.4500Y0.2153
G01 X25.4238Y0.2018
G01 X25.4056Y0.1943
G01 X25.3865Y0.1877
G01 X25.3629Y0.1817
G01 X25.3391Y0.1776
G01 X25.3196Y0.1757
G01 X25.3000Y0.1750
G01 X2.7367Y0.1750
G01 X2.7070Y0.1765
G01 X2.6739Y0.1817
G01 X2.6503Y0.1877
G01 X2.6311Y0.1943
G01 X2.6041Y0.2060
G01 X2.5784Y0.2203
G01 X2.5621Y0.2312
G01 X2.5432Y0.2458
G01 X2.5246Y0.2629
G01 X0.2563Y2.5319
G00 Z2.0000
G00 X0.3303Y2.5990
G01 Z-0.2000
G01 X2.5953Y0.3336
G01 X2.6082Y0.3218
G01 X2.6216Y0.3115
G01 X2.6469Y0.2964
G01 X2.6579Y0.2912
G01 X2.6790Y0.2835
G01 X2.6955Y0.2793
G01 X2.7170Y0.2760
G01 X2.7367Y0.2750
G01 X25.3000Y0.2750
G01 X25.3245Y0.2766
G01 X25.3412Y0.2793
G01 X25.3578Y0.2835
G01 X25.3810Y0.2922
G01 X25.3919Y0.2974
G01 X25.4110Y0.3086
G01 X25.4285Y0.3218
G01 X25.4448Y0.3371
G01 X25.4532Y0.3465
G01 X25.4635Y0.3599
G01 X25.4740Y0.3765
G01 X25.4838Y0.3961
G01 X25.4915Y0.4172
G01 X25.4970Y0.4408
G01 X25.4990Y0.4552
G01 X25.4999Y0.4701
G01 X25.5000Y1.8343
G01 X25.4990Y1.8541
G01 X25.4957Y1.8755
G01 X25.4915Y1.8921
G01 X25.4838Y1.9132
G01 X25.4776Y1.9262
G01 X25.4689Y1.9413
G01 X25.4532Y1.9628
G01 X25.4414Y1.9757
G01 X25.4306Y1.9857
G01 X25.4110Y2.0007
G01 X25.3919Y2.0119
G01 X25.3810Y2.0171
G01 X25.3578Y2.0258
G01 X25.3412Y2.0300
G01 X25.3245Y2.0328
G01 X25.2951Y2.0342
G01 X25.2802Y2.0333
G01 X25.2658Y2.0313
G01 X25.2422Y2.0258
G01 X25.2211Y2.0181
G01 X25.2015Y2.0083
G01 X25.1849Y1.9978
G01 X25.1694Y1.9857
G01 X25.1586Y1.9757
G01 X25.0933Y1.9104
G01 X25.0198Y1.8800
G01 X24.7550Y1.8800
G01 X24.7550Y1.9800
G01 X24.9800Y1.9800
G01 X24.9904Y1.9805
G01 X25.0008Y1.9822
G01 X25.0109Y1.9849
G01 X25.0206Y1.9886
G01 X25.0300Y1.9934
G01 X25.0388Y1.9991
G01 X25.0469Y2.0057
G01 X25.0543Y2.0131
G01 X25.0609Y2.0212
G01 X25.0666Y2.0300
G01 X25.0714Y2.0394
G01 X25.0751Y2.0491
G01 X25.0778Y2.0592
G01 X25.0795Y2.0696
G01 X25.0800Y2.0800
G01 X25.0800Y4.0800
G01 X25.0795Y4.0904
G01 X25.0778Y4.1008
G01 X25.0751Y4.1109
G01 X25.0714Y4.1206
G01 X25.0666Y4.1300
G01 X25.0609Y4.1388
G01 X25.0543Y4.1469
G01 X25.0469Y4.1543
G01 X25.0388Y4.1609
G01 X25.0300Y4.1666
G01 X25.0206Y4.1714
G01 X25.0109Y4.1751
G01 X25.0008Y4.1778
G01 X24.9904Y4.1795
G01 X24.9800Y4.1800
G01 X24.7550Y4.1800
G01 X24.7550Y4.2800
G01 X25.0198Y4.2800
G01 X25.0933Y4.2496
G01 X25.1586Y4.1843
G01 X25.1694Y4.1743
G01 X25.1849Y4.1622
G01 X25.2015Y4.1517
G01 X25.2211Y4.1419
G01 X25.2422Y4.1342
G01 X25.2658Y4.1287
G01 X25.2802Y4.1267
G01 X25.2951Y4.1258
G01 X25.3245Y4.1272
G01 X25.3412Y4.1300
G01 X25.3578Y4.1342
G01 X25.3810Y4.1429
G01 X25.3919Y4.1481
G01 X25.4110Y4.1593
G01 X25.4306Y4.1743
G01 X25.4414Y4.1843
G01 X25.4532Y4.1972
G01 X25.4689Y4.2187
G01 X25.4776Y4.2338
G01 X25.4838Y4.2468
G01 X25.4915Y4.2679
G01 X25.4957Y4.2845
G01 X25.4990Y4.3059
G01 X25.5000Y4.3257
G01 X25.5000Y5.8389
G01 X25.4990Y5.8587
G01 X25.4957Y5.8801
G01 X25.4915Y5.8967
G01 X25.4838Y5.9178
G01 X25.4776Y5.9308
G01 X25.4664Y5.9500
G01 X25.4532Y5.9675
G01 X25.4414Y5.9804
G01 X25.4230Y5.9966
G01 X25.4110Y6.0053
G01 X25.3985Y6.0129
G01 X25.3789Y6.0227
G01 X25.3578Y6.0304
G01 X25.3342Y6.0359
G01 X25.3198Y6.0380
G01 X25.3049Y6.0388
G01 X25.2802Y6.0380
G01 X25.2588Y6.0346
G01 X25.2422Y6.0304
G01 X25.2211Y6.0227
G01 X25.2014Y6.0129
G01 X25.1849Y6.0024
G01 X25.1715Y5.9922
G01 X25.1552Y5.9768
G01 X25.1424Y5.9619
G01 X25.1242Y5.9358
G01 X25.0580Y5.8916
G01 X24.9603Y5.8722
G01 X23.7369Y5.8722
G01 X23.7171Y5.8712
G01 X23.6931Y5.8672
G01 X23.6791Y5.8636
G01 X23.6649Y5.8587
G01 X23.6450Y5.8498
G01 X23.6217Y5.8356
G01 X23.6083Y5.8254
G01 X23.5954Y5.8136
G01 X22.5899Y4.8080
G01 X22.5799Y4.7972
G01 X22.5624Y4.7735
G01 X22.5536Y4.7584
G01 X22.5475Y4.7455
G01 X22.5398Y4.7243
G01 X22.5320Y4.6898
G01 X22.3110Y4.3590
G01 X21.9802Y4.1380
G01 X21.6885Y4.0800
G01 X21.4915Y4.0800
G01 X21.1998Y4.1380
G01 X20.8690Y4.3590
G01 X20.6480Y4.6898
G01 X20.5704Y5.0800
G01 X20.6480Y5.4702
G01 X20.8690Y5.8010
G01 X21.1998Y6.0220
G01 X21.4915Y6.0800
G01 X21.6885Y6.0800
G01 X21.9802Y6.0220
G01 X22.0595Y5.9690
G01 X22.0720Y5.9613
G01 X22.0986Y5.9487
G01 X22.1128Y5.9438
G01 X22.1294Y5.9396
G01 X22.1559Y5.9359
G01 X22.1706Y5.9353
G01 X22.1903Y5.9363
G01 X22.2118Y5.9396
G01 X22.2239Y5.9426
G01 X22.2495Y5.9515
G01 X22.2625Y5.9577
G01 X22.2816Y5.9689
G01 X22.2991Y5.9821
G01 X22.3120Y5.9939
G01 X23.0136Y6.6954
G01 X23.0254Y6.7083
G01 X23.0385Y6.7258
G01 X23.0498Y6.7450
G01 X23.0550Y6.7558
G01 X23.0636Y6.7791
G01 X23.0679Y6.7957
G01 X23.0712Y6.8171
G01 X23.0722Y6.8369
G01 X23.0722Y7.5510
G01 X23.0706Y7.5755
G01 X23.0624Y7.6200
G01 X23.0706Y7.6645
G01 X23.0722Y7.6890
G01 X23.0722Y8.0603
G01 X23.0916Y8.1580
G01 X23.1358Y8.2242
G01 X23.2020Y8.2684
G01 X23.2997Y8.2878
G01 X23.4125Y8.2878
G01 X23.4370Y8.2894
G01 X23.4537Y8.2921
G01 X23.4752Y8.2980
G01 X23.4914Y8.3041
G01 X23.5110Y8.3139
G01 X23.5276Y8.3244
G01 X23.5410Y8.3346
G01 X23.5504Y8.3430
G01 X23.5657Y8.3593
G01 X23.5789Y8.3768
G01 X23.5901Y8.3960
G01 X23.5990Y8.4159
G01 X23.6040Y8.4301
G01 X23.6076Y8.4440
G01 X23.6115Y8.4681
G01 X23.6125Y8.4878
G01 X23.6125Y11.4425
G01 X23.6115Y11.4623
G01 X23.6082Y11.4837
G01 X23.6040Y11.5003
G01 X23.5963Y11.5214
G01 X23.5901Y11.5344
G01 X23.5814Y11.5495
G01 X23.5657Y11.5710
G01 X23.5504Y11.5873
G01 X23.5410Y11.5957
G01 X23.5276Y11.6060
G01 X23.5044Y11.6201
G01 X23.4845Y11.6290
G01 X23.4703Y11.6340
G01 X23.4563Y11.6376
G01 X23.4323Y11.6415
G01 X23.4125Y11.6425
G01 X22.8429Y11.6424
G01 X22.8234Y11.6409
G01 X22.8066Y11.6382
G01 X22.7945Y11.6352
G01 X22.7759Y11.6290
G01 X22.7579Y11.6211
G01 X22.7368Y11.6089
G01 X22.7193Y11.5957
G01 X22.7064Y11.5839
G01 X22.6902Y11.5655
G01 X22.6789Y11.5495
G01 X22.6702Y11.5344
G01 X22.6650Y11.5235
G01 X22.6580Y11.5052
G01 X22.6528Y11.4863
G01 X22.6488Y11.4623
G01 X22.6478Y11.4425
G01 X22.6478Y11.1797
G01 X22.6284Y11.0820
G01 X22.5842Y11.0158
G01 X22.5180Y10.9716
G01 X22.4203Y10.9522
G01 X20.7597Y10.9522
G01 X20.6620Y10.9716
G01 X20.5958Y11.0158
G01 X20.5516Y11.0820
G01 X20.5322Y11.1797
G01 X20.5322Y13.1403
G01 X20.5516Y13.2380
G01 X20.5958Y13.3042
G01 X20.6620Y13.3484
G01 X20.7597Y13.3678
G01 X20.8725Y13.3678
G01 X20.8923Y13.3688
G01 X20.9067Y13.3708
G01 X20.9303Y13.3764
G01 X20.9445Y13.3813
G01 X20.9644Y13.3902
G01 X20.9795Y13.3989
G01 X21.0010Y13.4146
G01 X21.0173Y13.4300
G01 X21.0257Y13.4393
G01 X21.0360Y13.4527
G01 X21.0465Y13.4693
G01 X21.0563Y13.4890
G01 X21.0640Y13.5101
G01 X21.0695Y13.5337
G01 X21.0719Y13.5531
G01 X21.0725Y13.5678
G01 X21.0725Y14.2762
G01 X21.0709Y14.3007
G01 X21.0682Y14.3174
G01 X21.0640Y14.3340
G01 X21.0563Y14.3551
G01 X21.0501Y14.3681
G01 X21.0414Y14.3832
G01 X21.0257Y14.4047
G01 X21.0104Y14.4210
G01 X21.0010Y14.4294
G01 X20.9836Y14.4425
G01 X20.8690Y14.5190
G01 X20.6480Y14.8498
G01 X20.5704Y15.2400
G01 X20.6480Y15.6302
G01 X20.8690Y15.9610
G01 X21.1998Y16.1820
G01 X21.4915Y16.2400
G01 X21.6885Y16.2400
G01 X21.9802Y16.1820
G01 X22.3110Y15.9610
G01 X22.5320Y15.6302
G01 X22.6096Y15.2400
G01 X22.5320Y14.8498
G01 X22.3110Y14.5190
G01 X22.1964Y14.4425
G01 X22.1790Y14.4294
G01 X22.1696Y14.4210
G01 X22.1543Y14.4047
G01 X22.1386Y14.3832
G01 X22.1299Y14.3681
G01 X22.1237Y14.3551
G01 X22.1160Y14.3340
G01 X22.1118Y14.3174
G01 X22.1091Y14.3007
G01 X22.1075Y14.2762
G01 X22.1075Y13.5678
G01 X22.1085Y13.5481
G01 X22.1124Y13.5240
G01 X22.1160Y13.5101
G01 X22.1210Y13.4959
G01 X22.1299Y13.4760
G01 X22.1411Y13.4568
G01 X22.1561Y13.4372
G01 X22.1661Y13.4264
G01 X22.1769Y13.4164
G01 X22.1965Y13.4015
G01 X22.2156Y13.3902
G01 X22.2286Y13.3841
G01 X22.2497Y13.3764
G01 X22.2663Y13.3721
G01 X22.2830Y13.3694
G01 X22.3075Y13.3678
G01 X22.4203Y13.3678
G01 X22.5180Y13.3484
G01 X22.5842Y13.3042
G01 X22.6284Y13.2380
G01 X22.6478Y13.1403
G01 X22.6478Y12.8775
G01 X22.6484Y12.8628
G01 X22.6508Y12.8433
G01 X22.6551Y12.8242
G01 X22.6650Y12.7965
G01 X22.6702Y12.7856
G01 X22.6815Y12.7665
G01 X22.6946Y12.7490
G01 X22.7030Y12.7396
G01 X22.7248Y12.7199
G01 X22.7368Y12.7111
G01 X22.7493Y12.7035
G01 X22.7759Y12.6910
G01 X22.7901Y12.6860
G01 X22.8066Y12.6818
G01 X22.8331Y12.6781
G01 X22.8771Y12.6776
G01 X22.8919Y12.6785
G01 X22.9134Y12.6818
G01 X22.9299Y12.6860
G01 X22.9441Y12.6910
G01 X22.9707Y12.7035
G01 X22.9832Y12.7111
G01 X23.0007Y12.7243
G01 X23.0136Y12.7361
G01 X23.0254Y12.7490
G01 X23.0411Y12.7705
G01 X23.0498Y12.7856
G01 X23.0559Y12.7986
G01 X23.0636Y12.8197
G01 X23.0679Y12.8363
G01 X23.0712Y12.8577
G01 X23.0722Y12.8775
G01 X23.0722Y14.2203
G01 X23.0916Y14.3180
G01 X23.1358Y14.3842
G01 X23.2020Y14.4284
G01 X23.2997Y14.4478
G01 X24.9603Y14.4478
G01 X25.0580Y14.4284
G01 X25.1242Y14.3842
G01 X25.1424Y14.3581
G01 X25.1586Y14.3396
G01 X25.1715Y14.3278
G01 X25.1930Y14.3121
G01 X25.2081Y14.3034
G01 X25.2211Y14.2973
G01 X25.2422Y14.2896
G01 X25.2658Y14.2841
G01 X25.2802Y14.2820
G01 X25.2951Y14.2812
G01 X25.3198Y14.2820
G01 X25.3412Y14.2854
G01 X25.3627Y14.2912
G01 X25.3789Y14.2973
G01 X25.3919Y14.3034
G01 X25.4110Y14.3147
G01 X25.4285Y14.3278
G01 X25.4448Y14.3432
G01 X25.4532Y14.3525
G01 X25.4635Y14.3659
G01 X25.4776Y14.3892
G01 X25.4838Y14.4022
G01 X25.4915Y14.4233
G01 X25.4957Y14.4399
G01 X25.4984Y14.4566
G01 X25.5000Y14.4811
G01 X25.4999Y16.0038
G01 X25.4990Y16.0187
G01 X25.4970Y16.0331
G01 X25.4915Y16.0567
G01 X25.4838Y16.0778
G01 X25.4740Y16.0975
G01 X25.4664Y16.1100
G01 X25.4576Y16.1219
G01 X25.4414Y16.1404
G01 X25.4285Y16.1522
G01 X25.4070Y16.1679
G01 X25.3919Y16.1766
G01 X25.3720Y16.1855
G01 X25.3578Y16.1904
G01 X25.3438Y16.1940
G01 X25.3245Y16.1974
G01 X25.3000Y16.1989
G01 X25.2802Y16.1980
G01 X25.2588Y16.1946
G01 X25.2422Y16.1904
G01 X25.2211Y16.1827
G01 X25.2081Y16.1766
G01 X25.1890Y16.1653
G01 X25.1770Y16.1566
G01 X25.1586Y16.1404
G01 X25.1468Y16.1275
G01 X25.1365Y16.1141
G01 X25.1242Y16.0958
G01 X25.0580Y16.0516
G01 X24.9603Y16.0322
G01 X23.2997Y16.0322
G01 X23.2020Y16.0516
G01 X23.1358Y16.0958
G01 X23.0916Y16.1620
G01 X23.0722Y16.2597
G01 X23.0722Y17.0625
G01 X23.0706Y17.0870
G01 X23.0679Y17.1037
G01 X23.0649Y17.1158
G01 X23.0559Y17.1414
G01 X23.0498Y17.1544
G01 X23.0385Y17.1735
G01 X23.0236Y17.1931
G01 X23.0136Y17.2039
G01 X23.0007Y17.2157
G01 X22.9791Y17.2314
G01 X22.9640Y17.2401
G01 X22.9510Y17.2463
G01 X22.9255Y17.2552
G01 X22.9134Y17.2582
G01 X22.8919Y17.2615
G01 X22.8722Y17.2625
G01 X22.5489Y17.2624
G01 X22.5341Y17.2615
G01 X22.5126Y17.2582
G01 X22.4960Y17.2540
G01 X22.4819Y17.2490
G01 X22.4619Y17.2401
G01 X22.4387Y17.2260
G01 X22.4253Y17.2157
G01 X22.4159Y17.2073
G01 X22.4024Y17.1931
G01 X22.3875Y17.1736
G01 X22.3110Y17.0590
G01 X21.9802Y16.8380
G01 X21.6885Y16.7800
G01 X21.4915Y16.7800
G01 X21.1998Y16.8380
G01 X20.8690Y17.0590
G01 X20.7925Y17.1736
G01 X20.7838Y17.1855
G01 X20.7676Y17.2039
G01 X20.7492Y17.2201
G01 X20.7372Y17.2289
G01 X20.7247Y17.2365
G01 X20.6981Y17.2490
G01 X20.6840Y17.2540
G01 X20.6674Y17.2582
G01 X20.6409Y17.2619
G01 X20.6262Y17.2625
G01 X12.1475Y17.2625
G01 X12.1277Y17.2615
G01 X12.1063Y17.2582
G01 X12.0897Y17.2540
G01 X12.0686Y17.2463
G01 X12.0556Y17.2401
G01 X12.0405Y17.2314
G01 X12.0190Y17.2157
G01 X12.0061Y17.2039
G01 X11.9943Y17.1910
G01 X11.9786Y17.1695
G01 X11.9699Y17.1544
G01 X11.9637Y17.1414
G01 X11.9560Y17.1203
G01 X11.9524Y17.1063
G01 X11.9481Y17.0772
G01 X11.9475Y17.0625
G01 X11.9475Y14.9338
G01 X11.9485Y14.9141
G01 X11.9518Y14.8926
G01 X11.9548Y14.8805
G01 X11.9637Y14.8549
G01 X11.9735Y14.8353
G01 X11.9811Y14.8228
G01 X11.9899Y14.8108
G01 X12.0061Y14.7924
G01 X12.0245Y14.7762
G01 X12.0364Y14.7675
G01 X12.1510Y14.6910
G01 X12.3720Y14.3602
G01 X12.4496Y13.9700
G01 X12.3720Y13.5798
G01 X12.1510Y13.2490
G01 X11.8202Y13.0280
G01 X11.5285Y12.9700
G01 X11.3315Y12.9700
G01 X11.0398Y13.0280
G01 X10.7090Y13.2490
G01 X10.4880Y13.5798
G01 X10.4104Y13.9700
G01 X10.4880Y14.3602
G01 X10.7090Y14.6910
G01 X10.8236Y14.7675
G01 X10.8355Y14.7762
G01 X10.8539Y14.7924
G01 X10.8701Y14.8108
G01 X10.8789Y14.8228
G01 X10.8865Y14.8353
G01 X10.8963Y14.8549
G01 X10.9052Y14.8805
G01 X10.9082Y14.8926
G01 X10.9109Y14.9093
G01 X10.9125Y14.9338
G01 X10.9124Y17.0674
G01 X10.9115Y17.0823
G01 X10.9095Y17.0967
G01 X10.9040Y17.1203
G01 X10.8963Y17.1414
G01 X10.8865Y17.1610
G01 X10.8760Y17.1776
G01 X10.8657Y17.1910
G01 X10.8573Y17.2004
G01 X10.8410Y17.2157
G01 X10.8235Y17.2289
G01 X10.8044Y17.2401
G01 X10.7935Y17.2453
G01 X10.7703Y17.2540
G01 X10.7537Y17.2582
G01 X10.7370Y17.2609
G01 X10.7125Y17.2625
G01 X4.7422Y17.2625
G01 X4.7177Y17.2609
G01 X4.7010Y17.2582
G01 X4.6844Y17.2540
G01 X4.6612Y17.2453
G01 X4.6503Y17.2401
G01 X4.6312Y17.2289
G01 X4.6137Y17.2157
G01 X4.6008Y17.2039
G01 X2.4811Y15.0842
G01 X2.4693Y15.0713
G01 X2.4561Y15.0538
G01 X2.4449Y15.0347
G01 X2.4397Y15.0238
G01 X2.4310Y15.0006
G01 X2.4268Y14.9840
G01 X2.4235Y14.9626
G01 X2.4225Y14.9428
G01 X2.4225Y12.4949
G01 X2.4235Y12.4751
G01 X2.4268Y12.4537
G01 X2.4310Y12.4371
G01 X2.4387Y12.4160
G01 X2.4449Y12.4030
G01 X2.4561Y12.3838
G01 X2.4693Y12.3664
G01 X2.4811Y12.3535
G01 X2.4940Y12.3416
G01 X2.5115Y12.3285
G01 X2.5306Y12.3172
G01 X2.5436Y12.3111
G01 X2.5647Y12.3034
G01 X2.5813Y12.2992
G01 X2.6027Y12.2959
G01 X2.6225Y12.2949
G01 X2.6423Y12.2959
G01 X2.6637Y12.2992
G01 X2.6803Y12.3034
G01 X2.7035Y12.3121
G01 X2.7210Y12.3209
G01 X2.7335Y12.3285
G01 X2.7455Y12.3373
G01 X2.7639Y12.3535
G01 X2.7757Y12.3664
G01 X2.7888Y12.3838
G01 X2.8158Y12.4242
G01 X2.8820Y12.4684
G01 X2.9797Y12.4878
G01 X3.0925Y12.4878
G01 X3.1170Y12.4894
G01 X3.1337Y12.4921
G01 X3.1503Y12.4964
G01 X3.1714Y12.5041
G01 X3.1844Y12.5102
G01 X3.2035Y12.5215
G01 X3.2155Y12.5302
G01 X3.2339Y12.5464
G01 X3.2439Y12.5572
G01 X3.2560Y12.5727
G01 X3.2665Y12.5893
G01 X3.2790Y12.6159
G01 X3.2840Y12.6301
G01 X3.2882Y12.6466
G01 X3.2915Y12.6681
G01 X3.2924Y12.6829
G01 X3.2924Y12.8159
G01 X3.2915Y12.8307
G01 X3.2895Y12.8452
G01 X3.2852Y12.8643
G01 X3.2763Y12.8899
G01 X3.2701Y12.9028
G01 X3.2589Y12.9220
G01 X3.2457Y12.9395
G01 X3.2339Y12.9524
G01 X3.2210Y12.9642
G01 X3.2059Y12.9756
G01 X3.1616Y13.0420
G01 X3.1422Y13.1397
G01 X3.1422Y14.8003
G01 X3.1616Y14.8980
G01 X3.2058Y14.9642
G01 X3.2720Y15.0084
G01 X3.3697Y15.0278
G01 X5.3303Y15.0278
G01 X5.4280Y15.0084
G01 X5.4942Y14.9642
G01 X5.5384Y14.8980
G01 X5.5578Y14.8003
G01 X5.5578Y13.1397
G01 X5.5384Y13.0420
G01 X5.4942Y12.9758
G01 X5.4280Y12.9316
G01 X5.3303Y12.9122
G01 X4.5275Y12.9122
G01 X4.5077Y12.9112
G01 X4.4863Y12.9079
G01 X4.4648Y12.9020
G01 X4.4486Y12.8959
G01 X4.4356Y12.8898
G01 X4.4124Y12.8756
G01 X4.3990Y12.8654
G01 X4.3896Y12.8570
G01 X4.3743Y12.8407
G01 X4.3586Y12.8191
G01 X4.3499Y12.8040
G01 X4.3437Y12.7910
G01 X4.3360Y12.7699
G01 X4.3318Y12.7534
G01 X4.3291Y12.7366
G01 X4.3275Y12.7122
G01 X4.3275Y12.6878
G01 X4.3285Y12.6681
G01 X4.3318Y12.6466
G01 X4.3348Y12.6345
G01 X4.3437Y12.6090
G01 X4.3499Y12.5960
G01 X4.3611Y12.5768
G01 X4.3761Y12.5572
G01 X4.3861Y12.5464
G01 X4.3990Y12.5346
G01 X4.4165Y12.5215
G01 X4.4376Y12.5092
G01 X4.4486Y12.5041
G01 X4.4648Y12.4980
G01 X4.4863Y12.4921
G01 X4.5077Y12.4888
G01 X4.5226Y12.4880
G01 X4.6403Y12.4878
G01 X4.7380Y12.4684
G01 X4.8042Y12.4242
G01 X4.8484Y12.3580
G01 X4.8678Y12.2603
G01 X4.8678Y10.5997
G01 X4.8484Y10.5020
G01 X4.8042Y10.4358
G01 X4.7380Y10.3916
G01 X4.6403Y10.3722
G01 X2.9797Y10.3722
G01 X2.8820Y10.3916
G01 X2.8158Y10.4358
G01 X2.7888Y10.4762
G01 X2.7757Y10.4936
G01 X2.7639Y10.5065
G01 X2.7531Y10.5165
G01 X2.7335Y10.5315
G01 X2.7144Y10.5428
G01 X2.7035Y10.5479
G01 X2.6803Y10.5566
G01 X2.6637Y10.5608
G01 X2.6470Y10.5636
G01 X2.6225Y10.5651
G01 X2.5980Y10.5636
G01 X2.5813Y10.5608
G01 X2.5647Y10.5566
G01 X2.5436Y10.5489
G01 X2.5306Y10.5428
G01 X2.5155Y10.5340
G01 X2.4940Y10.5184
G01 X2.4777Y10.5030
G01 X2.4693Y10.4936
G01 X2.4590Y10.4803
G01 X2.4449Y10.4570
G01 X2.4360Y10.4371
G01 X2.4310Y10.4229
G01 X2.4274Y10.4089
G01 X2.4235Y10.3849
G01 X2.4225Y10.3651
G01 X2.4226Y9.4201
G01 X2.4235Y9.4053
G01 X2.4268Y9.3838
G01 X2.4310Y9.3672
G01 X2.4387Y9.3461
G01 X2.4449Y9.3331
G01 X2.4561Y9.3140
G01 X2.4693Y9.2965
G01 X2.4811Y9.2836
G01 X2.4940Y9.2718
G01 X2.5074Y9.2615
G01 X2.5326Y9.2464
G01 X2.5436Y9.2412
G01 X2.5647Y9.2335
G01 X2.5813Y9.2293
G01 X2.6027Y9.2260
G01 X2.6225Y9.2250
G01 X2.7254Y9.2250
G01 X2.7454Y9.2260
G01 X2.7651Y9.2290
G01 X2.7840Y9.2338
G01 X2.8053Y9.2417
G01 X2.8264Y9.2525
G01 X2.8423Y9.2628
G01 X2.8513Y9.2697
G01 X2.8729Y9.2900
G01 X2.8861Y9.3060
G01 X2.8948Y9.3187
G01 X2.9024Y9.3320
G01 X2.9142Y9.3593
G01 X2.9173Y9.3689
G01 X2.9220Y9.3885
G01 X2.9236Y9.3985
G01 X2.9252Y9.4186
G01 X2.9242Y9.4461
G01 X2.9840Y9.5356
G01 X3.1850Y9.7051
G01 X3.1850Y9.6043
G01 X3.1382Y9.5618
G01 X3.0788Y9.4964
G01 X3.0229Y9.4218
G01 X2.9709Y9.3354
G01 X2.9305Y9.2490
G01 X2.9008Y9.1655
G01 X2.8787Y9.0775
G01 X2.8646Y8.9833
G01 X2.8600Y8.8900
G01 X2.8646Y8.7967
G01 X2.8787Y8.7025
G01 X2.9008Y8.6145
G01 X2.9305Y8.5310
G01 X2.9709Y8.4446
G01 X3.0229Y8.3582
G01 X3.0788Y8.2836
G01 X3.1382Y8.2182
G01 X3.1850Y8.1757
G01 X3.1850Y8.0749
G01 X2.9840Y8.2444
G01 X2.9242Y8.3339
G01 X2.9252Y8.3614
G01 X2.9236Y8.3815
G01 X2.9220Y8.3915
G01 X2.9173Y8.4111
G01 X2.9142Y8.4207
G01 X2.9024Y8.4480
G01 X2.8948Y8.4613
G01 X2.8861Y8.4740
G01 X2.8729Y8.4900
G01 X2.8513Y8.5103
G01 X2.8423Y8.5172
G01 X2.8264Y8.5275
G01 X2.8053Y8.5383
G01 X2.7840Y8.5462
G01 X2.7651Y8.5510
G01 X2.7454Y8.5540
G01 X2.7254Y8.5550
G01 X2.6225Y8.5550
G01 X2.6027Y8.5540
G01 X2.5813Y8.5507
G01 X2.5647Y8.5465
G01 X2.5436Y8.5388
G01 X2.5326Y8.5336
G01 X2.5074Y8.5185
G01 X2.4940Y8.5082
G01 X2.4811Y8.4964
G01 X2.4693Y8.4835
G01 X2.4561Y8.4660
G01 X2.4449Y8.4469
G01 X2.4387Y8.4339
G01 X2.4310Y8.4128
G01 X2.4268Y8.3962
G01 X2.4235Y8.3747
G01 X2.4226Y8.3599
G01 X2.4225Y7.2822
G01 X2.4235Y7.2624
G01 X2.4255Y7.2480
G01 X2.4327Y7.2195
G01 X2.4387Y7.2033
G01 X2.4449Y7.1903
G01 X2.4561Y7.1712
G01 X2.4649Y7.1592
G01 X2.4811Y7.1408
G01 X2.6651Y6.9567
G01 X2.6780Y6.9449
G01 X2.6955Y6.9318
G01 X2.7147Y6.9205
G01 X2.7346Y6.9116
G01 X2.7488Y6.9067
G01 X2.7724Y6.9012
G01 X2.7918Y6.8988
G01 X2.8114Y6.8983
G01 X2.8263Y6.8991
G01 X2.8407Y6.9012
G01 X2.8693Y6.9083
G01 X2.8854Y6.9144
G01 X2.8984Y6.9205
G01 X2.9176Y6.9318
G01 X2.9296Y6.9405
G01 X2.9480Y6.9567
G01 X2.9598Y6.9696
G01 X2.9700Y6.9830
G01 X3.0530Y7.1070
G01 X3.4003Y7.3391
G01 X3.7066Y7.4000
G01 X3.9134Y7.4000
G01 X4.2197Y7.3391
G01 X4.5670Y7.1070
G01 X4.7991Y6.7597
G01 X4.8806Y6.3500
G01 X4.7991Y5.9403
G01 X4.5670Y5.5930
G01 X4.3214Y5.4289
G01 X4.3019Y5.4140
G01 X4.2911Y5.4040
G01 X4.2793Y5.3911
G01 X4.2661Y5.3736
G01 X4.2585Y5.3611
G01 X4.2460Y5.3345
G01 X4.2410Y5.3203
G01 X4.2368Y5.3038
G01 X4.2335Y5.2823
G01 X4.2325Y5.2626
G01 X4.2326Y4.4279
G01 X4.2335Y4.4131
G01 X4.2355Y4.3987
G01 X4.2410Y4.3751
G01 X4.2487Y4.3540
G01 X4.2585Y4.3343
G01 X4.2690Y4.3177
G01 X4.2793Y4.3043
G01 X4.2877Y4.2950
G01 X4.3040Y4.2796
G01 X4.3174Y4.2694
G01 X4.3340Y4.2589
G01 X4.3536Y4.2491
G01 X4.3747Y4.2414
G01 X4.3913Y4.2371
G01 X4.4127Y4.2338
G01 X4.4325Y4.2328
G01 X4.6953Y4.2328
G01 X4.7930Y4.2134
G01 X4.8592Y4.1692
G01 X4.9034Y4.1030
G01 X4.9228Y4.0053
G01 X4.9228Y2.3447
G01 X4.9034Y2.2470
G01 X4.8592Y2.1808
G01 X4.7930Y2.1366
G01 X4.6953Y2.1172
G01 X2.7347Y2.1172
G01 X2.6370Y2.1366
G01 X2.5708Y2.1808
G01 X2.5266Y2.2470
G01 X2.5072Y2.3447
G01 X2.5072Y4.0053
G01 X2.5266Y4.1030
G01 X2.5708Y4.1692
G01 X2.6370Y4.2134
G01 X2.7347Y4.2328
G01 X2.9975Y4.2328
G01 X3.0173Y4.2338
G01 X3.0413Y4.2378
G01 X3.0602Y4.2430
G01 X3.0785Y4.2500
G01 X3.0894Y4.2552
G01 X3.1045Y4.2639
G01 X3.1205Y4.2752
G01 X3.1389Y4.2914
G01 X3.1507Y4.3043
G01 X3.1639Y4.3218
G01 X3.1751Y4.3410
G01 X3.1840Y4.3609
G01 X3.1890Y4.3751
G01 X3.1926Y4.3890
G01 X3.1965Y4.4131
G01 X3.1975Y4.4328
G01 X3.1975Y5.3895
G01 X3.1965Y5.4093
G01 X3.1932Y5.4307
G01 X3.1902Y5.4429
G01 X3.1813Y5.4684
G01 X3.1715Y5.4881
G01 X3.1639Y5.5006
G01 X3.1551Y5.5125
G01 X3.1389Y5.5310
G01 X3.1205Y5.5472
G01 X3.0530Y5.5930
G01 X2.9524Y5.7436
G01 X2.9437Y5.7555
G01 X2.9275Y5.7739
G01 X2.9146Y5.7857
G01 X2.8971Y5.7989
G01 X2.8846Y5.8065
G01 X2.8649Y5.8163
G01 X2.8438Y5.8240
G01 X2.8202Y5.8295
G01 X2.8058Y5.8315
G01 X2.7910Y5.8324
G01 X2.6058Y5.8324
G01 X2.5909Y5.8315
G01 X2.5765Y5.8295
G01 X2.5400Y5.8224
G01 X2.3381Y5.8625
G01 X2.1669Y5.9769
G01 X2.1403Y6.0156
G01 X2.1241Y6.0340
G01 X1.5890Y6.5691
G01 X1.5706Y6.5853
G01 X1.5319Y6.6119
G01 X1.4175Y6.7831
G01 X1.3774Y6.9850
G01 X1.3859Y7.0312
G01 X1.3875Y7.0557
G01 X1.3875Y15.1693
G01 X1.3859Y15.1938
G01 X1.3774Y15.2400
G01 X1.4175Y15.4419
G01 X1.5319Y15.6131
G01 X1.5706Y15.6397
G01 X1.5890Y15.6559
G01 X4.0291Y18.0960
G01 X4.0453Y18.1144
G01 X4.0719Y18.1531
G01 X4.2431Y18.2675
G01 X4.4450Y18.3076
G01 X4.4912Y18.2991
G01 X4.5157Y18.2975
G01 X11.3593Y18.2975
G01 X11.3838Y18.2991
G01 X11.4300Y18.3076
G01 X11.4762Y18.2991
G01 X11.5007Y18.2975
G01 X20.6311Y18.2976
G01 X20.6459Y18.2985
G01 X20.6604Y18.3005
G01 X20.6889Y18.3077
G01 X20.7051Y18.3137
G01 X20.7181Y18.3199
G01 X20.7372Y18.3311
G01 X20.7492Y18.3399
G01 X20.7676Y18.3561
G01 X20.7838Y18.3745
G01 X20.7925Y18.3864
G01 X20.8690Y18.5010
G01 X21.1998Y18.7220
G01 X21.4915Y18.7800
G01 X21.6885Y18.7800
G01 X21.9802Y18.7220
G01 X22.3110Y18.5010
G01 X22.3875Y18.3864
G01 X22.3962Y18.3745
G01 X22.4124Y18.3561
G01 X22.4308Y18.3399
G01 X22.4428Y18.3311
G01 X22.4553Y18.3235
G01 X22.4749Y18.3137
G01 X22.5005Y18.3048
G01 X22.5126Y18.3018
G01 X22.5293Y18.2991
G01 X22.5538Y18.2975
G01 X22.9710Y18.2975
G01 X22.9907Y18.2985
G01 X23.0122Y18.3018
G01 X23.0287Y18.3060
G01 X23.0499Y18.3137
G01 X23.0628Y18.3199
G01 X23.0820Y18.3311
G01 X23.0995Y18.3443
G01 X23.1124Y18.3561
G01 X23.1242Y18.3690
G01 X23.1356Y18.3841
G01 X23.2020Y18.4284
G01 X23.2997Y18.4478
G01 X24.9603Y18.4478
G01 X25.0580Y18.4284
G01 X25.1242Y18.3842
G01 X25.1424Y18.3581
G01 X25.1621Y18.3363
G01 X25.1715Y18.3278
G01 X25.1890Y18.3147
G01 X25.2081Y18.3034
G01 X25.2190Y18.2983
G01 X25.2422Y18.2896
G01 X25.2658Y18.2841
G01 X25.2802Y18.2820
G01 X25.2951Y18.2812
G01 X25.3198Y18.2820
G01 X25.3412Y18.2854
G01 X25.3578Y18.2896
G01 X25.3789Y18.2973
G01 X25.3899Y18.3025
G01 X25.4151Y18.3176
G01 X25.4285Y18.3278
G01 X25.4414Y18.3396
G01 X25.4532Y18.3525
G01 X25.4635Y18.3659
G01 X25.4786Y18.3912
G01 X25.4838Y18.4022
G01 X25.4915Y18.4233
G01 X25.4957Y18.4399
G01 X25.4990Y18.4613
G01 X25.5000Y18.4811
G01 X25.5000Y19.8450
G01 X25.4984Y19.8695
G01 X25.4957Y19.8862
G01 X25.4915Y19.9028
G01 X25.4828Y19.9260
G01 X25.4776Y19.9369
G01 X25.4664Y19.9560
G01 X25.4514Y19.9756
G01 X25.4414Y19.9864
G01 X25.4306Y19.9964
G01 X25.4110Y20.0114
G01 X25.3919Y20.0226
G01 X25.3720Y20.0315
G01 X25.3578Y20.0365
G01 X25.3438Y20.0401
G01 X25.3198Y20.0440
G01 X25.3000Y20.0450
G01 X2.7367Y20.0450
G01 X2.7123Y20.0434
G01 X2.6955Y20.0407
G01 X2.6790Y20.0365
G01 X2.6557Y20.0278
G01 X2.6449Y20.0226
G01 X2.6257Y20.0114
G01 X2.6082Y19.9982
G01 X2.5953Y19.9864
G01 X0.3336Y17.7247
G01 X0.3218Y17.7118
G01 X0.3115Y17.6984
G01 X0.2974Y17.6751
G01 X0.2902Y17.6598
G01 X0.2836Y17.6413
G01 X0.2789Y17.6224
G01 X0.2766Y17.6077
G01 X0.2750Y17.5832
G01 X0.2750Y2.7368
G01 X0.2760Y2.7170
G01 X0.2793Y2.6956
G01 X0.2835Y2.6790
G01 X0.2912Y2.6579
G01 X0.2974Y2.6449
G01 X0.3086Y2.6257
G01 X0.3218Y2.6082
G01 X0.3303Y2.5990
G00 Z2.0000
G00 X1.6065Y6.6934
G01 Z-0.2000
G01 X2.2448Y6.0548
G01 X2.2735Y6.0286
G01 X2.3081Y6.0028
G01 X2.3456Y5.9805
G01 X2.3848Y5.9625
G01 X2.4191Y5.9504
G01 X2.4538Y5.9416
G01 X2.4989Y5.9345
G01 X2.5400Y5.9325
G01 X2.9577Y5.9325
G01 X2.9746Y5.8979
G01 X3.0200Y5.8223
G01 X3.0788Y5.7436
G01 X3.1382Y5.6782
G01 X3.2036Y5.6188
G01 X3.2782Y5.5629
G01 X3.2975Y5.5508
G01 X3.2975Y4.1250
G01 X2.7150Y4.1250
G01 X2.7046Y4.1245
G01 X2.6942Y4.1228
G01 X2.6841Y4.1201
G01 X2.6744Y4.1164
G01 X2.6650Y4.1116
G01 X2.6562Y4.1059
G01 X2.6481Y4.0993
G01 X2.6407Y4.0919
G01 X2.6341Y4.0838
G01 X2.6284Y4.0750
G01 X2.6236Y4.0656
G01 X2.6199Y4.0559
G01 X2.6172Y4.0458
G01 X2.6155Y4.0354
G01 X2.6150Y4.0250
G01 X2.6150Y2.3250
G01 X2.6155Y2.3146
G01 X2.6172Y2.3042
G01 X2.6199Y2.2941
G01 X2.6236Y2.2844
G01 X2.6284Y2.2750
G01 X2.6341Y2.2662
G01 X2.6407Y2.2581
G01 X2.6481Y2.2507
G01 X2.6562Y2.2441
G01 X2.6650Y2.2384
G01 X2.6744Y2.2336
G01 X2.6841Y2.2299
G01 X2.6942Y2.2272
G01 X2.7046Y2.2255
G01 X2.7150Y2.2250
G01 X4.7150Y2.2250
G01 X4.7254Y2.2255
G01 X4.7358Y2.2272
G01 X4.7459Y2.2299
G01 X4.7556Y2.2336
G01 X4.7650Y2.2384
G01 X4.7738Y2.2441
G01 X4.7819Y2.2507
G01 X4.7893Y2.2581
G01 X4.7959Y2.2662
G01 X4.8016Y2.2750
G01 X4.8064Y2.2844
G01 X4.8101Y2.2941
G01 X4.8128Y2.3042
G01 X4.8145Y2.3146
G01 X4.8150Y2.3250
G01 X4.8150Y4.0250
G01 X4.8145Y4.0354
G01 X4.8128Y4.0458
G01 X4.8101Y4.0559
G01 X4.8064Y4.0656
G01 X4.8016Y4.0750
G01 X4.7959Y4.0838
G01 X4.7893Y4.0919
G01 X4.7819Y4.0993
G01 X4.7738Y4.1059
G01 X4.7650Y4.1116
G01 X4.7556Y4.1164
G01 X4.7459Y4.1201
G01 X4.7358Y4.1228
G01 X4.7254Y4.1245
G01 X4.7150Y4.1250
G01 X4.1325Y4.1250
G01 X4.1325Y5.4575
G01 X4.1759Y5.4733
G01 X4.2554Y5.5109
G01 X4.3336Y5.5575
G01 X4.4143Y5.6170
G01 X4.4818Y5.6782
G01 X4.5430Y5.7457
G01 X4.6000Y5.8223
G01 X4.6491Y5.9046
G01 X4.6895Y5.9910
G01 X4.7204Y6.0790
G01 X4.7413Y6.1625
G01 X4.7548Y6.2520
G01 X4.7600Y6.3500
G01 X4.7558Y6.4382
G01 X4.7413Y6.5375
G01 X4.7192Y6.6255
G01 X4.6867Y6.7159
G01 X4.6491Y6.7954
G01 X4.6000Y6.8777
G01 X4.5412Y6.9564
G01 X4.4782Y7.0251
G01 X4.4143Y7.0830
G01 X4.3418Y7.1371
G01 X4.2554Y7.1891
G01 X4.1759Y7.2267
G01 X4.0855Y7.2592
G01 X3.9905Y7.2826
G01 X3.9033Y7.2954
G01 X3.8100Y7.3000
G01 X3.7167Y7.2954
G01 X3.6295Y7.2826
G01 X3.5296Y7.2576
G01 X3.4441Y7.2267
G01 X3.3646Y7.1891
G01 X3.2782Y7.1371
G01 X3.2057Y7.0830
G01 X3.1382Y7.0218
G01 X3.0770Y6.9543
G01 X3.0229Y6.8818
G01 X2.9746Y6.8021
G01 X2.9577Y6.7675
G01 X2.7129Y6.7675
G01 X2.3225Y7.1579
G01 X2.3225Y15.0671
G01 X4.6179Y17.3625
G01 X11.0125Y17.3625
G01 X11.0125Y14.7671
G01 X11.0015Y14.7613
G01 X10.9260Y14.7155
G01 X10.8574Y14.6643
G01 X10.7936Y14.6064
G01 X10.7357Y14.5426
G01 X10.6845Y14.4740
G01 X10.6350Y14.3918
G01 X10.5995Y14.3168
G01 X10.5703Y14.2359
G01 X10.5478Y14.1478
G01 X10.5340Y14.0533
G01 X10.5300Y13.9700
G01 X10.5343Y13.8816
G01 X10.5478Y13.7922
G01 X10.5687Y13.7090
G01 X10.5995Y13.6232
G01 X10.6350Y13.5482
G01 X10.6816Y13.4701
G01 X10.7357Y13.3974
G01 X10.7936Y13.3336
G01 X10.8553Y13.2775
G01 X10.9301Y13.2216
G01 X11.0082Y13.1750
G01 X11.0832Y13.1395
G01 X11.1641Y13.1103
G01 X11.2593Y13.0865
G01 X11.3416Y13.0743
G01 X11.4349Y13.0701
G01 X11.5184Y13.0743
G01 X11.6078Y13.0878
G01 X11.6910Y13.1087
G01 X11.7768Y13.1395
G01 X11.8518Y13.1750
G01 X11.9299Y13.2216
G01 X12.0026Y13.2757
G01 X12.0628Y13.3302
G01 X12.1287Y13.4029
G01 X12.1784Y13.4701
G01 X12.2259Y13.5501
G01 X12.2605Y13.6232
G01 X12.2913Y13.7090
G01 X12.3122Y13.7922
G01 X12.3257Y13.8816
G01 X12.3300Y13.9700
G01 X12.3260Y14.0533
G01 X12.3122Y14.1478
G01 X12.2897Y14.2359
G01 X12.2605Y14.3168
G01 X12.2250Y14.3918
G01 X12.1755Y14.4740
G01 X12.1243Y14.5426
G01 X12.0664Y14.6064
G01 X12.0026Y14.6643
G01 X11.9340Y14.7155
G01 X11.8585Y14.7613
G01 X11.8475Y14.7671
G01 X11.8475Y17.3625
G01 X20.7929Y17.3625
G01 X20.7987Y17.3515
G01 X20.8416Y17.2801
G01 X20.8975Y17.2053
G01 X20.9536Y17.1436
G01 X21.0153Y17.0875
G01 X21.0941Y17.0291
G01 X21.1682Y16.9850
G01 X21.2411Y16.9505
G01 X21.3290Y16.9187
G01 X21.4122Y16.8978
G01 X21.4969Y16.8849
G01 X21.5900Y16.8800
G01 X21.6831Y16.8849
G01 X21.7678Y16.8978
G01 X21.8510Y16.9187
G01 X21.9389Y16.9505
G01 X22.0118Y16.9850
G01 X22.0859Y17.0291
G01 X22.1647Y17.0875
G01 X22.2264Y17.1436
G01 X22.2825Y17.2053
G01 X22.3384Y17.2801
G01 X22.3813Y17.3515
G01 X22.3871Y17.3625
G01 X23.1800Y17.3625
G01 X23.1800Y16.2400
G01 X23.1805Y16.2296
G01 X23.1822Y16.2192
G01 X23.1849Y16.2091
G01 X23.1886Y16.1994
G01 X23.1934Y16.1900
G01 X23.1991Y16.1812
G01 X23.2057Y16.1731
G01 X23.2131Y16.1657
G01 X23.2212Y16.1591
G01 X23.2300Y16.1534
G01 X23.2394Y16.1486
G01 X23.2491Y16.1449
G01 X23.2592Y16.1422
G01 X23.2696Y16.1405
G01 X23.2800Y16.1400
G01 X24.9800Y16.1400
G01 X24.9904Y16.1405
G01 X25.0008Y16.1422
G01 X25.0109Y16.1449
G01 X25.0206Y16.1486
G01 X25.0300Y16.1534
G01 X25.0388Y16.1591
G01 X25.0469Y16.1657
G01 X25.0543Y16.1731
G01 X25.0609Y16.1812
G01 X25.0666Y16.1900
G01 X25.0714Y16.1994
G01 X25.0751Y16.2091
G01 X25.0778Y16.2192
G01 X25.0795Y16.2296
G01 X25.0800Y16.2400
G01 X25.0800Y18.2400
G01 X25.0795Y18.2504
G01 X25.0778Y18.2608
G01 X25.0751Y18.2709
G01 X25.0714Y18.2806
G01 X25.0666Y18.2900
G01 X25.0609Y18.2988
G01 X25.0543Y18.3069
G01 X25.0469Y18.3143
G01 X25.0388Y18.3209
G01 X25.0300Y18.3266
G01 X25.0206Y18.3314
G01 X25.0109Y18.3351
G01 X25.0008Y18.3378
G01 X24.9904Y18.3395
G01 X24.9800Y18.3400
G01 X23.2800Y18.3400
G01 X23.2696Y18.3395
G01 X23.2592Y18.3378
G01 X23.2491Y18.3351
G01 X23.2394Y18.3314
G01 X23.2300Y18.3266
G01 X23.2212Y18.3209
G01 X23.2131Y18.3143
G01 X23.2057Y18.3069
G01 X23.1991Y18.2988
G01 X23.1934Y18.2900
G01 X23.1886Y18.2806
G01 X23.1849Y18.2709
G01 X23.1822Y18.2608
G01 X23.1805Y18.2504
G01 X23.1800Y18.2400
G01 X23.1800Y18.1975
G01 X22.3871Y18.1975
G01 X22.3813Y18.2085
G01 X22.3384Y18.2799
G01 X22.2825Y18.3547
G01 X22.2264Y18.4164
G01 X22.1647Y18.4725
G01 X22.0859Y18.5309
G01 X22.0118Y18.5750
G01 X21.9389Y18.6095
G01 X21.8510Y18.6413
G01 X21.7678Y18.6622
G01 X21.6831Y18.6751
G01 X21.5900Y18.6800
G01 X21.4969Y18.6751
G01 X21.4122Y18.6622
G01 X21.3290Y18.6413
G01 X21.2411Y18.6095
G01 X21.1682Y18.5750
G01 X21.0941Y18.5309
G01 X21.0153Y18.4725
G01 X20.9536Y18.4164
G01 X20.8975Y18.3547
G01 X20.8416Y18.2799
G01 X20.7987Y18.2085
G01 X20.7929Y18.1975
G01 X4.4450Y18.1975
G01 X4.4039Y18.1955
G01 X4.3588Y18.1884
G01 X4.3241Y18.1796
G01 X4.2898Y18.1675
G01 X4.2506Y18.1495
G01 X4.2090Y18.1243
G01 X4.1785Y18.1014
G01 X4.1498Y18.0752
G01 X1.6098Y15.5352
G01 X1.5836Y15.5065
G01 X1.5607Y15.4760
G01 X1.5355Y15.4344
G01 X1.5203Y15.4021
G01 X1.5070Y15.3659
G01 X1.4960Y15.3236
G01 X1.4895Y15.2811
G01 X1.4875Y15.2400
G01 X1.4875Y6.9850
G01 X1.4895Y6.9439
G01 X1.4960Y6.9014
G01 X1.5054Y6.8641
G01 X1.5203Y6.8229
G01 X1.5355Y6.7906
G01 X1.5578Y6.7531
G01 X1.5836Y6.7185
G01 X1.6065Y6.6934
G00 Z2.0000
G00 X2.5225Y9.0378
G01 Z-0.2000
G01 X2.5225Y8.7422
G01 X2.5379Y8.7459
G01 X2.5590Y8.7498
G01 X2.5828Y8.7530
G01 X2.6225Y8.7550
G01 X2.6685Y8.7550
G01 X2.6656Y8.7768
G01 X2.6645Y8.7920
G01 X2.6600Y8.8900
G01 X2.6645Y8.9880
G01 X2.6656Y9.0032
G01 X2.6685Y9.0250
G01 X2.6225Y9.0250
G01 X2.5828Y9.0270
G01 X2.5590Y9.0302
G01 X2.5379Y9.0341
G01 X2.5225Y9.0378
G00 Z2.0000
G00 X2.4225Y9.2015
G01 Z-0.2000
G01 X2.4225Y8.5785
G01 X2.4399Y8.5929
G01 X2.4560Y8.6046
G01 X2.4859Y8.6221
G01 X2.5030Y8.6301
G01 X2.5261Y8.6390
G01 X2.5596Y8.6483
G01 X2.5928Y8.6535
G01 X2.6127Y8.6548
G01 X2.7254Y8.6550
G01 X2.7554Y8.6535
G01 X2.7892Y8.6480
G01 X2.7811Y8.6808
G01 X2.7785Y8.6948
G01 X2.7651Y8.7868
G01 X2.7600Y8.8900
G01 X2.7651Y8.9932
G01 X2.7785Y9.0852
G01 X2.7811Y9.0992
G01 X2.7892Y9.1320
G01 X2.7554Y9.1265
G01 X2.7254Y9.1250
G01 X2.6127Y9.1252
G01 X2.5928Y9.1265
G01 X2.5596Y9.1317
G01 X2.5261Y9.1410
G01 X2.5030Y9.1499
G01 X2.4859Y9.1579
G01 X2.4560Y9.1754
G01 X2.4399Y9.1871
G01 X2.4225Y9.2015
G00 Z2.0000
G00 X4.4350Y9.6043
G01 Z-0.2000
G01 X4.4818Y9.5618
G01 X4.5243Y9.5150
G01 X4.6498Y9.5150
G01 X4.6360Y9.5356
G01 X4.4350Y9.7051
G01 X4.4350Y9.6043
G00 Z2.0000
G00 X4.4350Y8.1757
G01 Z-0.2000
G01 X4.4350Y8.0749
G01 X4.6360Y8.2444
G01 X4.6498Y8.2650
G01 X4.5243Y8.2650
G01 X4.4818Y8.2182
G01 X4.4350Y8.1757
G00 Z2.0000
G00 X6.4574Y8.2550
G01 Z-0.2000
G01 X6.4659Y8.2088
G01 X6.4675Y8.1843
G01 X6.4675Y3.9757
G01 X6.4659Y3.9512
G01 X6.4574Y3.9050
G01 X6.5033Y3.6739
G01 X6.5062Y3.6547
G01 X6.5070Y3.6398
G01 X6.5072Y2.3447
G01 X6.5266Y2.2470
G01 X6.5708Y2.1808
G01 X6.6370Y2.1366
G01 X6.7347Y2.1172
G01 X8.6953Y2.1172
G01 X8.7930Y2.1366
G01 X8.8592Y2.1808
G01 X8.9034Y2.2470
G01 X8.9228Y2.3447
G01 X8.9228Y2.4575
G01 X8.9238Y2.4773
G01 X8.9271Y2.4987
G01 X8.9301Y2.5108
G01 X8.9391Y2.5364
G01 X8.9489Y2.5560
G01 X8.9594Y2.5726
G01 X8.9696Y2.5860
G01 X8.9780Y2.5954
G01 X8.9922Y2.6089
G01 X9.0077Y2.6210
G01 X9.0243Y2.6315
G01 X9.0440Y2.6413
G01 X9.0651Y2.6490
G01 X9.0816Y2.6532
G01 X9.0984Y2.6559
G01 X9.1228Y2.6575
G01 X10.5622Y2.6575
G01 X10.5819Y2.6565
G01 X10.6034Y2.6532
G01 X10.6155Y2.6502
G01 X10.6410Y2.6413
G01 X10.6540Y2.6351
G01 X10.6691Y2.6264
G01 X10.6907Y2.6107
G01 X10.7036Y2.5989
G01 X10.7136Y2.5881
G01 X10.7285Y2.5685
G01 X10.7398Y2.5494
G01 X10.7459Y2.5364
G01 X10.7549Y2.5108
G01 X10.7579Y2.4987
G01 X10.7606Y2.4820
G01 X10.7622Y2.4575
G01 X10.7622Y1.7097
G01 X10.7816Y1.6120
G01 X10.8258Y1.5458
G01 X10.8920Y1.5016
G01 X10.9897Y1.4822
G01 X12.9503Y1.4822
G01 X13.0480Y1.5016
G01 X13.1142Y1.5458
G01 X13.1584Y1.6120
G01 X13.1778Y1.7097
G01 X13.1778Y3.3703
G01 X13.1584Y3.4680
G01 X13.1142Y3.5342
G01 X13.0480Y3.5784
G01 X12.9503Y3.5978
G01 X11.6943Y3.5978
G01 X11.6746Y3.5988
G01 X11.6531Y3.6021
G01 X11.6410Y3.6051
G01 X11.6133Y3.6150
G01 X11.6025Y3.6202
G01 X11.5873Y3.6289
G01 X11.5369Y3.6625
G01 X11.3350Y3.7026
G01 X11.2888Y3.6941
G01 X11.2643Y3.6925
G01 X9.1228Y3.6925
G01 X9.0984Y3.6941
G01 X9.0816Y3.6968
G01 X9.0695Y3.6998
G01 X9.0509Y3.7060
G01 X9.0310Y3.7149
G01 X9.0118Y3.7261
G01 X8.9943Y3.7393
G01 X8.9780Y3.7546
G01 X8.9696Y3.7640
G01 X8.9594Y3.7774
G01 X8.9489Y3.7940
G01 X8.9391Y3.8136
G01 X8.9330Y3.8298
G01 X8.9271Y3.8513
G01 X8.9244Y3.8680
G01 X8.9228Y3.8925
G01 X8.9228Y4.0053
G01 X8.9034Y4.1030
G01 X8.8592Y4.1692
G01 X8.7930Y4.2134
G01 X8.6953Y4.2328
G01 X7.7025Y4.2328
G01 X7.6827Y4.2338
G01 X7.6613Y4.2371
G01 X7.6447Y4.2414
G01 X7.6305Y4.2463
G01 X7.6106Y4.2552
G01 X7.5874Y4.2694
G01 X7.5740Y4.2796
G01 X7.5611Y4.2914
G01 X7.5449Y4.3098
G01 X7.5361Y4.3218
G01 X7.5285Y4.3343
G01 X7.5187Y4.3540
G01 X7.5098Y4.3795
G01 X7.5068Y4.3916
G01 X7.5035Y4.4131
G01 X7.5025Y4.4328
G01 X7.5025Y5.6751
G01 X7.5035Y5.6949
G01 X7.5068Y5.7163
G01 X7.5110Y5.7329
G01 X7.5187Y5.7540
G01 X7.5249Y5.7670
G01 X7.5336Y5.7821
G01 X7.5493Y5.8036
G01 X7.5611Y5.8165
G01 X7.5740Y5.8284
G01 X7.5915Y5.8415
G01 X7.6039Y5.8491
G01 X7.6305Y5.8617
G01 X7.6447Y5.8666
G01 X7.6613Y5.8708
G01 X7.6827Y5.8741
G01 X7.6976Y5.8750
G01 X7.7270Y5.8736
G01 X7.7437Y5.8708
G01 X7.7603Y5.8666
G01 X7.7835Y5.8579
G01 X7.7944Y5.8528
G01 X7.8135Y5.8415
G01 X7.8331Y5.8265
G01 X7.8439Y5.8165
G01 X7.8557Y5.8036
G01 X7.8688Y5.7862
G01 X7.8958Y5.7458
G01 X7.9620Y5.7016
G01 X8.0597Y5.6822
G01 X9.7203Y5.6822
G01 X9.8180Y5.7016
G01 X9.8844Y5.7459
G01 X9.8958Y5.7610
G01 X9.9076Y5.7739
G01 X9.9205Y5.7857
G01 X9.9380Y5.7989
G01 X9.9572Y5.8101
G01 X9.9701Y5.8163
G01 X9.9913Y5.8240
G01 X10.0078Y5.8282
G01 X10.0293Y5.8315
G01 X10.0490Y5.8325
G01 X10.4662Y5.8325
G01 X10.4859Y5.8315
G01 X10.5074Y5.8282
G01 X10.5195Y5.8252
G01 X10.5451Y5.8163
G01 X10.5647Y5.8065
G01 X10.5772Y5.7989
G01 X10.5892Y5.7901
G01 X10.6076Y5.7739
G01 X10.6238Y5.7555
G01 X10.6325Y5.7436
G01 X10.7090Y5.6290
G01 X11.0398Y5.4080
G01 X11.3315Y5.3500
G01 X11.5285Y5.3500
G01 X11.8202Y5.4080
G01 X12.1510Y5.6290
G01 X12.2275Y5.7436
G01 X12.2424Y5.7631
G01 X12.2559Y5.7773
G01 X12.2653Y5.7857
G01 X12.2787Y5.7960
G01 X12.3019Y5.8101
G01 X12.3219Y5.8190
G01 X12.3360Y5.8240
G01 X12.3526Y5.8282
G01 X12.3741Y5.8315
G01 X12.3938Y5.8325
G01 X12.6342Y5.8324
G01 X12.6491Y5.8315
G01 X12.6635Y5.8295
G01 X12.7000Y5.8224
G01 X12.9019Y5.8625
G01 X13.0731Y5.9769
G01 X13.0997Y6.0156
G01 X13.1159Y6.0340
G01 X14.2860Y7.2041
G01 X14.3044Y7.2203
G01 X14.3431Y7.2469
G01 X14.4575Y7.4181
G01 X14.4976Y7.6200
G01 X14.4891Y7.6662
G01 X14.4875Y7.6907
G01 X14.4875Y8.0222
G01 X14.4885Y8.0419
G01 X14.4918Y8.0634
G01 X14.4948Y8.0755
G01 X14.5037Y8.1010
G01 X14.5099Y8.1140
G01 X14.5186Y8.1291
G01 X14.5343Y8.1507
G01 X14.5461Y8.1636
G01 X14.5590Y8.1754
G01 X14.5805Y8.1911
G01 X14.5956Y8.1998
G01 X14.6086Y8.2059
G01 X14.6297Y8.2136
G01 X14.6437Y8.2172
G01 X14.6677Y8.2212
G01 X14.6826Y8.2220
G01 X14.8003Y8.2222
G01 X14.8980Y8.2416
G01 X14.9642Y8.2858
G01 X15.0084Y8.3520
G01 X15.0278Y8.4497
G01 X15.0278Y10.4103
G01 X15.0084Y10.5080
G01 X14.9642Y10.5742
G01 X14.8980Y10.6184
G01 X14.8003Y10.6378
G01 X13.1397Y10.6378
G01 X13.0420Y10.6184
G01 X12.9758Y10.5742
G01 X12.9316Y10.5080
G01 X12.9122Y10.4103
G01 X12.9122Y8.4497
G01 X12.9316Y8.3520
G01 X12.9758Y8.2858
G01 X13.0420Y8.2416
G01 X13.1397Y8.2222
G01 X13.2574Y8.2220
G01 X13.2723Y8.2212
G01 X13.2937Y8.2179
G01 X13.3152Y8.2120
G01 X13.3314Y8.2059
G01 X13.3424Y8.2008
G01 X13.3635Y8.1885
G01 X13.3810Y8.1754
G01 X13.3939Y8.1636
G01 X13.4039Y8.1528
G01 X13.4189Y8.1332
G01 X13.4301Y8.1140
G01 X13.4363Y8.1010
G01 X13.4452Y8.0755
G01 X13.4482Y8.0634
G01 X13.4509Y8.0466
G01 X13.4524Y8.0271
G01 X13.4525Y7.9172
G01 X13.4515Y7.8974
G01 X13.4482Y7.8760
G01 X13.4452Y7.8639
G01 X13.4353Y7.8362
G01 X13.4301Y7.8253
G01 X13.4189Y7.8062
G01 X13.4057Y7.7887
G01 X13.3973Y7.7793
G01 X12.5442Y6.9261
G01 X12.5258Y6.9099
G01 X12.5138Y6.9011
G01 X12.5014Y6.8935
G01 X12.4817Y6.8837
G01 X12.4561Y6.8748
G01 X12.4440Y6.8718
G01 X12.4226Y6.8685
G01 X12.3889Y6.8676
G01 X12.3741Y6.8685
G01 X12.3596Y6.8705
G01 X12.3311Y6.8777
G01 X12.3149Y6.8837
G01 X12.3019Y6.8899
G01 X12.2828Y6.9011
G01 X12.2653Y6.9143
G01 X12.2524Y6.9261
G01 X12.2406Y6.9390
G01 X12.2275Y6.9564
G01 X12.1510Y7.0710
G01 X11.8202Y7.2920
G01 X11.5285Y7.3500
G01 X11.3315Y7.3500
G01 X11.0398Y7.2920
G01 X10.7090Y7.0710
G01 X10.6325Y6.9564
G01 X10.6194Y6.9390
G01 X10.6110Y6.9296
G01 X10.5947Y6.9143
G01 X10.5772Y6.9011
G01 X10.5561Y6.8889
G01 X10.5451Y6.8837
G01 X10.5289Y6.8777
G01 X10.5004Y6.8705
G01 X10.4859Y6.8685
G01 X10.4711Y6.8676
G01 X10.1429Y6.8676
G01 X10.1281Y6.8685
G01 X10.1137Y6.8705
G01 X10.0901Y6.8760
G01 X10.0690Y6.8837
G01 X10.0493Y6.8935
G01 X10.0327Y6.9040
G01 X10.0193Y6.9143
G01 X10.0100Y6.9227
G01 X9.9946Y6.9390
G01 X9.9844Y6.9524
G01 X9.9739Y6.9690
G01 X9.9641Y6.9886
G01 X9.9564Y7.0097
G01 X9.9508Y7.0333
G01 X9.9488Y7.0477
G01 X9.9478Y7.0675
G01 X9.9478Y7.8703
G01 X9.9284Y7.9680
G01 X9.8660Y8.0614
G01 X9.8547Y8.0806
G01 X9.8485Y8.0936
G01 X9.8408Y8.1147
G01 X9.8366Y8.1313
G01 X9.8333Y8.1527
G01 X9.8324Y8.1774
G01 X9.8333Y8.1923
G01 X9.8353Y8.2067
G01 X9.8408Y8.2303
G01 X9.8485Y8.2514
G01 X9.8584Y8.2711
G01 X9.8660Y8.2835
G01 X9.8747Y8.2955
G01 X9.8909Y8.3139
G01 X9.9038Y8.3257
G01 X9.9253Y8.3414
G01 X9.9405Y8.3501
G01 X9.9534Y8.3563
G01 X9.9746Y8.3640
G01 X9.9885Y8.3676
G01 X10.0176Y8.3719
G01 X10.0323Y8.3725
G01 X10.4662Y8.3725
G01 X10.4859Y8.3715
G01 X10.5074Y8.3682
G01 X10.5289Y8.3623
G01 X10.5451Y8.3563
G01 X10.5581Y8.3501
G01 X10.5813Y8.3360
G01 X10.5947Y8.3257
G01 X10.6076Y8.3139
G01 X10.6194Y8.3010
G01 X10.6325Y8.2836
G01 X10.7090Y8.1690
G01 X11.0398Y7.9480
G01 X11.3315Y7.8900
G01 X11.5285Y7.8900
G01 X11.8202Y7.9480
G01 X12.1510Y8.1690
G01 X12.3720Y8.4998
G01 X12.4496Y8.8900
G01 X12.3720Y9.2802
G01 X12.1510Y9.6110
G01 X11.8202Y9.8320
G01 X11.5285Y9.8900
G01 X11.3315Y9.8900
G01 X11.0398Y9.8320
G01 X10.7090Y9.6110
G01 X10.6325Y9.4964
G01 X10.6194Y9.4790
G01 X10.6076Y9.4661
G01 X10.5947Y9.4543
G01 X10.5813Y9.4440
G01 X10.5581Y9.4299
G01 X10.5451Y9.4237
G01 X10.5289Y9.4177
G01 X10.5074Y9.4118
G01 X10.4859Y9.4085
G01 X10.4662Y9.4075
G01 X10.0323Y9.4075
G01 X10.0176Y9.4081
G01 X9.9911Y9.4118
G01 X9.9746Y9.4160
G01 X9.9604Y9.4210
G01 X9.9338Y9.4335
G01 X9.9213Y9.4411
G01 X9.9093Y9.4499
G01 X9.8909Y9.4661
G01 X9.8747Y9.4845
G01 X9.8660Y9.4965
G01 X9.8584Y9.5089
G01 X9.8495Y9.5265
G01 X9.8408Y9.5497
G01 X9.8366Y9.5663
G01 X9.8333Y9.5877
G01 X9.8324Y9.6124
G01 X9.8333Y9.6273
G01 X9.8353Y9.6417
G01 X9.8396Y9.6608
G01 X9.8458Y9.6795
G01 X9.8537Y9.6974
G01 X9.8660Y9.7186
G01 X9.9284Y9.8120
G01 X9.9478Y9.9097
G01 X9.9478Y10.7125
G01 X9.9488Y10.7323
G01 X9.9521Y10.7537
G01 X9.9564Y10.7703
G01 X9.9650Y10.7935
G01 X9.9702Y10.8044
G01 X9.9789Y10.8195
G01 X9.9902Y10.8355
G01 X10.0064Y10.8539
G01 X10.0193Y10.8657
G01 X10.0368Y10.8789
G01 X10.0579Y10.8911
G01 X10.0690Y10.8963
G01 X10.0851Y10.9023
G01 X10.1066Y10.9082
G01 X10.1281Y10.9115
G01 X10.1478Y10.9125
G01 X10.4662Y10.9125
G01 X10.4859Y10.9115
G01 X10.5004Y10.9095
G01 X10.5289Y10.9023
G01 X10.5451Y10.8963
G01 X10.5581Y10.8901
G01 X10.5813Y10.8760
G01 X10.5947Y10.8657
G01 X10.6076Y10.8539
G01 X10.6194Y10.8410
G01 X10.6325Y10.8236
G01 X10.7090Y10.7090
G01 X11.0398Y10.4880
G01 X11.3315Y10.4300
G01 X11.5285Y10.4300
G01 X11.8202Y10.4880
G01 X12.1510Y10.7090
G01 X12.3720Y11.0398
G01 X12.4496Y11.4300
G01 X12.3720Y11.8202
G01 X12.1510Y12.1510
G01 X11.8202Y12.3720
G01 X11.5285Y12.4300
G01 X11.3315Y12.4300
G01 X11.0398Y12.3720
G01 X10.7090Y12.1510
G01 X10.6325Y12.0364
G01 X10.6194Y12.0190
G01 X10.6076Y12.0061
G01 X10.5947Y11.9943
G01 X10.5813Y11.9840
G01 X10.5581Y11.9699
G01 X10.5451Y11.9637
G01 X10.5289Y11.9577
G01 X10.5004Y11.9505
G01 X10.4859Y11.9485
G01 X10.4662Y11.9475
G01 X10.0490Y11.9475
G01 X10.0293Y11.9485
G01 X10.0148Y11.9505
G01 X9.9913Y11.9560
G01 X9.9771Y11.9610
G01 X9.9572Y11.9699
G01 X9.9380Y11.9811
G01 X9.9205Y11.9943
G01 X9.9076Y12.0061
G01 X9.8958Y12.0190
G01 X9.8843Y12.0341
G01 X9.8180Y12.0784
G01 X9.7203Y12.0978
G01 X9.6075Y12.0978
G01 X9.5877Y12.0988
G01 X9.5733Y12.1008
G01 X9.5497Y12.1064
G01 X9.5355Y12.1113
G01 X9.5156Y12.1202
G01 X9.5005Y12.1289
G01 X9.4790Y12.1446
G01 X9.4661Y12.1564
G01 X9.4499Y12.1748
G01 X9.4411Y12.1868
G01 X9.4335Y12.1993
G01 X9.4237Y12.2190
G01 X9.4148Y12.2445
G01 X9.4118Y12.2566
G01 X9.4091Y12.2734
G01 X9.4075Y12.2978
G01 X9.4075Y12.8110
G01 X9.4085Y12.8307
G01 X9.4105Y12.8452
G01 X9.4160Y12.8687
G01 X9.4210Y12.8829
G01 X9.4299Y12.9028
G01 X9.4411Y12.9220
G01 X9.4543Y12.9395
G01 X9.4661Y12.9524
G01 X9.4790Y12.9642
G01 X9.4941Y12.9757
G01 X9.5384Y13.0420
G01 X9.5578Y13.1397
G01 X9.5578Y14.8003
G01 X9.5384Y14.8980
G01 X9.4942Y14.9642
G01 X9.4280Y15.0084
G01 X9.3303Y15.0278
G01 X7.3697Y15.0278
G01 X7.2720Y15.0084
G01 X7.2058Y14.9642
G01 X7.1616Y14.8980
G01 X7.1422Y14.8003
G01 X7.1422Y13.1397
G01 X7.1616Y13.0420
G01 X7.2058Y12.9758
G01 X7.2720Y12.9316
G01 X7.3697Y12.9122
G01 X8.1774Y12.9120
G01 X8.1923Y12.9112
G01 X8.2067Y12.9092
G01 X8.2303Y12.9036
G01 X8.2514Y12.8959
G01 X8.2644Y12.8898
G01 X8.2795Y12.8811
G01 X8.3010Y12.8654
G01 X8.3139Y12.8536
G01 X8.3257Y12.8407
G01 X8.3389Y12.8232
G01 X8.3501Y12.8040
G01 X8.3590Y12.7841
G01 X8.3640Y12.7699
G01 X8.3695Y12.7463
G01 X8.3715Y12.7319
G01 X8.3725Y12.7122
G01 X8.3725Y12.2978
G01 X8.3715Y12.2781
G01 X8.3676Y12.2540
G01 X8.3640Y12.2401
G01 X8.3590Y12.2259
G01 X8.3501Y12.2060
G01 X8.3389Y12.1868
G01 X8.3239Y12.1672
G01 X8.3139Y12.1564
G01 X8.3031Y12.1464
G01 X8.2835Y12.1315
G01 X8.2644Y12.1202
G01 X8.2514Y12.1141
G01 X8.2303Y12.1064
G01 X8.2137Y12.1021
G01 X8.1970Y12.0994
G01 X8.1725Y12.0978
G01 X8.0597Y12.0978
G01 X7.9620Y12.0784
G01 X7.8958Y12.0342
G01 X7.8516Y11.9680
G01 X7.8322Y11.8703
G01 X7.8322Y9.9097
G01 X7.8516Y9.8120
G01 X7.9140Y9.7186
G01 X7.9216Y9.7060
G01 X7.9342Y9.6795
G01 X7.9392Y9.6653
G01 X7.9428Y9.6513
G01 X7.9471Y9.6222
G01 X7.9477Y9.6075
G01 X7.9467Y9.5877
G01 X7.9434Y9.5663
G01 X7.9392Y9.5497
G01 X7.9315Y9.5286
G01 X7.9263Y9.5176
G01 X7.9140Y9.4965
G01 X7.9053Y9.4845
G01 X7.8891Y9.4661
G01 X7.8783Y9.4561
G01 X7.8628Y9.4440
G01 X7.8462Y9.4335
G01 X7.8196Y9.4210
G01 X7.8054Y9.4160
G01 X7.7889Y9.4118
G01 X7.7674Y9.4085
G01 X7.7477Y9.4075
G01 X7.6907Y9.4075
G01 X7.6709Y9.4085
G01 X7.6516Y9.4113
G01 X7.6200Y9.4176
G01 X7.4181Y9.3775
G01 X7.2469Y9.2631
G01 X7.2203Y9.2244
G01 X7.2041Y9.2060
G01 X6.6690Y8.6709
G01 X6.6506Y8.6547
G01 X6.6119Y8.6281
G01 X6.4975Y8.4569
G01 X6.4574Y8.2550
G00 Z2.0000
G00 X7.9711Y9.4075
G01 Z-0.2000
G01 X9.8089Y9.4075
G01 X9.7944Y9.4249
G01 X9.7828Y9.4410
G01 X9.7652Y9.4709
G01 X9.7572Y9.4880
G01 X9.7483Y9.5111
G01 X9.7390Y9.5446
G01 X9.7338Y9.5778
G01 X9.7326Y9.5977
G01 X9.7326Y9.6173
G01 X9.7338Y9.6372
G01 X9.7364Y9.6564
G01 X9.7390Y9.6704
G01 X9.7440Y9.6902
G01 X8.0360Y9.6902
G01 X8.0410Y9.6704
G01 X8.0436Y9.6564
G01 X8.0462Y9.6372
G01 X8.0474Y9.6173
G01 X8.0474Y9.5977
G01 X8.0462Y9.5778
G01 X8.0410Y9.5446
G01 X8.0317Y9.5111
G01 X8.0228Y9.4880
G01 X8.0148Y9.4709
G01 X7.9972Y9.4410
G01 X7.9856Y9.4249
G01 X7.9711Y9.4075
G00 Z2.0000
G00 X8.1349Y9.5075
G01 Z-0.2000
G01 X9.6451Y9.5075
G01 X9.6414Y9.5229
G01 X9.6375Y9.5440
G01 X9.6343Y9.5678
G01 X9.6328Y9.5900
G01 X8.1472Y9.5900
G01 X8.1457Y9.5678
G01 X8.1425Y9.5440
G01 X8.1386Y9.5229
G01 X8.1349Y9.5075
G00 Z2.0000
G00 X9.6451Y8.2725
G01 Z-0.2000
G01 X7.8758Y8.2725
G01 X7.6025Y7.9992
G01 X7.6025Y6.0623
G01 X7.6179Y6.0661
G01 X7.6390Y6.0700
G01 X7.6628Y6.0732
G01 X7.7025Y6.0751
G01 X7.7400Y6.0733
G01 X7.7400Y7.8900
G01 X7.7416Y7.9213
G01 X7.7465Y7.9523
G01 X7.7546Y7.9826
G01 X7.7659Y8.0118
G01 X7.7801Y8.0399
G01 X7.7972Y8.0663
G01 X7.8170Y8.0907
G01 X7.8393Y8.1130
G01 X7.8637Y8.1328
G01 X7.8901Y8.1499
G01 X7.9182Y8.1641
G01 X7.9474Y8.1754
G01 X7.9777Y8.1835
G01 X8.0087Y8.1884
G01 X8.0400Y8.1900
G01 X9.6328Y8.1900
G01 X9.6343Y8.2122
G01 X9.6375Y8.2360
G01 X9.6414Y8.2571
G01 X9.6451Y8.2725
G00 Z2.0000
G00 X9.8089Y8.3725
G01 Z-0.2000
G01 X7.8344Y8.3725
G01 X7.5025Y8.0406
G01 X7.5025Y5.8986
G01 X7.5199Y5.9131
G01 X7.5360Y5.9247
G01 X7.5525Y5.9349
G01 X7.5787Y5.9483
G01 X7.5969Y5.9558
G01 X7.6160Y5.9624
G01 X7.6396Y5.9684
G01 X7.6634Y5.9725
G01 X7.6829Y5.9744
G01 X7.7025Y5.9751
G01 X7.7322Y5.9737
G01 X7.7514Y5.9710
G01 X7.7706Y5.9672
G01 X7.7989Y5.9591
G01 X7.8220Y5.9503
G01 X7.8400Y5.9417
G01 X7.8400Y7.8900
G01 X7.8411Y7.9109
G01 X7.8444Y7.9315
G01 X7.8498Y7.9517
G01 X7.8572Y7.9712
G01 X7.8667Y7.9899
G01 X7.8782Y8.0075
G01 X7.8914Y8.0238
G01 X7.9062Y8.0386
G01 X7.9225Y8.0518
G01 X7.9401Y8.0633
G01 X7.9588Y8.0728
G01 X7.9783Y8.0802
G01 X7.9985Y8.0856
G01 X8.0191Y8.0889
G01 X8.0400Y8.0900
G01 X9.7440Y8.0898
G01 X9.7390Y8.1096
G01 X9.7364Y8.1236
G01 X9.7338Y8.1428
G01 X9.7326Y8.1627
G01 X9.7326Y8.1823
G01 X9.7338Y8.2022
G01 X9.7390Y8.2354
G01 X9.7483Y8.2689
G01 X9.7572Y8.2920
G01 X9.7652Y8.3091
G01 X9.7828Y8.3390
G01 X9.7944Y8.3551
G01 X9.8089Y8.3725
G00 Z2.0000
G00 X11.4251Y10.5301
G01 Z-0.2000
G01 X11.5231Y10.5349
G01 X11.6078Y10.5478
G01 X11.6910Y10.5687
G01 X11.7768Y10.5995
G01 X11.8499Y10.6341
G01 X11.9340Y10.6845
G01 X12.0026Y10.7357
G01 X12.0664Y10.7936
G01 X12.1243Y10.8574
G01 X12.1755Y10.9260
G01 X12.2259Y11.0101
G01 X12.2605Y11.0832
G01 X12.2913Y11.1690
G01 X12.3122Y11.2522
G01 X12.3251Y11.3369
G01 X12.3299Y11.4349
G01 X12.3257Y11.5184
G01 X12.3122Y11.6078
G01 X12.2913Y11.6910
G01 X12.2633Y11.7698
G01 X12.2213Y11.8585
G01 X12.1784Y11.9299
G01 X12.1243Y12.0026
G01 X12.0664Y12.0664
G01 X12.0047Y12.1225
G01 X11.9299Y12.1784
G01 X11.8518Y12.2250
G01 X11.7768Y12.2605
G01 X11.6910Y12.2913
G01 X11.6007Y12.3135
G01 X11.5184Y12.3257
G01 X11.4251Y12.3299
G01 X11.3416Y12.3257
G01 X11.2593Y12.3135
G01 X11.1735Y12.2926
G01 X11.0832Y12.2605
G01 X11.0082Y12.2250
G01 X10.9301Y12.1784
G01 X10.8574Y12.1243
G01 X10.7936Y12.0664
G01 X10.7357Y12.0026
G01 X10.6816Y11.9299
G01 X10.6387Y11.8585
G01 X10.6329Y11.8475
G01 X9.8400Y11.8475
G01 X9.8395Y11.9004
G01 X9.8378Y11.9108
G01 X9.8351Y11.9209
G01 X9.8314Y11.9306
G01 X9.8266Y11.9400
G01 X9.8209Y11.9488
G01 X9.8143Y11.9569
G01 X9.8069Y11.9643
G01 X9.7988Y11.9709
G01 X9.7900Y11.9766
G01 X9.7806Y11.9814
G01 X9.7709Y11.9851
G01 X9.7608Y11.9878
G01 X9.7504Y11.9895
G01 X9.7400Y11.9900
G01 X9.3075Y11.9900
G01 X9.3075Y13.0200
G01 X9.3500Y13.0200
G01 X9.3604Y13.0205
G01 X9.3708Y13.0222
G01 X9.3809Y13.0249
G01 X9.3906Y13.0286
G01 X9.4000Y13.0334
G01 X9.4088Y13.0391
G01 X9.4169Y13.0457
G01 X9.4243Y13.0531
G01 X9.4309Y13.0612
G01 X9.4366Y13.0700
G01 X9.4414Y13.0794
G01 X9.4451Y13.0891
G01 X9.4478Y13.0992
G01 X9.4495Y13.1096
G01 X9.4500Y13.1200
G01 X9.4500Y14.8200
G01 X9.4495Y14.8304
G01 X9.4478Y14.8408
G01 X9.4451Y14.8509
G01 X9.4414Y14.8606
G01 X9.4366Y14.8700
G01 X9.4309Y14.8788
G01 X9.4243Y14.8869
G01 X9.4169Y14.8943
G01 X9.4088Y14.9009
G01 X9.4000Y14.9066
G01 X9.3906Y14.9114
G01 X9.3809Y14.9151
G01 X9.3708Y14.9178
G01 X9.3604Y14.9195
G01 X9.3500Y14.9200
G01 X7.3500Y14.9200
G01 X7.3396Y14.9195
G01 X7.3292Y14.9178
G01 X7.3191Y14.9151
G01 X7.3094Y14.9114
G01 X7.3000Y14.9066
G01 X7.2912Y14.9009
G01 X7.2831Y14.8943
G01 X7.2757Y14.8869
G01 X7.2691Y14.8788
G01 X7.2634Y14.8700
G01 X7.2586Y14.8606
G01 X7.2549Y14.8509
G01 X7.2522Y14.8408
G01 X7.2505Y14.8304
G01 X7.2500Y14.8200
G01 X7.2500Y13.1200
G01 X7.2505Y13.1096
G01 X7.2522Y13.0992
G01 X7.2549Y13.0891
G01 X7.2586Y13.0794
G01 X7.2634Y13.0700
G01 X7.2691Y13.0612
G01 X7.2757Y13.0531
G01 X7.2831Y13.0457
G01 X7.2912Y13.0391
G01 X7.3000Y13.0334
G01 X7.3094Y13.0286
G01 X7.3191Y13.0249
G01 X7.3292Y13.0222
G01 X7.3396Y13.0205
G01 X7.3500Y13.0200
G01 X8.4725Y13.0200
G01 X8.4725Y11.9900
G01 X8.0400Y11.9900
G01 X8.0296Y11.9895
G01 X8.0192Y11.9878
G01 X8.0091Y11.9851
G01 X7.9994Y11.9814
G01 X7.9900Y11.9766
G01 X7.9812Y11.9709
G01 X7.9731Y11.9643
G01 X7.9657Y11.9569
G01 X7.9591Y11.9488
G01 X7.9534Y11.9400
G01 X7.9486Y11.9306
G01 X7.9449Y11.9209
G01 X7.9422Y11.9108
G01 X7.9405Y11.9004
G01 X7.9400Y11.8900
G01 X7.9400Y9.8900
G01 X7.9405Y9.8796
G01 X7.9422Y9.8692
G01 X7.9449Y9.8591
G01 X7.9486Y9.8494
G01 X7.9534Y9.8400
G01 X7.9591Y9.8312
G01 X7.9657Y9.8231
G01 X7.9731Y9.8157
G01 X7.9812Y9.8091
G01 X7.9900Y9.8034
G01 X7.9994Y9.7986
G01 X8.0091Y9.7949
G01 X8.0192Y9.7922
G01 X8.0296Y9.7905
G01 X8.0400Y9.7900
G01 X9.7400Y9.7900
G01 X9.7504Y9.7905
G01 X9.7608Y9.7922
G01 X9.7709Y9.7949
G01 X9.7806Y9.7986
G01 X9.7900Y9.8034
G01 X9.7988Y9.8091
G01 X9.8069Y9.8157
G01 X9.8143Y9.8231
G01 X9.8209Y9.8312
G01 X9.8266Y9.8400
G01 X9.8314Y9.8494
G01 X9.8351Y9.8591
G01 X9.8378Y9.8692
G01 X9.8395Y9.8796
G01 X9.8400Y9.8900
G01 X9.8400Y11.0125
G01 X10.6329Y11.0125
G01 X10.6387Y11.0015
G01 X10.6816Y10.9301
G01 X10.7375Y10.8553
G01 X10.7936Y10.7936
G01 X10.8553Y10.7375
G01 X10.9341Y10.6791
G01 X11.0082Y10.6350
G01 X11.0811Y10.6005
G01 X11.1690Y10.5687
G01 X11.2593Y10.5465
G01 X11.3416Y10.5343
G01 X11.4251Y10.5301
G00 Z2.0000
G00 X12.9916Y6.0515
G01 Z-0.2000
G01 X14.2652Y7.3248
G01 X14.2914Y7.3535
G01 X14.3198Y7.3922
G01 X14.3395Y7.4256
G01 X14.3537Y7.4557
G01 X14.3680Y7.4941
G01 X14.3790Y7.5364
G01 X14.3859Y7.5840
G01 X14.3875Y7.6200
G01 X14.3875Y8.3300
G01 X14.8200Y8.3300
G01 X14.8304Y8.3305
G01 X14.8408Y8.3322
G01 X14.8509Y8.3349
G01 X14.8606Y8.3386
G01 X14.8700Y8.3434
G01 X14.8788Y8.3491
G01 X14.8869Y8.3557
G01 X14.8943Y8.3631
G01 X14.9009Y8.3712
G01 X14.9066Y8.3800
G01 X14.9114Y8.3894
G01 X14.9151Y8.3991
G01 X14.9178Y8.4092
G01 X14.9195Y8.4196
G01 X14.9200Y8.4300
G01 X14.9200Y10.4300
G01 X14.9195Y10.4404
G01 X14.9178Y10.4508
G01 X14.9151Y10.4609
G01 X14.9114Y10.4706
G01 X14.9066Y10.4800
G01 X14.9009Y10.4888
G01 X14.8943Y10.4969
G01 X14.8869Y10.5043
G01 X14.8788Y10.5109
G01 X14.8700Y10.5166
G01 X14.8606Y10.5214
G01 X14.8509Y10.5251
G01 X14.8408Y10.5278
G01 X14.8304Y10.5295
G01 X14.8200Y10.5300
G01 X13.1200Y10.5300
G01 X13.1096Y10.5295
G01 X13.0992Y10.5278
G01 X13.0891Y10.5251
G01 X13.0794Y10.5214
G01 X13.0700Y10.5166
G01 X13.0612Y10.5109
G01 X13.0531Y10.5043
G01 X13.0457Y10.4969
G01 X13.0391Y10.4888
G01 X13.0334Y10.4800
G01 X13.0286Y10.4706
G01 X13.0249Y10.4609
G01 X13.0222Y10.4508
G01 X13.0205Y10.4404
G01 X13.0200Y10.4300
G01 X13.0200Y8.4300
G01 X13.0205Y8.4196
G01 X13.0222Y8.4092
G01 X13.0249Y8.3991
G01 X13.0286Y8.3894
G01 X13.0334Y8.3800
G01 X13.0391Y8.3712
G01 X13.0457Y8.3631
G01 X13.0531Y8.3557
G01 X13.0612Y8.3491
G01 X13.0700Y8.3434
G01 X13.0794Y8.3386
G01 X13.0891Y8.3349
G01 X13.0992Y8.3322
G01 X13.1096Y8.3305
G01 X13.1200Y8.3300
G01 X13.5525Y8.3300
G01 X13.5525Y7.7929
G01 X12.5271Y6.7675
G01 X12.2271Y6.7675
G01 X12.2213Y6.7785
G01 X12.1784Y6.8499
G01 X12.1225Y6.9247
G01 X12.0664Y6.9864
G01 X12.0047Y7.0425
G01 X11.9259Y7.1009
G01 X11.8518Y7.1450
G01 X11.7789Y7.1795
G01 X11.6910Y7.2113
G01 X11.6078Y7.2322
G01 X11.5231Y7.2451
G01 X11.4300Y7.2500
G01 X11.3369Y7.2451
G01 X11.2522Y7.2322
G01 X11.1690Y7.2113
G01 X11.0811Y7.1795
G01 X11.0082Y7.1450
G01 X10.9341Y7.1009
G01 X10.8553Y7.0425
G01 X10.7936Y6.9864
G01 X10.7375Y6.9247
G01 X10.6816Y6.8499
G01 X10.6387Y6.7785
G01 X10.6329Y6.7675
G01 X9.8400Y6.7675
G01 X9.8400Y7.8900
G01 X9.8395Y7.9004
G01 X9.8378Y7.9108
G01 X9.8351Y7.9209
G01 X9.8314Y7.9306
G01 X9.8266Y7.9400
G01 X9.8209Y7.9488
G01 X9.8143Y7.9569
G01 X9.8069Y7.9643
G01 X9.7988Y7.9709
G01 X9.7900Y7.9766
G01 X9.7806Y7.9814
G01 X9.7709Y7.9851
G01 X9.7608Y7.9878
G01 X9.7504Y7.9895
G01 X9.7400Y7.9900
G01 X8.0400Y7.9900
G01 X8.0296Y7.9895
G01 X8.0192Y7.9878
G01 X8.0091Y7.9851
G01 X7.9994Y7.9814
G01 X7.9900Y7.9766
G01 X7.9812Y7.9709
G01 X7.9731Y7.9643
G01 X7.9657Y7.9569
G01 X7.9591Y7.9488
G01 X7.9534Y7.9400
G01 X7.9486Y7.9306
G01 X7.9449Y7.9209
G01 X7.9422Y7.9108
G01 X7.9405Y7.9004
G01 X7.9400Y7.8900
G01 X7.9400Y5.8900
G01 X7.9405Y5.8796
G01 X7.9422Y5.8692
G01 X7.9449Y5.8591
G01 X7.9486Y5.8494
G01 X7.9534Y5.8400
G01 X7.9591Y5.8312
G01 X7.9657Y5.8231
G01 X7.9731Y5.8157
G01 X7.9812Y5.8091
G01 X7.9900Y5.8034
G01 X7.9994Y5.7986
G01 X8.0091Y5.7949
G01 X8.0192Y5.7922
G01 X8.0296Y5.7905
G01 X8.0400Y5.7900
G01 X9.7400Y5.7900
G01 X9.7504Y5.7905
G01 X9.7608Y5.7922
G01 X9.7709Y5.7949
G01 X9.7806Y5.7986
G01 X9.7900Y5.8034
G01 X9.7988Y5.8091
G01 X9.8069Y5.8157
G01 X9.8143Y5.8231
G01 X9.8209Y5.8312
G01 X9.8266Y5.8400
G01 X9.8314Y5.8494
G01 X9.8351Y5.8591
G01 X9.8378Y5.8692
G01 X9.8395Y5.8796
G01 X9.8400Y5.9325
G01 X10.6329Y5.9325
G01 X10.6387Y5.9215
G01 X10.6845Y5.8460
G01 X10.7357Y5.7774
G01 X10.7936Y5.7136
G01 X10.8574Y5.6557
G01 X10.9260Y5.6045
G01 X11.0082Y5.5550
G01 X11.0832Y5.5195
G01 X11.1641Y5.4903
G01 X11.2522Y5.4678
G01 X11.3467Y5.4540
G01 X11.4300Y5.4500
G01 X11.5133Y5.4540
G01 X11.6078Y5.4678
G01 X11.6959Y5.4903
G01 X11.7768Y5.5195
G01 X11.8499Y5.5541
G01 X11.9299Y5.6016
G01 X12.0047Y5.6575
G01 X12.0664Y5.7136
G01 X12.1225Y5.7753
G01 X12.1784Y5.8501
G01 X12.2213Y5.9215
G01 X12.2271Y5.9325
G01 X12.7000Y5.9325
G01 X12.7411Y5.9345
G01 X12.7766Y5.9397
G01 X12.8259Y5.9520
G01 X12.8621Y5.9653
G01 X12.8944Y5.9805
G01 X12.9360Y6.0057
G01 X12.9665Y6.0286
G01 X12.9916Y6.0515
G00 Z2.0000
G00 X15.5100Y6.3200
G01 Z-0.2000
G01 X15.6100Y6.3200
G01 X15.6100Y6.6200
G01 X15.6105Y6.6304
G01 X15.6122Y6.6408
G01 X15.6149Y6.6509
G01 X15.6186Y6.6606
G01 X15.6234Y6.6700
G01 X15.6291Y6.6788
G01 X15.6357Y6.6869
G01 X15.6431Y6.6943
G01 X15.6512Y6.7009
G01 X15.6600Y6.7066
G01 X15.6694Y6.7114
G01 X15.6791Y6.7151
G01 X15.6892Y6.7178
G01 X15.6996Y6.7195
G01 X15.7100Y6.7200
G01 X15.9100Y6.7200
G01 X15.9100Y6.8200
G01 X15.6702Y6.8200
G01 X15.5967Y6.7896
G01 X15.5404Y6.7333
G01 X15.5100Y6.6598
G01 X15.5100Y6.3200
G00 Z2.0000
G00 X15.5100Y4.9200
G01 Z-0.2000
G01 X15.5100Y4.5802
G01 X15.5404Y4.5067
G01 X15.5967Y4.4504
G01 X15.6702Y4.4200
G01 X15.9100Y4.4200
G01 X15.9100Y4.5200
G01 X15.7100Y4.5200
G01 X15.6996Y4.5205
G01 X15.6892Y4.5222
G01 X15.6791Y4.5249
G01 X15.6694Y4.5286
G01 X15.6600Y4.5334
G01 X15.6512Y4.5391
G01 X15.6431Y4.5457
G01 X15.6357Y4.5531
G01 X15.6291Y4.5612
G01 X15.6234Y4.5700
G01 X15.6186Y4.5794
G01 X15.6149Y4.5891
G01 X15.6122Y4.5992
G01 X15.6105Y4.6096
G01 X15.6100Y4.6200
G01 X15.6100Y4.9200
G01 X15.5100Y4.9200
G00 Z2.0000
G00 X17.1100Y4.4200
G01 Z-0.2000
G01 X17.3498Y4.4200
G01 X17.4233Y4.4504
G01 X17.4796Y4.5067
G01 X17.5100Y4.5802
G01 X17.5100Y4.9200
G01 X17.4100Y4.9200
G01 X17.4100Y4.6200
G01 X17.4095Y4.6096
G01 X17.4078Y4.5992
G01 X17.4051Y4.5891
G01 X17.4014Y4.5794
G01 X17.3966Y4.5700
G01 X17.3909Y4.5612
G01 X17.3843Y4.5531
G01 X17.3769Y4.5457
G01 X17.3688Y4.5391
G01 X17.3600Y4.5334
G01 X17.3506Y4.5286
G01 X17.3409Y4.5249
G01 X17.3308Y4.5222
G01 X17.3204Y4.5205
G01 X17.3100Y4.5200
G01 X17.1100Y4.5200
G01 X17.1100Y4.4200
G00 Z2.0000
G00 X16.6700Y3.5900
G01 Z-0.2000
G01 X16.6700Y3.4900
G01 X16.9700Y3.4900
G01 X16.9804Y3.4895
G01 X16.9908Y3.4878
G01 X17.0009Y3.4851
G01 X17.0106Y3.4814
G01 X17.0200Y3.4766
G01 X17.0288Y3.4709
G01 X17.0369Y3.4643
G01 X17.0443Y3.4569
G01 X17.0509Y3.4488
G01 X17.0566Y3.4400
G01 X17.0614Y3.4306
G01 X17.0651Y3.4209
G01 X17.0678Y3.4108
G01 X17.0695Y3.4004
G01 X17.0700Y3.3900
G01 X17.0700Y3.1650
G01 X17.1700Y3.1650
G01 X17.1700Y3.4298
G01 X17.1396Y3.5033
G01 X17.0833Y3.5596
G01 X17.0098Y3.5900
G01 X16.6700Y3.5900
G00 Z2.0000
G00 X14.7700Y3.1650
G01 Z-0.2000
G01 X14.8700Y3.1650
G01 X14.8700Y3.3900
G01 X14.8705Y3.4004
G01 X14.8722Y3.4108
G01 X14.8749Y3.4209
G01 X14.8786Y3.4306
G01 X14.8834Y3.4400
G01 X14.8891Y3.4488
G01 X14.8957Y3.4569
G01 X14.9031Y3.4643
G01 X14.9112Y3.4709
G01 X14.9200Y3.4766
G01 X14.9294Y3.4814
G01 X14.9391Y3.4851
G01 X14.9492Y3.4878
G01 X14.9596Y3.4895
G01 X14.9700Y3.4900
G01 X15.2700Y3.4900
G01 X15.2700Y3.5900
G01 X14.9302Y3.5900
G01 X14.8567Y3.5596
G01 X14.8004Y3.5033
G01 X14.7700Y3.4298
G01 X14.7700Y3.1650
G00 Z2.0000
G00 X14.7700Y1.9150
G01 Z-0.2000
G01 X14.7700Y1.6502
G01 X14.8004Y1.5767
G01 X14.8567Y1.5204
G01 X14.9302Y1.4900
G01 X15.2700Y1.4900
G01 X15.2700Y1.5900
G01 X14.9700Y1.5900
G01 X14.9596Y1.5905
G01 X14.9492Y1.5922
G01 X14.9391Y1.5949
G01 X14.9294Y1.5986
G01 X14.9200Y1.6034
G01 X14.9112Y1.6091
G01 X14.9031Y1.6157
G01 X14.8957Y1.6231
G01 X14.8891Y1.6312
G01 X14.8834Y1.6400
G01 X14.8786Y1.6494
G01 X14.8749Y1.6591
G01 X14.8722Y1.6692
G01 X14.8705Y1.6796
G01 X14.8700Y1.6900
G01 X14.8700Y1.9150
G01 X14.7700Y1.9150
G00 Z2.0000
G00 X16.6700Y1.4900
G01 Z-0.2000
G01 X17.0098Y1.4900
G01 X17.0833Y1.5204
G01 X17.1396Y1.5767
G01 X17.1700Y1.6502
G01 X17.1700Y1.9150
G01 X17.0700Y1.9150
G01 X17.0700Y1.6900
G01 X17.0695Y1.6796
G01 X17.0678Y1.6692
G01 X17.0651Y1.6591
G01 X17.0614Y1.6494
G01 X17.0566Y1.6400
G01 X17.0509Y1.6312
G01 X17.0443Y1.6231
G01 X17.0369Y1.6157
G01 X17.0288Y1.6091
G01 X17.0200Y1.6034
G01 X17.0106Y1.5986
G01 X17.0009Y1.5949
G01 X16.9908Y1.5922
G01 X16.9804Y1.5905
G01 X16.9700Y1.5900
G01 X16.6700Y1.5900
G01 X16.6700Y1.4900
G00 Z2.0000
G00 X20.7943Y1.9400
G01 Z-0.2000
G01 X20.8080Y1.9196
G01 X20.9900Y1.7683
G01 X20.9900Y1.8705
G01 X20.9536Y1.9036
G01 X20.9205Y1.9400
G01 X20.7943Y1.9400
G00 Z2.0000
G00 X20.7943Y3.1400
G01 Z-0.2000
G01 X20.9205Y3.1400
G01 X20.9536Y3.1764
G01 X20.9900Y3.2095
G01 X20.9900Y3.3117
G01 X20.8080Y3.1604
G01 X20.7943Y3.1400
G00 Z2.0000
G00 X22.1900Y3.3117
G01 Z-0.2000
G01 X22.1900Y3.2095
G01 X22.2264Y3.1764
G01 X22.2595Y3.1400
G01 X22.3857Y3.1400
G01 X22.3720Y3.1604
G01 X22.1900Y3.3117
G00 Z2.0000
G00 X23.0800Y3.7800
G01 Z-0.2000
G01 X23.1800Y3.7800
G01 X23.1800Y4.0800
G01 X23.1805Y4.0904
G01 X23.1822Y4.1008
G01 X23.1849Y4.1109
G01 X23.1886Y4.1206
G01 X23.1934Y4.1300
G01 X23.1991Y4.1388
G01 X23.2057Y4.1469
G01 X23.2131Y4.1543
G01 X23.2212Y4.1609
G01 X23.2300Y4.1666
G01 X23.2394Y4.1714
G01 X23.2491Y4.1751
G01 X23.2592Y4.1778
G01 X23.2696Y4.1795
G01 X23.2800Y4.1800
G01 X23.5050Y4.1800
G01 X23.5050Y4.2800
G01 X23.2402Y4.2800
G01 X23.1667Y4.2496
G01 X23.1104Y4.1933
G01 X23.0800Y4.1198
G01 X23.0800Y3.7800
G00 Z2.0000
G00 X23.0800Y2.0402
G01 Z-0.2000
G01 X23.1104Y1.9667
G01 X23.1667Y1.9104
G01 X23.2402Y1.8800
G01 X23.5050Y1.8800
G01 X23.5050Y1.9800
G01 X23.2800Y1.9800
G01 X23.2696Y1.9805
G01 X23.2592Y1.9822
G01 X23.2491Y1.9849
G01 X23.2394Y1.9886
G01 X23.2300Y1.9934
G01 X23.2212Y1.9991
G01 X23.2131Y2.0057
G01 X23.2057Y2.0131
G01 X23.1991Y2.0212
G01 X23.1934Y2.0300
G01 X23.1886Y2.0394
G01 X23.1849Y2.0491
G01 X23.1822Y2.0592
G01 X23.1805Y2.0696
G01 X23.1800Y2.0800
G01 X23.1800Y2.3800
G01 X23.0800Y2.3800
G01 X23.0800Y2.0402
G00 Z2.0000
G00 X22.1900Y1.7683
G01 Z-0.2000
G01 X22.3720Y1.9196
G01 X22.3857Y1.9400
G01 X22.2595Y1.9400
G01 X22.2264Y1.9036
G01 X22.1900Y1.8705
G01 X22.1900Y1.7683
G00 Z2.0000
G00 X22.2000Y5.7405
G01 Z-0.2000
G01 X22.1626Y5.7743
G01 X22.0899Y5.8284
G01 X22.0118Y5.8750
G01 X21.9298Y5.9133
G01 X21.8510Y5.9413
G01 X21.7678Y5.9622
G01 X21.6784Y5.9757
G01 X21.5900Y5.9800
G01 X21.5016Y5.9757
G01 X21.4122Y5.9622
G01 X21.3290Y5.9413
G01 X21.2432Y5.9105
G01 X21.1682Y5.8750
G01 X21.0901Y5.8284
G01 X21.0174Y5.7743
G01 X20.9536Y5.7164
G01 X20.8957Y5.6526
G01 X20.8416Y5.5799
G01 X20.7950Y5.5018
G01 X20.7595Y5.4268
G01 X20.7287Y5.3410
G01 X20.7078Y5.2578
G01 X20.6943Y5.1684
G01 X20.6900Y5.0800
G01 X20.6943Y4.9916
G01 X20.7078Y4.9022
G01 X20.7287Y4.8190
G01 X20.7595Y4.7332
G01 X20.7950Y4.6582
G01 X20.8416Y4.5801
G01 X20.8957Y4.5074
G01 X20.9536Y4.4436
G01 X21.0174Y4.3857
G01 X21.0860Y4.3345
G01 X21.1682Y4.2850
G01 X21.2432Y4.2495
G01 X21.3241Y4.2203
G01 X21.4122Y4.1978
G01 X21.5067Y4.1840
G01 X21.5900Y4.1800
G01 X21.6784Y4.1843
G01 X21.7704Y4.1984
G01 X21.8510Y4.2187
G01 X21.9298Y4.2467
G01 X22.0118Y4.2850
G01 X22.0899Y4.3316
G01 X22.1626Y4.3857
G01 X22.2264Y4.4436
G01 X22.2843Y4.5074
G01 X22.3409Y4.5841
G01 X22.3859Y4.6601
G01 X22.4205Y4.7332
G01 X22.4470Y4.8066
G01 X23.6204Y5.9800
G01 X24.9800Y5.9800
G01 X24.9904Y5.9805
G01 X25.0008Y5.9822
G01 X25.0109Y5.9849
G01 X25.0206Y5.9886
G01 X25.0300Y5.9934
G01 X25.0388Y5.9991
G01 X25.0469Y6.0057
G01 X25.0543Y6.0131
G01 X25.0609Y6.0212
G01 X25.0666Y6.0300
G01 X25.0714Y6.0394
G01 X25.0751Y6.0491
G01 X25.0778Y6.0592
G01 X25.0795Y6.0696
G01 X25.0800Y6.0800
G01 X25.0800Y8.0800
G01 X25.0795Y8.0904
G01 X25.0778Y8.1008
G01 X25.0751Y8.1109
G01 X25.0714Y8.1206
G01 X25.0666Y8.1300
G01 X25.0609Y8.1388
G01 X25.0543Y8.1469
G01 X25.0469Y8.1543
G01 X25.0388Y8.1609
G01 X25.0300Y8.1666
G01 X25.0206Y8.1714
G01 X25.0109Y8.1751
G01 X25.0008Y8.1778
G01 X24.9904Y8.1795
G01 X24.9800Y8.1800
G01 X24.5475Y8.1800
G01 X24.5475Y12.1400
G01 X24.9800Y12.1400
G01 X24.9904Y12.1405
G01 X25.0008Y12.1422
G01 X25.0109Y12.1449
G01 X25.0206Y12.1486
G01 X25.0300Y12.1534
G01 X25.0388Y12.1591
G01 X25.0469Y12.1657
G01 X25.0543Y12.1731
G01 X25.0609Y12.1812
G01 X25.0666Y12.1900
G01 X25.0714Y12.1994
G01 X25.0751Y12.2091
G01 X25.0778Y12.2192
G01 X25.0795Y12.2296
G01 X25.0800Y12.2400
G01 X25.0800Y14.2400
G01 X25.0795Y14.2504
G01 X25.0778Y14.2608
G01 X25.0751Y14.2709
G01 X25.0714Y14.2806
G01 X25.0666Y14.2900
G01 X25.0609Y14.2988
G01 X25.0543Y14.3069
G01 X25.0469Y14.3143
G01 X25.0388Y14.3209
G01 X25.0300Y14.3266
G01 X25.0206Y14.3314
G01 X25.0109Y14.3351
G01 X25.0008Y14.3378
G01 X24.9904Y14.3395
G01 X24.9800Y14.3400
G01 X23.2800Y14.3400
G01 X23.2696Y14.3395
G01 X23.2592Y14.3378
G01 X23.2491Y14.3351
G01 X23.2394Y14.3314
G01 X23.2300Y14.3266
G01 X23.2212Y14.3209
G01 X23.2131Y14.3143
G01 X23.2057Y14.3069
G01 X23.1991Y14.2988
G01 X23.1934Y14.2900
G01 X23.1886Y14.2806
G01 X23.1849Y14.2709
G01 X23.1822Y14.2608
G01 X23.1805Y14.2504
G01 X23.1800Y14.2400
G01 X23.1800Y12.5775
G01 X22.5400Y12.5775
G01 X22.5400Y12.6217
G01 X22.5455Y12.6589
G01 X22.5475Y12.7000
G01 X22.5455Y12.7411
G01 X22.5400Y12.7783
G01 X22.5400Y13.1600
G01 X22.5395Y13.1704
G01 X22.5378Y13.1808
G01 X22.5351Y13.1909
G01 X22.5314Y13.2006
G01 X22.5266Y13.2100
G01 X22.5209Y13.2188
G01 X22.5143Y13.2269
G01 X22.5069Y13.2343
G01 X22.4988Y13.2409
G01 X22.4900Y13.2466
G01 X22.4806Y13.2514
G01 X22.4709Y13.2551
G01 X22.4608Y13.2578
G01 X22.4504Y13.2595
G01 X22.4400Y13.2600
G01 X22.0075Y13.2600
G01 X22.0075Y14.4429
G01 X22.0185Y14.4487
G01 X22.0940Y14.4945
G01 X22.1626Y14.5457
G01 X22.2298Y14.6072
G01 X22.2843Y14.6674
G01 X22.3384Y14.7401
G01 X22.3850Y14.8182
G01 X22.4205Y14.8932
G01 X22.4513Y14.9790
G01 X22.4716Y15.0596
G01 X22.4860Y15.1567
G01 X22.4900Y15.2400
G01 X22.4857Y15.3284
G01 X22.4722Y15.4178
G01 X22.4513Y15.5010
G01 X22.4205Y15.5868
G01 X22.3859Y15.6599
G01 X22.3355Y15.7440
G01 X22.2843Y15.8126
G01 X22.2264Y15.8764
G01 X22.1626Y15.9343
G01 X22.0899Y15.9884
G01 X22.0118Y16.0350
G01 X21.9389Y16.0695
G01 X21.8465Y16.1026
G01 X21.7678Y16.1222
G01 X21.6784Y16.1357
G01 X21.5900Y16.1400
G01 X21.5067Y16.1360
G01 X21.4096Y16.1216
G01 X21.3290Y16.1013
G01 X21.2432Y16.0705
G01 X21.1682Y16.0350
G01 X21.0941Y15.9909
G01 X21.0153Y15.9325
G01 X20.9536Y15.8764
G01 X20.8957Y15.8126
G01 X20.8416Y15.7399
G01 X20.7987Y15.6685
G01 X20.7595Y15.5868
G01 X20.7303Y15.5059
G01 X20.7065Y15.4107
G01 X20.6943Y15.3284
G01 X20.6900Y15.2400
G01 X20.6943Y15.1516
G01 X20.7065Y15.0693
G01 X20.7303Y14.9741
G01 X20.7595Y14.8932
G01 X20.7941Y14.8201
G01 X20.8445Y14.7360
G01 X20.8957Y14.6674
G01 X20.9536Y14.6036
G01 X21.0174Y14.5457
G01 X21.0860Y14.4945
G01 X21.1615Y14.4487
G01 X21.1725Y14.4429
G01 X21.1725Y13.2600
G01 X20.7400Y13.2600
G01 X20.7296Y13.2595
G01 X20.7192Y13.2578
G01 X20.7091Y13.2551
G01 X20.6994Y13.2514
G01 X20.6900Y13.2466
G01 X20.6812Y13.2409
G01 X20.6731Y13.2343
G01 X20.6657Y13.2269
G01 X20.6591Y13.2188
G01 X20.6534Y13.2100
G01 X20.6486Y13.2006
G01 X20.6449Y13.1909
G01 X20.6422Y13.1808
G01 X20.6405Y13.1704
G01 X20.6400Y13.1600
G01 X20.6400Y11.1600
G01 X20.6405Y11.1496
G01 X20.6422Y11.1392
G01 X20.6449Y11.1291
G01 X20.6486Y11.1194
G01 X20.6534Y11.1100
G01 X20.6591Y11.1012
G01 X20.6657Y11.0931
G01 X20.6731Y11.0857
G01 X20.6812Y11.0791
G01 X20.6900Y11.0734
G01 X20.6994Y11.0686
G01 X20.7091Y11.0649
G01 X20.7192Y11.0622
G01 X20.7296Y11.0605
G01 X20.7400Y11.0600
G01 X22.4400Y11.0600
G01 X22.4504Y11.0605
G01 X22.4608Y11.0622
G01 X22.4709Y11.0649
G01 X22.4806Y11.0686
G01 X22.4900Y11.0734
G01 X22.4988Y11.0791
G01 X22.5069Y11.0857
G01 X22.5143Y11.0931
G01 X22.5209Y11.1012
G01 X22.5266Y11.1100
G01 X22.5314Y11.1194
G01 X22.5351Y11.1291
G01 X22.5378Y11.1392
G01 X22.5395Y11.1496
G01 X22.5400Y11.1600
G01 X22.5400Y11.7425
G01 X23.7125Y11.7425
G01 X23.7125Y8.1800
G01 X23.2800Y8.1800
G01 X23.2696Y8.1795
G01 X23.2592Y8.1778
G01 X23.2491Y8.1751
G01 X23.2394Y8.1714
G01 X23.2300Y8.1666
G01 X23.2212Y8.1609
G01 X23.2131Y8.1543
G01 X23.2057Y8.1469
G01 X23.1991Y8.1388
G01 X23.1934Y8.1300
G01 X23.1886Y8.1206
G01 X23.1849Y8.1109
G01 X23.1822Y8.1008
G01 X23.1805Y8.0904
G01 X23.1800Y8.0800
G01 X23.1800Y7.6983
G01 X23.1745Y7.6611
G01 X23.1725Y7.6200
G01 X23.1745Y7.5789
G01 X23.1800Y7.5417
G01 X23.1800Y6.7204
G01 X22.2000Y5.7405
G00 Z2.0000
G00 X19.6500Y5.5783
G01 Z-0.2000
G01 X19.8320Y5.7296
G01 X19.8457Y5.7500
G01 X19.7195Y5.7500
G01 X19.6864Y5.7136
G01 X19.6500Y5.6805
G01 X19.6500Y5.5783
G00 Z2.0000
G00 X18.2543Y5.7500
G01 Z-0.2000
G01 X18.2680Y5.7296
G01 X18.4500Y5.5783
G01 X18.4500Y5.6805
G01 X18.4136Y5.7136
G01 X18.3805Y5.7500
G01 X18.2543Y5.7500
G00 Z2.0000
G00 X18.2543Y6.9500
G01 Z-0.2000
G01 X18.3805Y6.9500
G01 X18.4136Y6.9864
G01 X18.4500Y7.0195
G01 X18.4500Y7.1217
G01 X18.2680Y6.9704
G01 X18.2543Y6.9500
G00 Z2.0000
G00 X17.1100Y6.8200
G01 Z-0.2000
G01 X17.1100Y6.7200
G01 X17.3100Y6.7200
G01 X17.3204Y6.7195
G01 X17.3308Y6.7178
G01 X17.3409Y6.7151
G01 X17.3506Y6.7114
G01 X17.3600Y6.7066
G01 X17.3688Y6.7009
G01 X17.3769Y6.6943
G01 X17.3843Y6.6869
G01 X17.3909Y6.6788
G01 X17.3966Y6.6700
G01 X17.4014Y6.6606
G01 X17.4051Y6.6509
G01 X17.4078Y6.6408
G01 X17.4095Y6.6304
G01 X17.4100Y6.6200
G01 X17.4100Y6.3200
G01 X17.5100Y6.3200
G01 X17.5100Y6.6598
G01 X17.4796Y6.7333
G01 X17.4233Y6.7896
G01 X17.3498Y6.8200
G01 X17.1100Y6.8200
G00 Z2.0000
G00 X17.0089Y8.4083
G01 Z-0.2000
G01 X17.2400Y8.3624
G01 X17.2862Y8.3709
G01 X17.3107Y8.3725
G01 X18.0862Y8.3725
G01 X18.1107Y8.3709
G01 X18.1274Y8.3682
G01 X18.1395Y8.3652
G01 X18.1651Y8.3563
G01 X18.1847Y8.3465
G01 X18.1972Y8.3389
G01 X18.2092Y8.3301
G01 X18.2276Y8.3139
G01 X18.2394Y8.3010
G01 X18.2525Y8.2836
G01 X18.3290Y8.1690
G01 X18.6598Y7.9480
G01 X18.9515Y7.8900
G01 X19.1485Y7.8900
G01 X19.4402Y7.9480
G01 X19.7710Y8.1690
G01 X19.8475Y8.2836
G01 X19.8606Y8.3010
G01 X19.8690Y8.3104
G01 X19.8853Y8.3257
G01 X19.9028Y8.3389
G01 X19.9239Y8.3511
G01 X19.9349Y8.3563
G01 X19.9511Y8.3623
G01 X19.9796Y8.3695
G01 X19.9941Y8.3715
G01 X20.0138Y8.3725
G01 X20.3322Y8.3725
G01 X20.3519Y8.3715
G01 X20.3734Y8.3682
G01 X20.3949Y8.3623
G01 X20.4110Y8.3563
G01 X20.4240Y8.3501
G01 X20.4473Y8.3360
G01 X20.4607Y8.3257
G01 X20.4736Y8.3139
G01 X20.4854Y8.3010
G01 X20.4956Y8.2876
G01 X20.5098Y8.2644
G01 X20.5159Y8.2514
G01 X20.5220Y8.2352
G01 X20.5279Y8.2137
G01 X20.5312Y8.1923
G01 X20.5322Y8.1725
G01 X20.5322Y7.1797
G01 X20.5516Y7.0820
G01 X20.5958Y7.0158
G01 X20.6620Y6.9716
G01 X20.7597Y6.9522
G01 X22.4203Y6.9522
G01 X22.5180Y6.9716
G01 X22.5842Y7.0158
G01 X22.6284Y7.0820
G01 X22.6478Y7.1797
G01 X22.6478Y9.1403
G01 X22.6284Y9.2380
G01 X22.5842Y9.3042
G01 X22.5180Y9.3484
G01 X22.4203Y9.3678
G01 X21.1252Y9.3680
G01 X21.1103Y9.3688
G01 X21.0911Y9.3717
G01 X20.8600Y9.4176
G01 X20.8138Y9.4091
G01 X20.7893Y9.4075
G01 X20.0138Y9.4075
G01 X19.9941Y9.4085
G01 X19.9796Y9.4105
G01 X19.9511Y9.4177
G01 X19.9349Y9.4237
G01 X19.9219Y9.4299
G01 X19.8987Y9.4440
G01 X19.8853Y9.4543
G01 X19.8724Y9.4661
G01 X19.8606Y9.4790
G01 X19.8475Y9.4964
G01 X19.7710Y9.6110
G01 X19.4402Y9.8320
G01 X19.1485Y9.8900
G01 X18.9515Y9.8900
G01 X18.6598Y9.8320
G01 X18.3290Y9.6110
G01 X18.2525Y9.4964
G01 X18.2394Y9.4790
G01 X18.2310Y9.4696
G01 X18.2147Y9.4543
G01 X18.1932Y9.4386
G01 X18.1781Y9.4299
G01 X18.1651Y9.4237
G01 X18.1440Y9.4160
G01 X18.1274Y9.4118
G01 X18.1107Y9.4091
G01 X18.0862Y9.4075
G01 X17.7178Y9.4075
G01 X17.6981Y9.4085
G01 X17.6766Y9.4118
G01 X17.6551Y9.4177
G01 X17.6390Y9.4237
G01 X17.6260Y9.4299
G01 X17.6027Y9.4440
G01 X17.5893Y9.4543
G01 X17.5764Y9.4661
G01 X17.5646Y9.4790
G01 X17.5544Y9.4924
G01 X17.5402Y9.5156
G01 X17.5341Y9.5286
G01 X17.5280Y9.5448
G01 X17.5208Y9.5733
G01 X17.5188Y9.5877
G01 X17.5178Y9.6075
G01 X17.5178Y10.6003
G01 X17.4984Y10.6980
G01 X17.4542Y10.7642
G01 X17.3880Y10.8084
G01 X17.2903Y10.8278
G01 X15.7297Y10.8278
G01 X15.6320Y10.8084
G01 X15.5658Y10.7642
G01 X15.5216Y10.6980
G01 X15.5022Y10.6003
G01 X15.5022Y8.6397
G01 X15.5216Y8.5420
G01 X15.5658Y8.4758
G01 X15.6320Y8.4316
G01 X15.7297Y8.4122
G01 X16.9699Y8.4122
G01 X16.9897Y8.4112
G01 X17.0089Y8.4083
G00 Z2.0000
G00 X17.0467Y8.5200
G01 Z-0.2000
G01 X17.0779Y8.5053
G01 X17.1235Y8.4892
G01 X17.1564Y8.4810
G01 X17.1942Y8.4751
G01 X17.2351Y8.4726
G01 X18.2529Y8.4725
G01 X18.2587Y8.4615
G01 X18.3016Y8.3901
G01 X18.3575Y8.3153
G01 X18.4136Y8.2536
G01 X18.4753Y8.1975
G01 X18.5541Y8.1391
G01 X18.6282Y8.0950
G01 X18.7011Y8.0605
G01 X18.7890Y8.0287
G01 X18.8722Y8.0078
G01 X18.9569Y7.9949
G01 X19.0500Y7.9900
G01 X19.1431Y7.9949
G01 X19.2278Y8.0078
G01 X19.3110Y8.0287
G01 X19.3989Y8.0605
G01 X19.4718Y8.0950
G01 X19.5459Y8.1391
G01 X19.6247Y8.1975
G01 X19.6864Y8.2536
G01 X19.7425Y8.3153
G01 X19.7984Y8.3901
G01 X19.8413Y8.4615
G01 X19.8471Y8.4725
G01 X20.6400Y8.4725
G01 X20.6400Y7.1600
G01 X20.6405Y7.1496
G01 X20.6422Y7.1392
G01 X20.6449Y7.1291
G01 X20.6486Y7.1194
G01 X20.6534Y7.1100
G01 X20.6591Y7.1012
G01 X20.6657Y7.0931
G01 X20.6731Y7.0857
G01 X20.6812Y7.0791
G01 X20.6900Y7.0734
G01 X20.6994Y7.0686
G01 X20.7091Y7.0649
G01 X20.7192Y7.0622
G01 X20.7296Y7.0605
G01 X20.7400Y7.0600
G01 X22.4400Y7.0600
G01 X22.4504Y7.0605
G01 X22.4608Y7.0622
G01 X22.4709Y7.0649
G01 X22.4806Y7.0686
G01 X22.4900Y7.0734
G01 X22.4988Y7.0791
G01 X22.5069Y7.0857
G01 X22.5143Y7.0931
G01 X22.5209Y7.1012
G01 X22.5266Y7.1100
G01 X22.5314Y7.1194
G01 X22.5351Y7.1291
G01 X22.5378Y7.1392
G01 X22.5395Y7.1496
G01 X22.5400Y7.1600
G01 X22.5400Y9.1600
G01 X22.5395Y9.1704
G01 X22.5378Y9.1808
G01 X22.5351Y9.1909
G01 X22.5314Y9.2006
G01 X22.5266Y9.2100
G01 X22.5209Y9.2188
G01 X22.5143Y9.2269
G01 X22.5069Y9.2343
G01 X22.4988Y9.2409
G01 X22.4900Y9.2466
G01 X22.4806Y9.2514
G01 X22.4709Y9.2551
G01 X22.4608Y9.2578
G01 X22.4504Y9.2595
G01 X22.4400Y9.2600
G01 X21.0533Y9.2600
G01 X21.0152Y9.2775
G01 X20.9809Y9.2896
G01 X20.9462Y9.2984
G01 X20.9011Y9.3055
G01 X20.8600Y9.3075
G01 X19.8471Y9.3075
G01 X19.8413Y9.3185
G01 X19.7984Y9.3899
G01 X19.7425Y9.4647
G01 X19.6864Y9.5264
G01 X19.6247Y9.5825
G01 X19.5459Y9.6409
G01 X19.4718Y9.6850
G01 X19.3989Y9.7195
G01 X19.3110Y9.7513
G01 X19.2278Y9.7722
G01 X19.1431Y9.7851
G01 X19.0500Y9.7900
G01 X18.9569Y9.7851
G01 X18.8722Y9.7722
G01 X18.7890Y9.7513
G01 X18.7011Y9.7195
G01 X18.6282Y9.6850
G01 X18.5541Y9.6409
G01 X18.4753Y9.5825
G01 X18.4136Y9.5264
G01 X18.3575Y9.4647
G01 X18.3016Y9.3899
G01 X18.2587Y9.3185
G01 X18.2529Y9.3075
G01 X17.4129Y9.3075
G01 X17.4100Y9.3104
G01 X17.4100Y10.6200
G01 X17.4095Y10.6304
G01 X17.4078Y10.6408
G01 X17.4051Y10.6509
G01 X17.4014Y10.6606
G01 X17.3966Y10.6700
G01 X17.3909Y10.6788
G01 X17.3843Y10.6869
G01 X17.3769Y10.6943
G01 X17.3688Y10.7009
G01 X17.3600Y10.7066
G01 X17.3506Y10.7114
G01 X17.3409Y10.7151
G01 X17.3308Y10.7178
G01 X17.3204Y10.7195
G01 X17.3100Y10.7200
G01 X15.7100Y10.7200
G01 X15.6996Y10.7195
G01 X15.6892Y10.7178
G01 X15.6791Y10.7151
G01 X15.6694Y10.7114
G01 X15.6600Y10.7066
G01 X15.6512Y10.7009
G01 X15.6431Y10.6943
G01 X15.6357Y10.6869
G01 X15.6291Y10.6788
G01 X15.6234Y10.6700
G01 X15.6186Y10.6606
G01 X15.6149Y10.6509
G01 X15.6122Y10.6408
G01 X15.6105Y10.6304
G01 X15.6100Y10.6200
G01 X15.6100Y8.6200
G01 X15.6105Y8.6096
G01 X15.6122Y8.5992
G01 X15.6149Y8.5891
G01 X15.6186Y8.5794
G01 X15.6234Y8.5700
G01 X15.6291Y8.5612
G01 X15.6357Y8.5531
G01 X15.6431Y8.5457
G01 X15.6512Y8.5391
G01 X15.6600Y8.5334
G01 X15.6694Y8.5286
G01 X15.6791Y8.5249
G01 X15.6892Y8.5222
G01 X15.6996Y8.5205
G01 X15.7100Y8.5200
G01 X17.0467Y8.5200
G00 Z2.0000
G00 X19.6500Y7.1217
G01 Z-0.2000
G01 X19.6500Y7.0195
G01 X19.6864Y6.9864
G01 X19.7195Y6.9500
G01 X19.8457Y6.9500
G01 X19.8320Y6.9704
G01 X19.6500Y7.1217
G00 Z2.0000
G00 X19.8500Y13.0700
G01 Z-0.2000
G01 X19.8604Y13.0705
G01 X19.8708Y13.0722
G01 X19.8809Y13.0749
G01 X19.8906Y13.0786
G01 X19.9000Y13.0834
G01 X19.9088Y13.0891
G01 X19.9169Y13.0957
G01 X19.9243Y13.1031
G01 X19.9309Y13.1112
G01 X19.9366Y13.1200
G01 X19.9414Y13.1294
G01 X19.9451Y13.1391
G01 X19.9478Y13.1492
G01 X19.9495Y13.1596
G01 X19.9500Y13.1700
G01 X19.9500Y14.7700
G01 X19.9495Y14.7804
G01 X19.9478Y14.7908
G01 X19.9451Y14.8009
G01 X19.9414Y14.8106
G01 X19.9366Y14.8200
G01 X19.9309Y14.8288
G01 X19.9243Y14.8369
G01 X19.9169Y14.8443
G01 X19.9088Y14.8509
G01 X19.9000Y14.8566
G01 X19.8906Y14.8614
G01 X19.8809Y14.8651
G01 X19.8708Y14.8678
G01 X19.8604Y14.8695
G01 X19.8500Y14.8700
G01 X18.2500Y14.8700
G01 X18.2396Y14.8695
G01 X18.2292Y14.8678
G01 X18.2191Y14.8651
G01 X18.2094Y14.8614
G01 X18.2000Y14.8566
G01 X18.1912Y14.8509
G01 X18.1831Y14.8443
G01 X18.1757Y14.8369
G01 X18.1691Y14.8288
G01 X18.1634Y14.8200
G01 X18.1586Y14.8106
G01 X18.1549Y14.8009
G01 X18.1522Y14.7908
G01 X18.1505Y14.7804
G01 X18.1500Y14.7700
G01 X18.1500Y14.3875
G01 X14.9200Y14.3875
G01 X14.9200Y14.4300
G01 X14.9195Y14.4404
G01 X14.9178Y14.4508
G01 X14.9151Y14.4609
G01 X14.9114Y14.4706
G01 X14.9066Y14.4800
G01 X14.9009Y14.4888
G01 X14.8943Y14.4969
G01 X14.8869Y14.5043
G01 X14.8788Y14.5109
G01 X14.8700Y14.5166
G01 X14.8606Y14.5214
G01 X14.8509Y14.5251
G01 X14.8408Y14.5278
G01 X14.8304Y14.5295
G01 X14.8200Y14.5300
G01 X13.1200Y14.5300
G01 X13.1096Y14.5295
G01 X13.0992Y14.5278
G01 X13.0891Y14.5251
G01 X13.0794Y14.5214
G01 X13.0700Y14.5166
G01 X13.0612Y14.5109
G01 X13.0531Y14.5043
G01 X13.0457Y14.4969
G01 X13.0391Y14.4888
G01 X13.0334Y14.4800
G01 X13.0286Y14.4706
G01 X13.0249Y14.4609
G01 X13.0222Y14.4508
G01 X13.0205Y14.4404
G01 X13.0200Y14.4300
G01 X13.0200Y12.4300
G01 X13.0205Y12.4196
G01 X13.0222Y12.4092
G01 X13.0249Y12.3991
G01 X13.0286Y12.3894
G01 X13.0334Y12.3800
G01 X13.0391Y12.3712
G01 X13.0457Y12.3631
G01 X13.0531Y12.3557
G01 X13.0612Y12.3491
G01 X13.0700Y12.3434
G01 X13.0794Y12.3386
G01 X13.0891Y12.3349
G01 X13.0992Y12.3322
G01 X13.1096Y12.3305
G01 X13.1200Y12.3300
G01 X14.8200Y12.3300
G01 X14.8304Y12.3305
G01 X14.8408Y12.3322
G01 X14.8509Y12.3349
G01 X14.8606Y12.3386
G01 X14.8700Y12.3434
G01 X14.8788Y12.3491
G01 X14.8869Y12.3557
G01 X14.8943Y12.3631
G01 X14.9009Y12.3712
G01 X14.9066Y12.3800
G01 X14.9114Y12.3894
G01 X14.9151Y12.3991
G01 X14.9178Y12.4092
G01 X14.9195Y12.4196
G01 X14.9200Y12.4300
G01 X14.9200Y13.5525
G01 X18.1500Y13.5525
G01 X18.1500Y13.1700
G01 X18.1505Y13.1596
G01 X18.1522Y13.1492
G01 X18.1549Y13.1391
G01 X18.1586Y13.1294
G01 X18.1634Y13.1200
G01 X18.1691Y13.1112
G01 X18.1757Y13.1031
G01 X18.1831Y13.0957
G01 X18.1912Y13.0891
G01 X18.2000Y13.0834
G01 X18.2094Y13.0786
G01 X18.2191Y13.0749
G01 X18.2292Y13.0722
G01 X18.2396Y13.0705
G01 X18.2500Y13.0700
G01 X18.6325Y13.0700
G01 X18.6325Y12.2271
G01 X18.6215Y12.2213
G01 X18.5460Y12.1755
G01 X18.4774Y12.1243
G01 X18.4136Y12.0664
G01 X18.3557Y12.0026
G01 X18.3045Y11.9340
G01 X18.2541Y11.8499
G01 X18.2195Y11.7768
G01 X18.1887Y11.6910
G01 X18.1678Y11.6078
G01 X18.1549Y11.5231
G01 X18.1501Y11.4251
G01 X18.1543Y11.3416
G01 X18.1684Y11.2496
G01 X18.1887Y11.1690
G01 X18.2167Y11.0902
G01 X18.2550Y11.0082
G01 X18.3045Y10.9260
G01 X18.3557Y10.8574
G01 X18.4136Y10.7936
G01 X18.4774Y10.7357
G01 X18.5460Y10.6845
G01 X18.6282Y10.6350
G01 X18.7032Y10.5995
G01 X18.7841Y10.5703
G01 X18.8722Y10.5478
G01 X18.9616Y10.5343
G01 X19.0451Y10.5301
G01 X19.1431Y10.5349
G01 X19.2278Y10.5478
G01 X19.3110Y10.5687
G01 X19.3968Y10.5995
G01 X19.4718Y10.6350
G01 X19.5499Y10.6816
G01 X19.6226Y10.7357
G01 X19.6864Y10.7936
G01 X19.7425Y10.8553
G01 X19.7984Y10.9301
G01 X19.8413Y11.0015
G01 X19.8833Y11.0902
G01 X19.9113Y11.1690
G01 X19.9322Y11.2522
G01 X19.9457Y11.3416
G01 X19.9500Y11.4300
G01 X19.9457Y11.5184
G01 X19.9322Y11.6078
G01 X19.9113Y11.6910
G01 X19.8833Y11.7698
G01 X19.8450Y11.8518
G01 X19.7984Y11.9299
G01 X19.7443Y12.0026
G01 X19.6898Y12.0628
G01 X19.6226Y12.1243
G01 X19.5540Y12.1755
G01 X19.4785Y12.2213
G01 X19.4675Y12.2271
G01 X19.4675Y13.0700
G01 X19.8500Y13.0700
G00 Z2.0000
G00 X14.9643Y14.5741
G01 Z-0.2000
G01 X14.8980Y14.6184
G01 X14.8003Y14.6378
G01 X13.1397Y14.6378
G01 X13.0420Y14.6184
G01 X12.9758Y14.5742
G01 X12.9316Y14.5080
G01 X12.9122Y14.4103
G01 X12.9122Y12.4497
G01 X12.9316Y12.3520
G01 X12.9758Y12.2858
G01 X13.0420Y12.2416
G01 X13.1397Y12.2222
G01 X14.8003Y12.2222
G01 X14.8980Y12.2416
G01 X14.9642Y12.2858
G01 X15.0084Y12.3520
G01 X15.0278Y12.4497
G01 X15.0278Y13.2525
G01 X15.0288Y13.2723
G01 X15.0328Y13.2963
G01 X15.0364Y13.3103
G01 X15.0413Y13.3245
G01 X15.0539Y13.3510
G01 X15.0615Y13.3635
G01 X15.0702Y13.3755
G01 X15.0864Y13.3939
G01 X15.1048Y13.4101
G01 X15.1168Y13.4189
G01 X15.1293Y13.4265
G01 X15.1559Y13.4390
G01 X15.1701Y13.4440
G01 X15.1840Y13.4476
G01 X15.2081Y13.4515
G01 X15.2278Y13.4525
G01 X17.8422Y13.4525
G01 X17.8619Y13.4515
G01 X17.8834Y13.4482
G01 X17.8999Y13.4440
G01 X17.9232Y13.4353
G01 X17.9340Y13.4301
G01 X17.9491Y13.4214
G01 X17.9652Y13.4101
G01 X17.9836Y13.3939
G01 X17.9954Y13.3810
G01 X18.0085Y13.3635
G01 X18.0198Y13.3444
G01 X18.0259Y13.3314
G01 X18.0320Y13.3152
G01 X18.0392Y13.2867
G01 X18.0412Y13.2723
G01 X18.0420Y13.2574
G01 X18.0422Y13.1897
G01 X18.0616Y13.0920
G01 X18.1058Y13.0258
G01 X18.1720Y12.9816
G01 X18.2697Y12.9622
G01 X18.3374Y12.9620
G01 X18.3523Y12.9612
G01 X18.3667Y12.9592
G01 X18.3952Y12.9520
G01 X18.4114Y12.9459
G01 X18.4244Y12.9398
G01 X18.4435Y12.9285
G01 X18.4610Y12.9154
G01 X18.4773Y12.9000
G01 X18.4857Y12.8907
G01 X18.4960Y12.8773
G01 X18.5065Y12.8607
G01 X18.5163Y12.8410
G01 X18.5240Y12.8199
G01 X18.5295Y12.7963
G01 X18.5315Y12.7819
G01 X18.5325Y12.7622
G01 X18.5325Y12.3938
G01 X18.5315Y12.3741
G01 X18.5282Y12.3526
G01 X18.5240Y12.3360
G01 X18.5190Y12.3219
G01 X18.5101Y12.3019
G01 X18.4960Y12.2787
G01 X18.4857Y12.2653
G01 X18.4773Y12.2559
G01 X18.4631Y12.2424
G01 X18.4436Y12.2275
G01 X18.3290Y12.1510
G01 X18.1080Y11.8202
G01 X18.0304Y11.4300
G01 X18.1080Y11.0398
G01 X18.3290Y10.7090
G01 X18.6598Y10.4880
G01 X18.9515Y10.4300
G01 X19.1485Y10.4300
G01 X19.4402Y10.4880
G01 X19.7710Y10.7090
G01 X19.9920Y11.0398
G01 X20.0696Y11.4300
G01 X19.9920Y11.8202
G01 X19.7710Y12.1510
G01 X19.6564Y12.2275
G01 X19.6369Y12.2424
G01 X19.6227Y12.2559
G01 X19.6143Y12.2653
G01 X19.6040Y12.2787
G01 X19.5899Y12.3019
G01 X19.5810Y12.3219
G01 X19.5760Y12.3360
G01 X19.5718Y12.3526
G01 X19.5685Y12.3741
G01 X19.5676Y12.3889
G01 X19.5675Y12.7622
G01 X19.5681Y12.7769
G01 X19.5705Y12.7963
G01 X19.5760Y12.8199
G01 X19.5837Y12.8410
G01 X19.5935Y12.8607
G01 X19.6011Y12.8732
G01 X19.6099Y12.8852
G01 X19.6227Y12.9000
G01 X19.6390Y12.9154
G01 X19.6565Y12.9285
G01 X19.6756Y12.9398
G01 X19.6886Y12.9459
G01 X19.7097Y12.9536
G01 X19.7263Y12.9579
G01 X19.7477Y12.9612
G01 X19.7626Y12.9620
G01 X19.8303Y12.9622
G01 X19.9280Y12.9816
G01 X19.9942Y13.0258
G01 X20.0384Y13.0920
G01 X20.0578Y13.1897
G01 X20.0578Y14.7503
G01 X20.0384Y14.8480
G01 X19.9942Y14.9142
G01 X19.9280Y14.9584
G01 X19.8303Y14.9778
G01 X18.2697Y14.9778
G01 X18.1720Y14.9584
G01 X18.1058Y14.9142
G01 X18.0616Y14.8480
G01 X18.0422Y14.7503
G01 X18.0420Y14.6826
G01 X18.0412Y14.6677
G01 X18.0379Y14.6463
G01 X18.0336Y14.6297
G01 X18.0259Y14.6086
G01 X18.0198Y14.5956
G01 X18.0085Y14.5765
G01 X17.9954Y14.5590
G01 X17.9800Y14.5427
G01 X17.9707Y14.5343
G01 X17.9573Y14.5240
G01 X17.9407Y14.5135
G01 X17.9210Y14.5037
G01 X17.8999Y14.4960
G01 X17.8763Y14.4905
G01 X17.8569Y14.4881
G01 X17.8422Y14.4875
G01 X15.1241Y14.4876
G01 X15.1093Y14.4885
G01 X15.0948Y14.4905
G01 X15.0757Y14.4948
G01 X15.0571Y14.5010
G01 X15.0372Y14.5099
G01 X15.0180Y14.5211
G01 X14.9984Y14.5361
G01 X14.9876Y14.5461
G01 X14.9776Y14.5569
G01 X14.9643Y14.5741
G00 Z2.0000
G00 X5.4500Y14.8200
G01 Z-0.2000
G01 X5.4495Y14.8304
G01 X5.4478Y14.8408
G01 X5.4451Y14.8509
G01 X5.4414Y14.8606
G01 X5.4366Y14.8700
G01 X5.4309Y14.8788
G01 X5.4243Y14.8869
G01 X5.4169Y14.8943
G01 X5.4088Y14.9009
G01 X5.4000Y14.9066
G01 X5.3906Y14.9114
G01 X5.3809Y14.9151
G01 X5.3708Y14.9178
G01 X5.3604Y14.9195
G01 X5.3500Y14.9200
G01 X3.3500Y14.9200
G01 X3.3396Y14.9195
G01 X3.3292Y14.9178
G01 X3.3191Y14.9151
G01 X3.3094Y14.9114
G01 X3.3000Y14.9066
G01 X3.2912Y14.9009
G01 X3.2831Y14.8943
G01 X3.2757Y14.8869
G01 X3.2691Y14.8788
G01 X3.2634Y14.8700
G01 X3.2586Y14.8606
G01 X3.2549Y14.8509
G01 X3.2522Y14.8408
G01 X3.2505Y14.8304
G01 X3.2500Y14.8200
G01 X3.2500Y13.1200
G01 X3.2505Y13.1096
G01 X3.2522Y13.0992
G01 X3.2549Y13.0891
G01 X3.2586Y13.0794
G01 X3.2634Y13.0700
G01 X3.2691Y13.0612
G01 X3.2757Y13.0531
G01 X3.2831Y13.0457
G01 X3.2912Y13.0391
G01 X3.3000Y13.0334
G01 X3.3094Y13.0286
G01 X3.3191Y13.0249
G01 X3.3292Y13.0222
G01 X3.3396Y13.0205
G01 X3.3500Y13.0200
G01 X3.3925Y13.0200
G01 X3.3925Y12.3800
G01 X2.9600Y12.3800
G01 X2.9496Y12.3795
G01 X2.9392Y12.3778
G01 X2.9291Y12.3751
G01 X2.9194Y12.3714
G01 X2.9100Y12.3666
G01 X2.9012Y12.3609
G01 X2.8931Y12.3543
G01 X2.8857Y12.3469
G01 X2.8791Y12.3388
G01 X2.8734Y12.3300
G01 X2.8686Y12.3206
G01 X2.8649Y12.3109
G01 X2.8622Y12.3008
G01 X2.8605Y12.2904
G01 X2.8600Y12.2800
G01 X2.8600Y10.5800
G01 X2.8605Y10.5696
G01 X2.8622Y10.5592
G01 X2.8649Y10.5491
G01 X2.8686Y10.5394
G01 X2.8734Y10.5300
G01 X2.8791Y10.5212
G01 X2.8857Y10.5131
G01 X2.8931Y10.5057
G01 X2.9012Y10.4991
G01 X2.9100Y10.4934
G01 X2.9194Y10.4886
G01 X2.9291Y10.4849
G01 X2.9392Y10.4822
G01 X2.9496Y10.4805
G01 X2.9600Y10.4800
G01 X4.6600Y10.4800
G01 X4.6704Y10.4805
G01 X4.6808Y10.4822
G01 X4.6909Y10.4849
G01 X4.7006Y10.4886
G01 X4.7100Y10.4934
G01 X4.7188Y10.4991
G01 X4.7269Y10.5057
G01 X4.7343Y10.5131
G01 X4.7409Y10.5212
G01 X4.7466Y10.5300
G01 X4.7514Y10.5394
G01 X4.7551Y10.5491
G01 X4.7578Y10.5592
G01 X4.7595Y10.5696
G01 X4.7600Y10.5800
G01 X4.7600Y12.2800
G01 X4.7595Y12.2904
G01 X4.7578Y12.3008
G01 X4.7551Y12.3109
G01 X4.7514Y12.3206
G01 X4.7466Y12.3300
G01 X4.7409Y12.3388
G01 X4.7343Y12.3469
G01 X4.7269Y12.3543
G01 X4.7188Y12.3609
G01 X4.7100Y12.3666
G01 X4.7006Y12.3714
G01 X4.6909Y12.3751
G01 X4.6808Y12.3778
G01 X4.6704Y12.3795
G01 X4.6600Y12.3800
G01 X4.2275Y12.3800
G01 X4.2275Y13.0200
G01 X5.3500Y13.0200
G01 X5.3604Y13.0205
G01 X5.3708Y13.0222
G01 X5.3809Y13.0249
G01 X5.3906Y13.0286
G01 X5.4000Y13.0334
G01 X5.4088Y13.0391
G01 X5.4169Y13.0457
G01 X5.4243Y13.0531
G01 X5.4309Y13.0612
G01 X5.4366Y13.0700
G01 X5.4414Y13.0794
G01 X5.4451Y13.0891
G01 X5.4478Y13.0992
G01 X5.4495Y13.1096
G01 X5.4500Y13.1200
G01 X5.4500Y14.8200
G00 Z2.0000
G00 X2.4225Y12.2714
G01 Z-0.2000
G01 X2.4225Y10.5886
G01 X2.4399Y10.6031
G01 X2.4560Y10.6147
G01 X2.4725Y10.6249
G01 X2.4987Y10.6383
G01 X2.5169Y10.6458
G01 X2.5360Y10.6524
G01 X2.5596Y10.6584
G01 X2.5834Y10.6625
G01 X2.6029Y10.6644
G01 X2.6225Y10.6651
G01 X2.6522Y10.6637
G01 X2.6714Y10.6610
G01 X2.6906Y10.6572
G01 X2.7189Y10.6491
G01 X2.7420Y10.6403
G01 X2.7600Y10.6317
G01 X2.7600Y12.2283
G01 X2.7420Y12.2197
G01 X2.7189Y12.2109
G01 X2.6906Y12.2028
G01 X2.6714Y12.1990
G01 X2.6522Y12.1963
G01 X2.6225Y12.1949
G01 X2.6029Y12.1956
G01 X2.5834Y12.1975
G01 X2.5596Y12.2016
G01 X2.5360Y12.2076
G01 X2.5169Y12.2142
G01 X2.4987Y12.2217
G01 X2.4725Y12.2351
G01 X2.4560Y12.2453
G01 X2.4399Y12.2569
G01 X2.4225Y12.2714
G00 Z2.0000
G00 X2.5225Y12.1077
G01 Z-0.2000
G01 X2.5225Y10.7523
G01 X2.5379Y10.7561
G01 X2.5590Y10.7600
G01 X2.5828Y10.7632
G01 X2.6225Y10.7651
G01 X2.6600Y10.7633
G01 X2.6600Y12.0967
G01 X2.6225Y12.0949
G01 X2.5828Y12.0968
G01 X2.5590Y12.1000
G01 X2.5379Y12.1039
G01 X2.5225Y12.1077
G00 Z2.0000
G00 X6.6150Y3.7117
G01 Z-0.2000
G01 X6.6150Y2.3250
G01 X6.6155Y2.3146
G01 X6.6172Y2.3042
G01 X6.6199Y2.2941
G01 X6.6236Y2.2844
G01 X6.6284Y2.2750
G01 X6.6341Y2.2662
G01 X6.6407Y2.2581
G01 X6.6481Y2.2507
G01 X6.6562Y2.2441
G01 X6.6650Y2.2384
G01 X6.6744Y2.2336
G01 X6.6841Y2.2299
G01 X6.6942Y2.2272
G01 X6.7046Y2.2255
G01 X6.7150Y2.2250
G01 X8.7150Y2.2250
G01 X8.7254Y2.2255
G01 X8.7358Y2.2272
G01 X8.7459Y2.2299
G01 X8.7556Y2.2336
G01 X8.7650Y2.2384
G01 X8.7738Y2.2441
G01 X8.7819Y2.2507
G01 X8.7893Y2.2581
G01 X8.7959Y2.2662
G01 X8.8016Y2.2750
G01 X8.8064Y2.2844
G01 X8.8101Y2.2941
G01 X8.8128Y2.3042
G01 X8.8145Y2.3146
G01 X8.8150Y2.3250
G01 X8.8150Y2.7575
G01 X10.8700Y2.7575
G01 X10.8700Y1.6900
G01 X10.8705Y1.6796
G01 X10.8722Y1.6692
G01 X10.8749Y1.6591
G01 X10.8786Y1.6494
G01 X10.8834Y1.6400
G01 X10.8891Y1.6312
G01 X10.8957Y1.6231
G01 X10.9031Y1.6157
G01 X10.9112Y1.6091
G01 X10.9200Y1.6034
G01 X10.9294Y1.5986
G01 X10.9391Y1.5949
G01 X10.9492Y1.5922
G01 X10.9596Y1.5905
G01 X10.9700Y1.5900
G01 X12.9700Y1.5900
G01 X12.9804Y1.5905
G01 X12.9908Y1.5922
G01 X13.0009Y1.5949
G01 X13.0106Y1.5986
G01 X13.0200Y1.6034
G01 X13.0288Y1.6091
G01 X13.0369Y1.6157
G01 X13.0443Y1.6231
G01 X13.0509Y1.6312
G01 X13.0566Y1.6400
G01 X13.0614Y1.6494
G01 X13.0651Y1.6591
G01 X13.0678Y1.6692
G01 X13.0695Y1.6796
G01 X13.0700Y1.6900
G01 X13.0700Y3.3900
G01 X13.0695Y3.4004
G01 X13.0678Y3.4108
G01 X13.0651Y3.4209
G01 X13.0614Y3.4306
G01 X13.0566Y3.4400
G01 X13.0509Y3.4488
G01 X13.0443Y3.4569
G01 X13.0369Y3.4643
G01 X13.0288Y3.4709
G01 X13.0200Y3.4766
G01 X13.0106Y3.4814
G01 X13.0009Y3.4851
G01 X12.9908Y3.4878
G01 X12.9804Y3.4895
G01 X12.9700Y3.4900
G01 X11.6086Y3.4900
G01 X11.5960Y3.5008
G01 X11.5628Y3.5248
G01 X11.5294Y3.5445
G01 X11.4902Y3.5625
G01 X11.4559Y3.5746
G01 X11.4186Y3.5840
G01 X11.3761Y3.5905
G01 X11.3399Y3.5924
G01 X8.8150Y3.5925
G01 X8.8150Y4.0250
G01 X8.8145Y4.0354
G01 X8.8128Y4.0458
G01 X8.8101Y4.0559
G01 X8.8064Y4.0656
G01 X8.8016Y4.0750
G01 X8.7959Y4.0838
G01 X8.7893Y4.0919
G01 X8.7819Y4.0993
G01 X8.7738Y4.1059
G01 X8.7650Y4.1116
G01 X8.7556Y4.1164
G01 X8.7459Y4.1201
G01 X8.7358Y4.1228
G01 X8.7254Y4.1245
G01 X8.7150Y4.1250
G01 X7.4025Y4.1250
G01 X7.4025Y8.0821
G01 X7.7929Y8.4725
G01 X10.6329Y8.4725
G01 X10.6387Y8.4615
G01 X10.6845Y8.3860
G01 X10.7357Y8.3174
G01 X10.7972Y8.2502
G01 X10.8574Y8.1957
G01 X10.9301Y8.1416
G01 X11.0082Y8.0950
G01 X11.0832Y8.0595
G01 X11.1690Y8.0287
G01 X11.2496Y8.0084
G01 X11.3467Y7.9940
G01 X11.4300Y7.9900
G01 X11.5184Y7.9943
G01 X11.6078Y8.0078
G01 X11.6910Y8.0287
G01 X11.7789Y8.0605
G01 X11.8518Y8.0950
G01 X11.9259Y8.1391
G01 X12.0026Y8.1957
G01 X12.0698Y8.2572
G01 X12.1243Y8.3174
G01 X12.1755Y8.3860
G01 X12.2250Y8.4682
G01 X12.2633Y8.5502
G01 X12.2913Y8.6290
G01 X12.3116Y8.7096
G01 X12.3257Y8.8016
G01 X12.3299Y8.8949
G01 X12.3257Y8.9784
G01 X12.3135Y9.0607
G01 X12.2913Y9.1510
G01 X12.2595Y9.2389
G01 X12.2250Y9.3118
G01 X12.1809Y9.3859
G01 X12.1243Y9.4626
G01 X12.0628Y9.5298
G01 X11.9971Y9.5887
G01 X11.9299Y9.6384
G01 X11.8585Y9.6813
G01 X11.7768Y9.7205
G01 X11.6959Y9.7497
G01 X11.6078Y9.7722
G01 X11.5184Y9.7857
G01 X11.4300Y9.7900
G01 X11.3467Y9.7860
G01 X11.2522Y9.7722
G01 X11.1641Y9.7497
G01 X11.0832Y9.7205
G01 X11.0101Y9.6859
G01 X10.9301Y9.6384
G01 X10.8553Y9.5825
G01 X10.7936Y9.5264
G01 X10.7375Y9.4647
G01 X10.6816Y9.3899
G01 X10.6387Y9.3185
G01 X10.6329Y9.3075
G01 X7.6200Y9.3075
G01 X7.5789Y9.3055
G01 X7.5434Y9.3003
G01 X7.4991Y9.2896
G01 X7.4557Y9.2737
G01 X7.4256Y9.2595
G01 X7.3922Y9.2398
G01 X7.3535Y9.2114
G01 X7.3248Y9.1852
G01 X6.6864Y8.5467
G01 X6.6636Y8.5215
G01 X6.6378Y8.4869
G01 X6.6155Y8.4494
G01 X6.6003Y8.4171
G01 X6.5854Y8.3759
G01 X6.5760Y8.3386
G01 X6.5695Y8.2961
G01 X6.5675Y8.2550
G01 X6.5675Y3.9050
G01 X6.5695Y3.8639
G01 X6.5766Y3.8188
G01 X6.5854Y3.7841
G01 X6.5975Y3.7498
G01 X6.6150Y3.7117
G00 Z2.0000
G00 X26.3715Y3.5184
G01 Z-0.2000
G01 X27.6448Y2.2448
G01 X27.6735Y2.2186
G01 X27.7040Y2.1957
G01 X27.7456Y2.1705
G01 X27.7848Y2.1525
G01 X27.8191Y2.1404
G01 X27.8538Y2.1316
G01 X27.8989Y2.1245
G01 X27.9400Y2.1225
G01 X28.4129Y2.1225
G01 X28.4187Y2.1115
G01 X28.4616Y2.0401
G01 X28.5157Y1.9674
G01 X28.5736Y1.9036
G01 X28.6374Y1.8457
G01 X28.7101Y1.7916
G01 X28.7882Y1.7450
G01 X28.8632Y1.7095
G01 X28.9441Y1.6803
G01 X29.0322Y1.6578
G01 X29.1216Y1.6443
G01 X29.2100Y1.6400
G01 X29.2984Y1.6443
G01 X29.3878Y1.6578
G01 X29.4710Y1.6787
G01 X29.5568Y1.7095
G01 X29.6318Y1.7450
G01 X29.7099Y1.7916
G01 X29.7826Y1.8457
G01 X29.8464Y1.9036
G01 X29.9043Y1.9674
G01 X29.9584Y2.0401
G01 X30.0050Y2.1182
G01 X30.0405Y2.1932
G01 X30.0697Y2.2741
G01 X30.0935Y2.3693
G01 X30.1057Y2.4516
G01 X30.1099Y2.5449
G01 X30.1057Y2.6284
G01 X30.0922Y2.7178
G01 X30.0713Y2.8010
G01 X30.0405Y2.8868
G01 X30.0050Y2.9618
G01 X29.9609Y3.0359
G01 X29.9025Y3.1147
G01 X29.8464Y3.1764
G01 X29.7826Y3.2343
G01 X29.7099Y3.2884
G01 X29.6385Y3.3313
G01 X29.5568Y3.3705
G01 X29.4759Y3.3997
G01 X29.3807Y3.4235
G01 X29.2984Y3.4357
G01 X29.2100Y3.4400
G01 X29.1216Y3.4357
G01 X29.0296Y3.4216
G01 X28.9441Y3.3997
G01 X28.8632Y3.3705
G01 X28.7901Y3.3359
G01 X28.7101Y3.2884
G01 X28.6429Y3.2387
G01 X28.5736Y3.1764
G01 X28.5157Y3.1126
G01 X28.4616Y3.0399
G01 X28.4187Y2.9685
G01 X28.4129Y2.9575
G01 X28.1129Y2.9575
G01 X27.0875Y3.9829
G01 X27.0875Y9.3629
G01 X27.0985Y9.3687
G01 X27.1699Y9.4116
G01 X27.2447Y9.4675
G01 X27.3064Y9.5236
G01 X27.3625Y9.5853
G01 X27.4209Y9.6641
G01 X27.4650Y9.7382
G01 X27.4995Y9.8111
G01 X27.5313Y9.8990
G01 X27.5522Y9.9822
G01 X27.5651Y10.0669
G01 X27.5700Y10.1600
G01 X27.5651Y10.2531
G01 X27.5522Y10.3378
G01 X27.5313Y10.4210
G01 X27.4995Y10.5089
G01 X27.4650Y10.5818
G01 X27.4209Y10.6559
G01 X27.3625Y10.7347
G01 X27.3064Y10.7964
G01 X27.2447Y10.8525
G01 X27.1699Y10.9084
G01 X27.0985Y10.9513
G01 X27.0875Y10.9571
G01 X27.0875Y16.3371
G01 X28.1129Y17.3625
G01 X28.3100Y17.3625
G01 X28.3100Y16.9800
G01 X28.3105Y16.9696
G01 X28.3122Y16.9592
G01 X28.3149Y16.9491
G01 X28.3186Y16.9394
