; ==== FlatCAM NC generated file ====
; 3/32 carbide cutter
G90 G40 G17 G21 G94
M6 T1
;=============
G21
G90
G94
F60.00
G00 Z2.0000
M03 S20000
G00 X40.6350Y17.7800
G01 Z-3.0000
G01 X40.6336Y17.8384
G01 X40.6289Y17.9040
G01 X40.6218Y17.9620
G01 X40.6107Y18.0268
G01 X40.5979Y18.0838
G01 X40.5805Y18.1472
G01 X40.5622Y18.2027
G01 X40.5387Y18.2641
G01 X40.5119Y18.3241
G01 X40.4856Y18.3763
G01 X40.4568Y18.4271
G01 X40.4218Y18.4828
G01 X40.3882Y18.5305
G01 X40.3479Y18.5825
G01 X40.3097Y18.6267
G01 X40.2849Y18.6536
G01 X37.7245Y21.2145
G01 X37.6767Y21.2597
G01 X37.6325Y21.2979
G01 X37.5865Y21.3338
G01 X37.5328Y21.3718
G01 X37.4835Y21.4031
G01 X37.4263Y21.4356
G01 X37.3741Y21.4619
G01 X37.3141Y21.4887
G01 X37.2527Y21.5122
G01 X37.1972Y21.5305
G01 X37.1338Y21.5479
G01 X37.0768Y21.5607
G01 X37.0192Y21.5707
G01 X36.9540Y21.5789
G01 X36.8957Y21.5832
G01 X36.8300Y21.5850
G01 X2.5400Y21.5850
G01 X2.4743Y21.5832
G01 X2.4160Y21.5789
G01 X2.3508Y21.5707
G01 X2.2932Y21.5607
G01 X2.2291Y21.5461
G01 X2.1728Y21.5305
G01 X2.1104Y21.5097
G01 X2.0559Y21.4887
G01 X1.9959Y21.4619
G01 X1.9437Y21.4356
G01 X1.8865Y21.4031
G01 X1.8372Y21.3718
G01 X1.7835Y21.3338
G01 X1.7375Y21.2979
G01 X1.6933Y21.2597
G01 X1.6664Y21.2349
G01 X-0.9149Y18.6536
G01 X-0.9397Y18.6267
G01 X-0.9779Y18.5825
G01 X-1.0182Y18.5305
G01 X-1.0518Y18.4828
G01 X-1.0868Y18.4271
G01 X-1.1156Y18.3763
G01 X-1.1419Y18.3241
G01 X-1.1687Y18.2641
G01 X-1.1897Y18.2096
G01 X-1.2105Y18.1472
G01 X-1.2279Y18.0838
G01 X-1.2407Y18.0268
G01 X-1.2507Y17.9692
G01 X-1.2589Y17.9040
G01 X-1.2632Y17.8457
G01 X-1.2650Y17.7800
G01 X-1.2650Y2.5400
G01 X-1.2632Y2.4743
G01 X-1.2589Y2.4160
G01 X-1.2507Y2.3508
G01 X-1.2407Y2.2932
G01 X-1.2279Y2.2362
G01 X-1.2105Y2.1728
G01 X-1.1897Y2.1104
G01 X-1.1687Y2.0559
G01 X-1.1419Y1.9959
G01 X-1.1156Y1.9437
G01 X-1.0831Y1.8865
G01 X-1.0518Y1.8372
G01 X-1.0138Y1.7835
G01 X-0.9779Y1.7375
G01 X-0.9397Y1.6933
G01 X-0.9149Y1.6664
G01 X1.6664Y-0.9149
G01 X1.6933Y-0.9397
G01 X1.7375Y-0.9779
G01 X1.7835Y-1.0138
G01 X1.8372Y-1.0518
G01 X1.8865Y-1.0831
G01 X1.9437Y-1.1156
G01 X2.0025Y-1.1450
G01 X2.0559Y-1.1687
G01 X2.1173Y-1.1922
G01 X2.1728Y-1.2105
G01 X2.2291Y-1.2261
G01 X2.2932Y-1.2407
G01 X2.3580Y-1.2518
G01 X2.4160Y-1.2589
G01 X2.4816Y-1.2636
G01 X2.5400Y-1.2650
G01 X36.8300Y-1.2650
G01 X36.8884Y-1.2636
G01 X36.9540Y-1.2589
G01 X37.0120Y-1.2518
G01 X37.0768Y-1.2407
G01 X37.1338Y-1.2279
G01 X37.1972Y-1.2105
G01 X37.2596Y-1.1897
G01 X37.3141Y-1.1687
G01 X37.3741Y-1.1419
G01 X37.4263Y-1.1156
G01 X37.4835Y-1.0831
G01 X37.5328Y-1.0518
G01 X37.5865Y-1.0138
G01 X37.6325Y-0.9779
G01 X37.6767Y-0.9397
G01 X37.7036Y-0.9149
G01 X40.2849Y1.6664
G01 X40.3097Y1.6933
G01 X40.3479Y1.7375
G01 X40.3882Y1.7895
G01 X40.4218Y1.8372
G01 X40.4531Y1.8865
G01 X40.4856Y1.9437
G01 X40.5150Y2.0025
G01 X40.5387Y2.0559
G01 X40.5622Y2.1173
G01 X40.5805Y2.1728
G01 X40.5961Y2.2291
G01 X40.6107Y2.2932
G01 X40.6218Y2.3580
G01 X40.6289Y2.4160
G01 X40.6336Y2.4816
G01 X40.6350Y2.5400
G01 X40.6350Y17.7800
G00 Z2.0000
G00 Z2.0000
G00 X0Y0
M05
;=============
G0 Z20
M30