N10 (======================================================)
N20 (===   cPost Standard PP for FANUC 11M              ===)
N30 (======================================================)
N40 G90 G17 G40 
N50 (=============== TOOL CHANGE =================)
N60 ( DESC : T3 Cutter D 1.59)
N70 (=============================================)
N80 T3
N90 G91 G28 Z0. M6
N100 G0 G90 S20000 M3
N110  F10
N120 G0 X-22. Y22. Z1.
N130 G1 Z-4. F10
N140 X-22.202 Y22.228
N150 X-21.772 Y22.202
N160 G2 X-22.286 Y21.895 I-0.228 J-0.202
N170 G2 X-21.772 Y21.798 I0.286 J0.105
N180 G1 X-22.202 Y21.772
N190 X-22. Y22.
N200 Z1.
N210 G0 X-17.145 Y17.145
N220 G1 Z-4.
N230 X-17.347 Y17.373
N240 X-16.917 Y17.347
N250 G2 X-17.431 Y17.04 I-0.228 J-0.202
N260 G2 X-16.917 Y16.943 I0.286 J0.105
N270 G1 X-17.347 Y16.917
N280 X-17.145 Y17.145
N290 Z1.
N300 G0 X17.145
N310 G1 Z-4.
N320 X16.943 Y17.373
N330 X17.373 Y17.347
N340 G2 X16.859 Y17.04 I-0.228 J-0.202
N350 G2 X17.373 Y16.943 I0.286 J0.105
N360 G1 X16.943 Y16.917
N370 X17.145 Y17.145
N380 Z1.
N390 G0 X22. Y22.
N400 G1 Z-4.
N410 X21.798 Y22.228
N420 X22.228 Y22.202
N430 G2 X21.714 Y21.895 I-0.228 J-0.202
N440 G2 X22.228 Y21.798 I0.286 J0.105
N450 G1 X21.798 Y21.772
N460 X22. Y22.
N470 Z1.
N480 G0 X34.855 Y17.145
N490 G1 Z-4.
N500 X34.653 Y17.373
N510 X35.083 Y17.347
N520 G2 X34.569 Y17.04 I-0.228 J-0.202
N530 G2 X35.083 Y16.943 I0.286 J0.105
N540 G1 X34.653 Y16.917
N550 X34.855 Y17.145
N560 Z1.
N570 G0 X69.145
N580 G1 Z-4.
N590 X68.943 Y17.373
N600 X69.373 Y17.347
N610 G2 X68.859 Y17.04 I-0.228 J-0.202
N620 G2 X69.373 Y16.943 I0.286 J0.105
N630 G1 X68.943 Y16.917
N640 X69.145 Y17.145
N650 Z1.
N660 G0 Y-17.145
N670 G1 Z-4.
N680 X68.943 Y-16.917
N690 X69.373 Y-16.943
N700 G2 X68.859 Y-17.25 I-0.228 J-0.202
N710 G2 X69.373 Y-17.347 I0.286 J0.105
N720 G1 X68.943 Y-17.373
N730 X69.145 Y-17.145
N740 Z1.
N750 G0 X34.855
N760 G1 Z-4.
N770 X34.653 Y-16.917
N780 X35.083 Y-16.943
N790 G2 X34.569 Y-17.25 I-0.228 J-0.202
N800 G2 X35.083 Y-17.347 I0.286 J0.105
N810 G1 X34.653 Y-17.373
N820 X34.855 Y-17.145
N830 Z1.
N840 G0 X22. Y-22.
N850 G1 Z-4.
N860 X21.798 Y-21.772
N870 X22.228 Y-21.798
N880 G2 X21.714 Y-22.105 I-0.228 J-0.202
N890 G2 X22.228 Y-22.202 I0.286 J0.105
N900 G1 X21.798 Y-22.228
N910 X22. Y-22.
N920 Z1.
N930 G0 X17.145 Y-17.145
N940 G1 Z-4.
N950 X16.943 Y-16.917
N960 X17.373 Y-16.943
N970 G2 X16.859 Y-17.25 I-0.228 J-0.202
N980 G2 X17.373 Y-17.347 I0.286 J0.105
N990 G1 X16.943 Y-17.373
N1000 X17.145 Y-17.145
N1010 Z1.
N1020 G0 X-17.145
N1030 G1 Z-4.
N1040 X-17.347 Y-16.917
N1050 X-16.917 Y-16.943
N1060 G2 X-17.431 Y-17.25 I-0.228 J-0.202
N1070 G2 X-16.917 Y-17.347 I0.286 J0.105
N1080 G1 X-17.347 Y-17.373
N1090 X-17.145 Y-17.145
N1100 Z1.
N1110 G0 X-22. Y-22.
N1120 G1 Z-4.
N1130 X-22.202 Y-21.772
N1140 X-21.772 Y-21.798
N1150 G2 X-22.286 Y-22.105 I-0.228 J-0.202
N1160 G2 X-21.772 Y-22.202 I0.286 J0.105
N1170 G1 X-22.202 Y-22.228
N1180 X-22. Y-22.
N1190 Z1.
N1200 G0 X0. Y-25.795 Z3.
N1210 G0 Z1.
N1220 G1 Z-4.
N1230 X22.
N1240 G3 X25.795 Y-22. I0. J3.795
N1250 G1 Y0.
N1260 Y22.
N1270 G3 X22. Y25.795 I-3.795 J0.
N1280 G1 X0.
N1290 X-22.
N1300 G3 X-25.795 Y22. I0. J-3.795
N1310 G1 Y0.
N1320 Y-22.
N1330 G3 X-22. Y-25.795 I3.795 J0.
N1340 G1 X0.
N1350 Z0. F60
N1360 G0 Z3.
N1370 G0 X34.475 Y-12.481
N1380 G0 Z1.
N1390 G1 Z-4. F10
N1400 Y12.481
N1410 G2 X35.131 Y13.185 I0.705 J0.
N1420 G3 X38.815 Y16.869 I-0.276 J3.96
N1430 G2 X39.519 Y17.525 I0.704 J-0.049
N1440 G1 X52.
N1450 X64.481
N1460 G2 X65.185 Y16.869 I0. J-0.705
N1470 G3 X68.869 Y13.185 I3.96 J0.276
N1480 G2 X69.525 Y12.481 I-0.049 J-0.704
N1490 G1 Y-12.481
N1500 G2 X68.869 Y-13.185 I-0.705 J0.
N1510 G3 X66.118 Y-14.576 I0.276 J-3.96
N1520 G1 X65.581 Y-14.825
N1530 X52.
N1540 X38.419
N1550 X37.882 Y-14.576
N1560 G3 X35.131 Y-13.185 I-3.027 J-2.569
N1570 G2 X34.475 Y-12.481 I0.049 J0.704
N1580 G1 Z0. F60
N1590 G0 Z3.
N1600 G0 X30.885 Y-17.145
N1610 G0 Z1.
N1620 G1 Z-4. F10
N1630 G3 X38.453 Y-18.822 I3.97 J0.
N1640 G2 X39.092 Y-18.415 I0.639 J-0.298
N1650 G1 X52.
N1660 X64.908
N1670 G2 X65.547 Y-18.822 I0. J-0.705
N1680 G3 X73.115 Y-17.145 I3.598 J1.677
N1690 G1 Y17.145
N1700 G3 X69.145 Y21.115 I-3.97 J0.
N1710 G1 X52.
N1720 X34.855
N1730 G3 X30.885 Y17.145 I0. J-3.97
N1740 G1 Y-17.145
N1750 Z0. F60
N1760 G0 Z3.
N1770 G0 Z20.
N1780 M5 M9 M30